LUTs/Afga Ultra Color 100.cube
# Created by: G'MIC (https://gmic.eu)
TITLE "Afga Ultra Color 100"
# LUT size
LUT_3D_SIZE 5
# Data domain
# LUT data points
DOMAIN_MIN 0.000000 0.000000 0.000000
DOMAIN_MAX 0.903226 0.903226 0.903226
0.0040577910840511322 0.0056062838993966579 0.006617511622607708
0.16478690505027771 0.071365006268024445 0.062216613441705704
0.3995169997215271 0.12776611745357513 0.15468792617321014
0.67542433738708496 0.14574399590492249 0.23218251764774323
0.82394218444824219 0.14023116230964661 0.22393833100795746
0.14098423719406128 0.20924842357635498 0.080453522503376007
0.22588434815406799 0.22275726497173309 0.11142643541097641
0.47961995005607605 0.28354242444038391 0.21142643690109253
0.72258841991424561 0.2782142162322998 0.28354814648628235
0.84171861410140991 0.30603450536727905 0.27010840177536011
0.26631110906600952 0.46637529134750366 0.14895981550216675
0.44235336780548096 0.55419111251831055 0.18756958842277527
0.67954748868942261 0.64362466335296631 0.28063473105430603
0.82512146234512329 0.59665435552597046 0.33861666917800903
0.93605720996856689 0.60239464044570923 0.33458411693572998
0.34456345438957214 0.67058783769607544 0.17214107513427734
0.53917187452316284 0.71415913105010986 0.22291919589042664
0.73536902666091919 0.77379816770553589 0.3060029149055481
0.86107462644577026 0.75981485843658447 0.35785186290740967
0.95663577318191528 0.75284236669540405 0.36919012665748596
0.34502223134040833 0.82468122243881226 0.17548799514770508
0.53605431318283081 0.84092134237289429 0.22738035023212433
0.69958925247192383 0.85755252838134766 0.29448577761650085
0.83745944499969482 0.85855990648269653 0.34743234515190125
0.95212411880493164 0.86343288421630859 0.37689843773841858
0.0036774342879652977 0.014120090752840042 0.16723759472370148
0.1510680764913559 0.062132354825735092 0.19124767184257507
0.44375872611999512 0.13660477101802826 0.28426116704940796
0.7079920768737793 0.16912050545215607 0.36207786202430725
0.82433629035949707 0.17146188020706177 0.36005231738090515
0.11125711351633072 0.20321881771087646 0.20607756078243256
0.19127807021141052 0.1931992769241333 0.19462002813816071
0.51977258920669556 0.20499487221240997 0.30114525556564331
0.7539142370223999 0.27459567785263062 0.40456405282020569
0.84996265172958374 0.33256745338439941 0.41911596059799194
0.28373804688453674 0.50619840621948242 0.29301998019218445
0.45914217829704285 0.64631378650665283 0.34289687871932983
0.78056985139846802 0.69914001226425171 0.35287097096443176
0.88518279790878296 0.62400579452514648 0.46464806795120239
0.95624107122421265 0.60409021377563477 0.4947148859500885
0.39069569110870361 0.70322346687316895 0.34165415167808533
0.6030198335647583 0.75116896629333496 0.36588579416275024
0.8121875524520874 0.82288920879364014 0.41722893714904785
0.9128912091255188 0.79637575149536133 0.50438982248306274
0.97508102655410767 0.7835468053817749 0.5319327712059021
0.40037801861763 0.8468393087387085 0.34254297614097595
0.59375303983688354 0.85460507869720459 0.36773404479026794
0.74298983812332153 0.8714863657951355 0.44275692105293274
0.87449640035629272 0.87320327758789062 0.51073932647705078
0.96634703874588013 0.86798989772796631 0.5491178035736084
0.010880454443395138 0.020726399496197701 0.44560894370079041
0.084238938987255096 0.042031537741422653 0.47338315844535828
0.39611285924911499 0.13646852970123291 0.48722606897354126
0.70832645893096924 0.20873077213764191 0.49768790602684021
0.84329444169998169 0.22514130175113678 0.50564569234848022
0.061730369925498962 0.17245598137378693 0.49498915672302246
0.054415706545114517 0.12133100628852844 0.52032029628753662
0.47032266855239868 0.2264334112405777 0.52550089359283447
0.76957082748413086 0.34375819563865662 0.54300534725189209
0.88121259212493896 0.39534127712249756 0.55198419094085693
0.21382828056812286 0.44204384088516235 0.570159912109375
0.38353055715560913 0.56303757429122925 0.63915729522705078
0.682323157787323 0.68108361959457397 0.68418049812316895
0.92078381776809692 0.56569492816925049 0.66306924819946289
0.96349406242370605 0.58255064487457275 0.62340664863586426
0.37203982472419739 0.69924658536911011 0.58769017457962036
0.5676761269569397 0.75625574588775635 0.6266707181930542
0.75772649049758911 0.84531092643737793 0.66137123107910156
0.92763453722000122 0.86265420913696289 0.66236990690231323
0.99020296335220337 0.82388067245483398 0.6625669002532959
0.38042539358139038 0.84506672620773315 0.5718613862991333
0.57359814643859863 0.85985642671585083 0.59835684299468994
0.75898796319961548 0.89203780889511108 0.62078994512557983
0.90352046489715576 0.92312729358673096 0.65543097257614136
0.97892135381698608 0.89502120018005371 0.68378138542175293
0.074470095336437225 0.049405410885810852 0.634532630443573
0.12080447375774384 0.051971077919006348 0.67114472389221191
0.32409840822219849 0.099058561027050018 0.71239644289016724
0.60821449756622314 0.22045759856700897 0.72302848100662231
0.81336921453475952 0.25701591372489929 0.70696127414703369
0.10462741553783417 0.15745045244693756 0.68944615125656128
0.13966828584671021 0.10063616931438446 0.70490020513534546
0.38947850465774536 0.20499281585216522 0.74412411451339722
0.65537530183792114 0.40046155452728271 0.7646668553352356
0.82440519332885742 0.43899548053741455 0.74853891134262085
0.25162696838378906 0.50059998035430908 0.78712379932403564
0.37551525235176086 0.55475550889968872 0.84454011917114258
0.60562026500701904 0.57819509506225586 0.87013709545135498
0.76255589723587036 0.6415637731552124 0.8307729959487915
0.86897468566894531 0.65091603994369507 0.79125481843948364
0.35268488526344299 0.69181531667709351 0.80174499750137329
0.50924110412597656 0.72662699222564697 0.83926630020141602
0.69221252202987671 0.80222249031066895 0.85359323024749756
0.8575817346572876 0.85850721597671509 0.85914039611816406
0.94638073444366455 0.82980310916900635 0.81652450561523438
0.34044373035430908 0.81897884607315063 0.77905422449111938
0.51453810930252075 0.82780879735946655 0.79614007472991943
0.71221423149108887 0.87786674499511719 0.80889993906021118
0.86803120374679565 0.93074649572372437 0.81603199243545532
0.97870290279388428 0.94480806589126587 0.80876582860946655
0.11468672752380371 0.068831294775009155 0.79306215047836304
0.23486657440662384 0.07633545994758606 0.79583138227462769
0.42382550239562988 0.14223258197307587 0.84716260433197021
0.62287485599517822 0.24619658291339874 0.90644419193267822
0.77637583017349243 0.25410008430480957 0.91748315095901489
0.17443278431892395 0.19378414750099182 0.81139194965362549
0.28978100419044495 0.16441787779331207 0.80514061450958252
0.46291932463645935 0.25952324271202087 0.86105334758758545
0.64588636159896851 0.40484455227851868 0.92694485187530518
0.77520239353179932 0.43344330787658691 0.92928731441497803
0.2783854603767395 0.52471297979354858 0.8848186731338501
0.42762547731399536 0.5404125452041626 0.89414465427398682
0.58090174198150635 0.43001449108123779 0.92099678516387939
0.71477735042572021 0.60055214166641235 0.95427310466766357
0.8149874210357666 0.63938480615615845 0.93914437294006348
0.33355000615119934 0.67668420076370239 0.90484791994094849
0.49819964170455933 0.70350909233093262 0.91564589738845825
0.68000310659408569 0.7397722601890564 0.9437488317489624
0.81307542324066162 0.80165833234786987 0.97816389799118042
0.88284492492675781 0.81434172391891479 0.94602197408676147
0.33413586020469666 0.81575781106948853 0.90653270483016968
0.51105397939682007 0.82483726739883423 0.91501766443252563
0.70181918144226074 0.86073213815689087 0.92752653360366821
0.83676373958587646 0.90276628732681274 0.93834292888641357
0.93435496091842651 0.93523800373077393 0.93548959493637085
