LUTs/Afga Ultra Color 100.cube
# Created by: G'MIC (https://gmic.eu)
TITLE "Afga Ultra Color 100"
# LUT size
LUT_3D_SIZE 32
# Data domain
DOMAIN_MIN 0.0 0.0 0.0
DOMAIN_MAX 1.0 1.0 1.0
# LUT data points
0.0040577910840511322 0.0056062838993966579 0.006617511622607708
0.017677271738648415 0.0089032594114542007 0.0081930886954069138
0.037079453468322754 0.015765096992254257 0.0096244383603334427
0.06135835126042366 0.02540416456758976 0.017327232286334038
0.086077287793159485 0.03541787713766098 0.025121273472905159
0.11084716767072678 0.046836141496896744 0.035711165517568588
0.13699513673782349 0.059267248958349228 0.04866621270775795
0.16478690505027771 0.071365006268024445 0.062216613441705704
0.19383017718791962 0.082259640097618103 0.076062530279159546
0.22426199913024902 0.091665163636207581 0.090195707976818085
0.25632515549659729 0.10018662363290787 0.10398346185684204
0.28994396328926086 0.1081378236413002 0.11731012165546417
0.32503816485404968 0.11551515758037567 0.13019779324531555
0.36157801747322083 0.12211801111698151 0.14265424013137817
0.3995169997215271 0.12776611745357513 0.15468792617321014
0.43865719437599182 0.13254411518573761 0.16655318439006805
0.47869172692298889 0.13630327582359314 0.17868572473526001
0.51949453353881836 0.13892045617103577 0.1908143162727356
0.56108313798904419 0.14089418947696686 0.20297300815582275
0.60205549001693726 0.1430419534444809 0.21539178490638733
0.63999170064926147 0.14465822279453278 0.22514723241329193
0.67542433738708496 0.14574399590492249 0.23218251764774323
0.70787858963012695 0.14691846072673798 0.23754197359085083
0.73388671875 0.14763003587722778 0.23994845151901245
0.754619300365448 0.14722619950771332 0.239161416888237
0.77274245023727417 0.14602267742156982 0.23650276660919189
0.78981775045394897 0.14430394768714905 0.23276352882385254
0.8067583441734314 0.14229686558246613 0.22842562198638916
0.82394218444824219 0.14023116230964661 0.22393833100795746
0.84157776832580566 0.13812379539012909 0.21940715610980988
0.85976052284240723 0.13601352274417877 0.2150423526763916
0.87860071659088135 0.13366591930389404 0.21067184209823608
0.012832437641918659 0.02253197506070137 0.0063385171815752983
0.021399457007646561 0.018115218728780746 0.0061159268952906132
0.038415100425481796 0.017628110945224762 0.008695392869412899
0.062040384858846664 0.02679472416639328 0.015086757950484753
0.085827268660068512 0.037958893924951553 0.023037629202008247
0.11027049273252487 0.051037650555372238 0.035202767699956894
0.13666288554668427 0.065290950238704681 0.048814654350280762
0.16442117094993591 0.078584656119346619 0.062916398048400879
0.19344279170036316 0.089982159435749054 0.077774181962013245
0.22409866750240326 0.10025018453598022 0.092428363859653473
0.25635290145874023 0.10995713621377945 0.10653416067361832
0.29013174772262573 0.1191641092300415 0.12011166661977768
0.32544630765914917 0.12766638398170471 0.13315883278846741
0.36231148242950439 0.13520808517932892 0.14566271007061005
0.4005545973777771 0.14182548224925995 0.15792307257652283
0.43991705775260925 0.14728918671607971 0.1705070436000824
0.48026308417320251 0.15129716694355011 0.18314151465892792
0.52158850431442261 0.15438595414161682 0.19567136466503143
0.56375974416732788 0.15703368186950684 0.20873582363128662
0.60460066795349121 0.15957663953304291 0.22151534259319305
0.64255064725875854 0.16136558353900909 0.23112879693508148
0.67848688364028931 0.16286413371562958 0.23847508430480957
0.71039855480194092 0.16454094648361206 0.24414913356304169
0.73520147800445557 0.16527467966079712 0.24599519371986389
0.75518429279327393 0.16494494676589966 0.24480284750461578
0.77276134490966797 0.16388683021068573 0.24181497097015381
0.78944879770278931 0.16240233182907104 0.23780712485313416
0.80609613656997681 0.16077007353305817 0.23333142697811127
0.8229910135269165 0.15916498005390167 0.22880013287067413
0.84033113718032837 0.15758006274700165 0.22432234883308411
0.85821586847305298 0.1558830738067627 0.21995781362056732
0.87690472602844238 0.15397661924362183 0.21550753712654114
0.028119109570980072 0.04596155509352684 0.0095263244584202766
0.031572949141263962 0.045724395662546158 0.0064482423476874828
0.046670876443386078 0.036817107349634171 0.0095489900559186935
0.066280581057071686 0.033597443252801895 0.012044125236570835
0.087207227945327759 0.042837031185626984 0.021735562011599541
0.11154960840940475 0.057286497205495834 0.03476155549287796
0.13784100115299225 0.072509631514549255 0.048898607492446899
0.16554729640483856 0.086132422089576721 0.064726218581199646
0.19485969841480255 0.098671741783618927 0.080682262778282166
0.22577650845050812 0.11058995127677917 0.095896236598491669
0.25825619697570801 0.12189003825187683 0.11035239696502686
0.29236215353012085 0.13237835466861725 0.12407854199409485
0.32814618945121765 0.14181874692440033 0.1371026486158371
0.36544817686080933 0.15015871822834015 0.14972113072872162
0.40404194593429565 0.15719631314277649 0.1626797616481781
0.44388496875762939 0.16268019378185272 0.17589555680751801
0.48486512899398804 0.16720665991306305 0.18905605375766754
0.52690345048904419 0.17101258039474487 0.2023504227399826
0.56931197643280029 0.17398542165756226 0.21623282134532928
0.60983216762542725 0.1764666736125946 0.22874990105628967
0.64803636074066162 0.17841559648513794 0.23827293515205383
0.68409204483032227 0.18036295473575592 0.24603433907032013
0.71419668197631836 0.18209640681743622 0.25116410851478577
0.73736512660980225 0.18270556628704071 0.2521856427192688
0.75634759664535522 0.18240934610366821 0.25046819448471069
0.77330237627029419 0.18154957890510559 0.24712285399436951
0.78963857889175415 0.18045958876609802 0.24289962649345398
0.80601763725280762 0.17943558096885681 0.23843951523303986
0.82266712188720703 0.17849984765052795 0.23396344482898712
0.83970034122467041 0.17754018306732178 0.2296413779258728
0.85748505592346191 0.1764288991689682 0.22522167861461639
0.87601578235626221 0.17552784085273743 0.22124543786048889
0.048034731298685074 0.074214532971382141 0.019275827333331108
0.050261832773685455 0.073416359722614288 0.017435798421502113
0.059140216559171677 0.066375732421875 0.017741944640874863
0.076868124306201935 0.05982612818479538 0.021219080314040184
0.094516605138778687 0.059711460024118423 0.027140675112605095
0.11597396433353424 0.068695582449436188 0.036732282489538193
0.14158922433853149 0.082252621650695801 0.051971439272165298
0.16954946517944336 0.096870377659797668 0.069209560751914978
0.19906327128410339 0.110976941883564 0.08566390722990036
0.23009508848190308 0.12426216155290604 0.10107149928808212
0.26285135746002197 0.13663943111896515 0.11556761711835861
0.29749226570129395 0.14793157577514648 0.12921218574047089
0.33382260799407959 0.15792706608772278 0.14224943518638611
0.37160149216651917 0.16635720431804657 0.15545222163200378
0.41084098815917969 0.17334316670894623 0.16911303997039795
0.45139899849891663 0.17949911952018738 0.18298690021038055
0.49301263689994812 0.18497245013713837 0.19695806503295898
0.5353928804397583 0.1891300231218338 0.21094970405101776
0.577667236328125 0.19172206521034241 0.22489863634109497
0.61798441410064697 0.1940104067325592 0.23701693117618561
0.65628820657730103 0.19606707990169525 0.24644105136394501
0.69113439321517944 0.19820821285247803 0.25422969460487366
0.71866124868392944 0.19962011277675629 0.25816148519515991
0.74008411169052124 0.20005834102630615 0.25831371545791626
0.7580265998840332 0.1998545378446579 0.25606164336204529
0.77443492412567139 0.19937290251255035 0.25241637229919434
0.79051899909973145 0.19896326959133148 0.24814550578594208
0.80669957399368286 0.19879947602748871 0.24381968379020691
0.82309001684188843 0.19871805608272552 0.23961064219474792
0.83999341726303101 0.19848443567752838 0.2353275865316391
0.85791945457458496 0.19856618344783783 0.23123656213283539
0.87610244750976562 0.19868358969688416 0.22805748879909515
0.071098148822784424 0.10474809259176254 0.032844927161931992
0.073592118918895721 0.10180701315402985 0.030331481248140335
0.077518723905086517 0.09854646772146225 0.029611017554998398
0.090794287621974945 0.095796592533588409 0.036037132143974304
0.1088392361998558 0.092742383480072021 0.04189184308052063
0.12740428745746613 0.094221346080303192 0.047300834208726883
0.15066865086555481 0.10200104117393494 0.060431260615587234
0.17745618522167206 0.11389215290546417 0.076532714068889618
0.20643004775047302 0.12747842073440552 0.092497900128364563
0.23760749399662018 0.1411864310503006 0.10775503516197205
0.27106478810310364 0.15417425334453583 0.1220540851354599
0.30632072687149048 0.16584163904190063 0.135633185505867
0.34314686059951782 0.17560017108917236 0.14931236207485199
0.38165923953056335 0.18394356966018677 0.16329258680343628
0.42163866758346558 0.19176621735095978 0.17761704325675964
0.4627281129360199 0.1989445686340332 0.19223947823047638
0.50464648008346558 0.204978346824646 0.20668318867683411
0.54700976610183716 0.2087024450302124 0.22071640193462372
0.58895260095596313 0.21055683493614197 0.23441745340824127
0.62884485721588135 0.21253560483455658 0.24602819979190826
0.66644811630249023 0.21455535292625427 0.25530797243118286
0.69869261980056763 0.21638235449790955 0.26230978965759277
0.72351539134979248 0.21734115481376648 0.26492732763290405
0.74326938390731812 0.21768219769001007 0.26426726579666138
0.76031434535980225 0.21778181195259094 0.26157113909721375
0.77637279033660889 0.2179999053478241 0.2577718198299408
0.79233729839324951 0.21863715350627899 0.25369617342948914
0.80836659669876099 0.21958747506141663 0.24972039461135864
0.82460016012191772 0.22043062746524811 0.24572014808654785
0.84174561500549316 0.22145663201808929 0.24165208637714386
0.8597111701965332 0.22304292023181915 0.23853456974029541
0.87744075059890747 0.22340664267539978 0.23555402457714081
0.094171389937400818 0.1367848664522171 0.047055874019861221
0.098631538450717926 0.13507600128650665 0.046357244253158569
0.10324618220329285 0.13448129594326019 0.048752393573522568
0.11145201325416565 0.13353681564331055 0.054773803800344467
0.12538130581378937 0.13130828738212585 0.060146983712911606
0.1428581178188324 0.13061991333961487 0.064088277518749237
0.16398291289806366 0.13354997336864471 0.073236383497714996
0.18932273983955383 0.14008842408657074 0.086539469659328461
0.21820251643657684 0.15067760646343231 0.10121842473745346
0.24999085068702698 0.16335415840148926 0.11575663834810257
0.28374886512756348 0.17569747567176819 0.12994420528411865
0.31941878795623779 0.18627898395061493 0.14424794912338257
0.35699725151062012 0.19575239717960358 0.15865960717201233
0.39616170525550842 0.20512369275093079 0.17321275174617767
0.43656787276268005 0.21415871381759644 0.1881268173456192
0.47790175676345825 0.22213619947433472 0.20298022031784058
0.51976644992828369 0.22813926637172699 0.21742984652519226
0.56168776750564575 0.23053209483623505 0.23112708330154419
0.60284650325775146 0.23110237717628479 0.24441048502922058
0.64178597927093506 0.23245063424110413 0.25533142685890198
0.67752343416213989 0.2340855598449707 0.26436373591423035
0.70639067888259888 0.23519040644168854 0.26992151141166687
0.72872388362884521 0.23577611148357391 0.2713647186756134
0.74706387519836426 0.23628376424312592 0.27004730701446533
0.76351028680801392 0.23706857860088348 0.26708999276161194
0.77949404716491699 0.23844403028488159 0.26342102885246277
0.79547137022018433 0.24049128592014313 0.25981554388999939
0.81138968467712402 0.24265556037425995 0.25627890229225159
0.82783401012420654 0.24479940533638 0.25248861312866211
0.84540659189224243 0.24760125577449799 0.24926407635211945
0.86305946111679077 0.24992606043815613 0.24691678583621979
0.88038855791091919 0.25017198920249939 0.24363930523395538
0.11802226305007935 0.17221969366073608 0.063742704689502716
0.12409957498311996 0.17169681191444397 0.065391570329666138
0.12974253296852112 0.17135615646839142 0.06891363114118576
0.13654699921607971 0.17088557779788971 0.074033923447132111
0.14586128294467926 0.17075842618942261 0.078153379261493683
0.16002541780471802 0.1719452291727066 0.081551417708396912
0.18031342327594757 0.17401431500911713 0.088166207075119019
0.20584961771965027 0.17709788680076599 0.098576754331588745
0.23527471721172333 0.18320733308792114 0.11152447015047073
0.26720723509788513 0.19235610961914062 0.12566810846328735
0.30167576670646667 0.20236040651798248 0.14049811661243439
0.33808872103691101 0.21261164546012878 0.1553582102060318
0.37603509426116943 0.22325575351715088 0.17006434500217438
0.41534367203712463 0.23387385904788971 0.1848289966583252
0.45579671859741211 0.24349699914455414 0.19977459311485291
0.49692893028259277 0.25141987204551697 0.21438974142074585
0.53822952508926392 0.25616317987442017 0.22845180332660675
0.57936298847198486 0.25711053609848022 0.24167436361312866
0.61922383308410645 0.25605520606040955 0.25442376732826233
0.6562381386756897 0.25505015254020691 0.26470369100570679
0.68873721361160278 0.25497144460678101 0.27292481064796448
0.71424388885498047 0.25535055994987488 0.27697241306304932
0.73450887203216553 0.2559148371219635 0.27750372886657715
0.75187641382217407 0.25706595182418823 0.27579265832901001
0.76816117763519287 0.25905567407608032 0.27286842465400696
0.78434664011001587 0.26207414269447327 0.26974186301231384
0.80036777257919312 0.26568692922592163 0.2668403685092926
0.81643229722976685 0.26921293139457703 0.2636091411113739
0.83347785472869873 0.27314746379852295 0.26042425632476807
0.85110336542129517 0.27725198864936829 0.25844079256057739
0.86829423904418945 0.27945131063461304 0.25599581003189087
0.88526856899261475 0.27962049841880798 0.25238034129142761
0.14098423719406128 0.20924842357635498 0.080453522503376007
0.14794629812240601 0.20883964002132416 0.082816824316978455
0.15441131591796875 0.20841439068317413 0.086593292653560638
0.16157770156860352 0.20833033323287964 0.090823210775852203
0.16993117332458496 0.21057595312595367 0.093855947256088257
0.18171879649162292 0.21576029062271118 0.096994787454605103
0.20011375844478607 0.21973101794719696 0.10252286493778229
0.22588434815406799 0.22275726497173309 0.11142643541097641
0.25649231672286987 0.22586594521999359 0.12307235598564148
0.29033273458480835 0.23336663842201233 0.13785402476787567
0.32590135931968689 0.24386690557003021 0.15328077971935272
0.36254420876502991 0.25484034419059753 0.16818243265151978
0.40043967962265015 0.26555648446083069 0.18263545632362366
0.43959793448448181 0.27529272437095642 0.19701193273067474
0.47961995005607605 0.28354242444038391 0.21142643690109253
0.52001786231994629 0.28943517804145813 0.22561031579971313
0.56040060520172119 0.2920575737953186 0.23931768536567688
0.60041731595993042 0.2916751503944397 0.25317376852035522
0.63793313503265381 0.28818774223327637 0.26544997096061707
0.67134284973144531 0.28267431259155273 0.27423936128616333
0.69979888200759888 0.27851390838623047 0.28060328960418701
0.72258841991424561 0.2782142162322998 0.28354814648628235
0.74142122268676758 0.27939769625663757 0.28355100750923157
0.75842159986495972 0.28178378939628601 0.28182405233383179
0.77500665187835693 0.28548479080200195 0.27938124537467957
0.79148966073989868 0.29036301374435425 0.27721479535102844
0.80762678384780884 0.29543516039848328 0.27484306693077087
0.82423365116119385 0.30056893825531006 0.27204972505569458
0.84171861410140991 0.30603450536727905 0.27010840177536011
0.85892367362976074 0.31022205948829651 0.26856967806816101
0.87567442655563354 0.31213495135307312 0.26570782065391541
0.89226365089416504 0.3121715784072876 0.26174762845039368
0.16214227676391602 0.24649964272975922 0.095333263278007507
0.16991801559925079 0.24605567753314972 0.098102249205112457
0.1774817556142807 0.24582459032535553 0.10188140720129013
0.18590487539768219 0.24702736735343933 0.10500772297382355
0.19539029896259308 0.25122863054275513 0.107331782579422
0.20747064054012299 0.25853994488716125 0.11053653806447983
0.22542324662208557 0.26698780059814453 0.11590104550123215
0.25130307674407959 0.27485233545303345 0.12415846437215805
0.28236302733421326 0.28201904892921448 0.13551910221576691
0.31712344288825989 0.29278725385665894 0.15045613050460815
0.35354062914848328 0.30465510487556458 0.1658700555562973
0.39089787006378174 0.31558233499526978 0.18060877919197083
0.4295712411403656 0.32443329691886902 0.19438005983829498
0.46921396255493164 0.33173239231109619 0.20815156400203705
0.50881475210189819 0.33688193559646606 0.22275947034358978
0.54754143953323364 0.3376423716545105 0.23711250722408295
0.58546513319015503 0.33427858352661133 0.25119897723197937
0.6227145791053772 0.32919096946716309 0.26529690623283386
0.65688371658325195 0.32262098789215088 0.2763180136680603
0.68629634380340576 0.31491172313690186 0.28338110446929932
0.71107655763626099 0.30773738026618958 0.28754687309265137
0.73209244012832642 0.3060571551322937 0.28991103172302246
0.75031810998916626 0.30844306945800781 0.28991010785102844
0.7675594687461853 0.31249144673347473 0.28860962390899658
0.78467214107513428 0.31806313991546631 0.28720897436141968
0.80133843421936035 0.32447189092636108 0.2859376072883606
0.81783246994018555 0.33081838488578796 0.28392946720123291
0.83502006530761719 0.33719584345817566 0.28199565410614014
0.85230726003646851 0.34298565983772278 0.28114840388298035
0.86897504329681396 0.34667938947677612 0.27922859787940979
0.88528794050216675 0.34827151894569397 0.27595934271812439
0.90145456790924072 0.34808796644210815 0.27164950966835022
0.18154336512088776 0.28381332755088806 0.10847920924425125
0.19051001965999603 0.28352522850036621 0.11154872179031372
0.19983918964862823 0.28426605463027954 0.11472371965646744
0.21001280844211578 0.28703439235687256 0.11716895550489426
0.2211761474609375 0.29248014092445374 0.11968504637479782
0.23522172868251801 0.30199190974235535 0.12346436083316803
0.25459793210029602 0.31477010250091553 0.12913461029529572
0.28006473183631897 0.3292229175567627 0.13721008598804474
0.31095156073570251 0.34513777494430542 0.14899525046348572
0.34658387303352356 0.35958543419837952 0.16347342729568481
0.38431447744369507 0.37082970142364502 0.17788389325141907
0.4233623743057251 0.37978404760360718 0.19139286875724792
0.46329841017723083 0.38730618357658386 0.20515289902687073
0.5024828314781189 0.3913988471031189 0.22032064199447632
0.53984028100967407 0.39054334163665771 0.23540759086608887
0.57558101415634155 0.38544374704360962 0.24930597841739655
0.61062401533126831 0.37786212563514709 0.26256513595581055
0.64503210783004761 0.36987525224685669 0.27576625347137451
0.67576336860656738 0.36130109429359436 0.28566378355026245
0.7016938328742981 0.35288026928901672 0.29165303707122803
0.72367799282073975 0.34564486145973206 0.29451665282249451
0.74356645345687866 0.34239718317985535 0.29637032747268677
0.76192688941955566 0.34539830684661865 0.29694327712059021
0.77970510721206665 0.35092455148696899 0.29652181267738342
0.79717278480529785 0.35782656073570251 0.29639631509780884
0.81400138139724731 0.36498317122459412 0.29552933573722839
0.83095932006835938 0.37183064222335815 0.29398840665817261
0.84826576709747314 0.37835389375686646 0.29343238472938538
0.86501896381378174 0.38354915380477905 0.29258936643600464
0.88121128082275391 0.38671216368675232 0.29020985960960388
0.89708620309829712 0.38793456554412842 0.28657564520835876
0.91283559799194336 0.38750916719436646 0.2819400429725647
0.19963154196739197 0.32132342457771301 0.12007975578308105
0.2103971391916275 0.32170385122299194 0.12293455749750137
0.22186191380023956 0.32348737120628357 0.12557573616504669
0.23377209901809692 0.3270907998085022 0.12799586355686188
0.24693652987480164 0.33407697081565857 0.13097971677780151
0.26355427503585815 0.34618476033210754 0.13558906316757202
0.28520575165748596 0.36268457770347595 0.14224821329116821
0.31201824545860291 0.38293296098709106 0.15103958547115326
0.3440207839012146 0.40482679009437561 0.16169776022434235
0.38082531094551086 0.42174142599105835 0.17415577173233032
0.42004996538162231 0.43340429663658142 0.18730635941028595
0.46015125513076782 0.44267907738685608 0.20164845883846283
0.49889004230499268 0.44750607013702393 0.2174212783575058
0.53538286685943604 0.44675466418266296 0.2329583615064621
0.56981909275054932 0.44176045060157776 0.24711403250694275
0.60279583930969238 0.43423536419868469 0.25972416996955872
0.63545233011245728 0.4253978431224823 0.27184402942657471
0.66723310947418213 0.41631639003753662 0.28416112065315247
0.69489192962646484 0.40722176432609558 0.29332181811332703
0.7183343768119812 0.39937543869018555 0.29902032017707825
0.73879110813140869 0.39379569888114929 0.30186432600021362
0.75799119472503662 0.39113757014274597 0.30365428328514099
0.77622395753860474 0.39313510060310364 0.30475112795829773
0.79414564371109009 0.39794489741325378 0.3052404522895813
0.81168711185455322 0.40446525812149048 0.305726557970047
0.82880079746246338 0.41105595231056213 0.30514809489250183
0.8461495041847229 0.41712790727615356 0.30481472611427307
0.86324071884155273 0.42287304997444153 0.3051505982875824
0.87955212593078613 0.42734020948410034 0.30391615629196167
0.89534693956375122 0.42999556660652161 0.30119282007217407
0.910819411277771 0.43087470531463623 0.29725125432014465
0.92615574598312378 0.4301837682723999 0.29231300950050354
0.21717607975006104 0.35903629660606384 0.12974755465984344
0.2300286591053009 0.35994687676429749 0.13230039179325104
0.24317044019699097 0.36211499571800232 0.1347614973783493
0.25669935345649719 0.36677804589271545 0.13744126260280609
0.27235695719718933 0.37600618600845337 0.14127516746520996
0.29229125380516052 0.39093101024627686 0.14711064100265503
0.31698903441429138 0.40976738929748535 0.15454526245594025
0.34593325853347778 0.43142431974411011 0.16261310875415802
0.38005593419075012 0.4560546875 0.17203524708747864
0.41814044117927551 0.47913795709609985 0.18323692679405212
0.45795699954032898 0.4955269992351532 0.19731634855270386
0.49653816223144531 0.5037238597869873 0.21363388001918793
0.53274458646774292 0.50521588325500488 0.22961461544036865
0.56661748886108398 0.50180965662002563 0.24411089718341827
0.59853476285934448 0.49524137377738953 0.25688186287879944
0.62923562526702881 0.48688152432441711 0.2681526243686676
0.65979725122451782 0.4775446355342865 0.27910250425338745
0.68917208909988403 0.46845811605453491 0.29061919450759888
0.71435481309890747 0.46030029654502869 0.29950025677680969
0.73622125387191772 0.45365485548973083 0.30560427904129028
0.75616985559463501 0.44877496361732483 0.30973649024963379
0.77491873502731323 0.44702321290969849 0.31314554810523987
0.79235410690307617 0.44841000437736511 0.31433457136154175
0.80956655740737915 0.45117190480232239 0.3139854371547699
0.8269878625869751 0.45556008815765381 0.3139597475528717
0.84447842836380005 0.460377037525177 0.31398674845695496
0.86228829622268677 0.46492102742195129 0.31553411483764648
0.87923216819763184 0.46965232491493225 0.3160494863986969
0.89527791738510132 0.47339475154876709 0.31460294127464294
0.91071921586990356 0.47556853294372559 0.31162330508232117
0.92578524351119995 0.47608563303947449 0.30740562081336975
0.94068950414657593 0.47506746649742126 0.30218040943145752
0.23462973535060883 0.3959977924823761 0.13738670945167542
0.24891270697116852 0.39708212018013 0.13993188738822937
0.2632538378238678 0.39994454383850098 0.14255319535732269
0.27883386611938477 0.40645709633827209 0.14593353867530823
0.29782676696777344 0.41817513108253479 0.15093931555747986
0.32111534476280212 0.43372431397438049 0.15727910399436951
0.34808635711669922 0.45217090845108032 0.16388700902462006
0.37994557619094849 0.47539740800857544 0.17164179682731628
0.41653212904930115 0.50271999835968018 0.18129841983318329
0.45493653416633606 0.52969849109649658 0.19352975487709045
0.49242258071899414 0.54959225654602051 0.20846132934093475
0.52924633026123047 0.55882358551025391 0.22480815649032593
0.56378459930419922 0.56039166450500488 0.23997986316680908
