LUTs/Agfa Vista 200.cube
# Created by: G'MIC (https://gmic.eu)
TITLE "Agfa Vista 200"
# LUT size
LUT_3D_SIZE 5
# Data domain
# LUT data points
DOMAIN_MIN 0.000000 0.000000 0.000000
DOMAIN_MAX 0.903226 0.903226 0.903226
0.0028715881053358316 0.0032274459954351187 0.0021727592684328556
0.12636356055736542 0.00063717726152390242 2.6241570594720542e-05
0.40367290377616882 0 0
0.70702064037322998 0 0
0.91844838857650757 0 0
0.076368920505046844 0.17816103994846344 0.045608736574649811
0.16806691884994507 0.16482879221439362 0.031694937497377396
0.45062988996505737 0.13487987220287323 0.0051312446594238281
0.73536640405654907 0.085211388766765594 0
0.93156981468200684 0.02307942695915699 0
0.004020503256469965 0.50708603858947754 0.11793903261423111
0.20475544035434723 0.50133860111236572 0.10663051903247833
0.53006106615066528 0.48440879583358765 0.077562451362609863
0.79706579446792603 0.4513927698135376 0.04152829572558403
0.99008381366729736 0.38922840356826782 0.01113379281014204
0.22283570468425751 0.75697046518325806 0.16141135990619659
0.3782232403755188 0.75401085615158081 0.14813528954982758
0.62748509645462036 0.74740946292877197 0.11411239206790924
0.84001946449279785 0.73558032512664795 0.0955062136054039
1 0.71451848745346069 0.079816721379756927
0.52580398321151733 0.92784374952316284 0.2592930793762207
0.5927736759185791 0.92749124765396118 0.25265911221504211
0.72747659683227539 0.92669850587844849 0.23782019317150116
0.89007049798965454 0.92194712162017822 0.21533583104610443
1 0.91450506448745728 0.17993055284023285
0 0.00045594878611154854 0.086720302700996399
0.097881041467189789 0 0.070689059793949127
0.38302481174468994 0 0.031926784664392471
0.69139397144317627 0 0.0030918156262487173
0.90429461002349854 0 0
0.049878504127264023 0.15124586224555969 0.15034091472625732
0.14080147445201874 0.13842648267745972 0.13820008933544159
0.427450031042099 0.10993269085884094 0.10059020668268204
0.71389150619506836 0.062911823391914368 0.051635466516017914
0.91158676147460938 0.012161177583038807 0.015040313825011253
1.1319266377540771e-05 0.49790656566619873 0.24344635009765625
0.15139269828796387 0.49175044894218445 0.23129820823669434
0.50362193584442139 0.47363555431365967 0.19910338521003723
0.77253568172454834 0.43849912285804749 0.16391544044017792
0.96830517053604126 0.37240347266197205 0.13150462508201599
0.12533409893512726 0.75697046518325806 0.3327576220035553
0.32332637906074524 0.75417250394821167 0.32370749115943909
0.59216040372848511 0.74735122919082642 0.30088368058204651
0.80959427356719971 0.73512548208236694 0.27583059668540955
0.99575263261795044 0.7133905291557312 0.24545519053936005
0.47721055150032043 0.93141281604766846 0.4194282591342926
0.54926460981369019 0.93141281604766846 0.4143708348274231
0.69064176082611084 0.92753082513809204 0.4033893346786499
0.85750669240951538 0.92367643117904663 0.38743159174919128
0.99999713897705078 0.91707450151443481 0.36463940143585205
0 0 0.27859529852867126
0.047789435833692551 0 0.270427405834198
0.34214070439338684 0 0.23978109657764435
0.65533047914505005 0 0.19995264708995819
0.86933493614196777 0 0.16932679712772369
0.0064816228114068508 0.11356112360954285 0.36672782897949219
0.081330969929695129 0.10176708549261093 0.35863184928894043
0.37412151694297791 0.074518777430057526 0.32668325304985046
0.665374755859375 0.033162686973810196 0.28669241070747375
0.8649752140045166 0.001803385210223496 0.25210133194923401
0 0.47396251559257507 0.48502200841903687
0.066043511033058167 0.46674436330795288 0.47372713685035706
0.44623035192489624 0.44587811827659607 0.44615772366523743
0.72178840637207031 0.40603160858154297 0.41431823372840881
0.91776078939437866 0.32972449064254761 0.38156288862228394
0.00098432996310293674 0.75291091203689575 0.57801991701126099
0.19064302742481232 0.75010120868682861 0.56969714164733887
0.52555257081985474 0.74238389730453491 0.54961550235748291
0.755543053150177 0.72927343845367432 0.52873325347900391
0.9537467360496521 0.70559471845626831 0.5053255558013916
0.38349366188049316 0.93533438444137573 0.64097124338150024
0.4697650671005249 0.93503344058990479 0.63599354028701782
0.62773996591567993 0.9314124584197998 0.62509417533874512
0.80569428205490112 0.92717689275741577 0.61001938581466675
0.98146188259124756 0.91974294185638428 0.59099018573760986
0 0 0.52427709102630615
0.0021425406448543072 0 0.51806545257568359
0.28097158670425415 0 0.48940891027450562
0.60485440492630005 0 0.45340722799301147
0.82261389493942261 0 0.42773330211639404
0 0.055363636463880539 0.59595727920532227
0.013707545585930347 0.04488082230091095 0.58795046806335449
0.30381137132644653 0.023588577285408974 0.5557713508605957
0.60656487941741943 0.0035515311174094677 0.51624888181686401
0.8140985369682312 0 0.48702350258827209
0 0.41358989477157593 0.69221144914627075
0.0034517704043537378 0.40493729710578918 0.68114864826202393
0.38784191012382507 0.37899395823478699 0.65017884969711304
0.67067921161651611 0.3285847008228302 0.61445343494415283
0.86625868082046509 0.23294498026371002 0.57876455783843994
0 0.73759365081787109 0.76421844959259033
0.035791844129562378 0.73440790176391602 0.75488662719726562
0.46387079358100891 0.72543114423751831 0.7329522967338562
0.71095645427703857 0.71056532859802246 0.71073335409164429
0.91584908962249756 0.68340641260147095 0.68706417083740234
0.26663264632225037 0.93509972095489502 0.81027978658676147
0.38414618372917175 0.93472403287887573 0.80500990152359009
0.56857854127883911 0.93173515796661377 0.79366070032119751
0.76046717166900635 0.9269561767578125 0.7786327600479126
0.94436818361282349 0.91862279176712036 0.76079314947128296
0 0 0.7109254002571106
0 0 0.70310169458389282
0.21896624565124512 0 0.67264527082443237
0.56286430358886719 0 0.6331932544708252
0.78770607709884644 0 0.60730153322219849
0 0.0022456434089690447 0.75357234477996826
0 0.00063036853680387139 0.74642711877822876
0.23124960064888 0 0.71505492925643921
0.55986446142196655 0 0.67773306369781494
0.78085976839065552 0 0.652698814868927
0 0.28022053837776184 0.832752525806427
0.037088405340909958 0.26715666055679321 0.82239460945129395
0.3313387930393219 0.23013511300086975 0.78783494234085083
0.61470329761505127 0.16584882140159607 0.74890965223312378
0.8106304407119751 0.07380744069814682 0.71385371685028076
0 0.6992986798286438 0.91616863012313843
1.2846695653934148e-06 0.69513076543807983 0.9059177041053772
0.39740639925003052 0.68362456560134888 0.88188076019287109
0.66888034343719482 0.66418850421905518 0.85804712772369385
0.88160616159439087 0.62763375043869019 0.83320212364196777
0.040327508002519608 0.92923164367675781 0.96120083332061768
0.24319656193256378 0.92784363031387329 0.95539706945419312
0.4955497682094574 0.9243207573890686 0.94270360469818115
0.71156847476959229 0.91846519708633423 0.9265713095664978
0.90867704153060913 0.907867431640625 0.90826213359832764
