LUTs/Agfa Precisa 100.cube
# Created by: G'MIC (https://gmic.eu)
TITLE "Agfa Precisa 100"
# LUT size
LUT_3D_SIZE 5
# Data domain
# LUT data points
DOMAIN_MIN 0.000000 0.000000 0.000000
DOMAIN_MAX 0.903226 0.903226 0.903226
0.0087817171588540077 0.0088852383196353912 0.0069312741979956627
0.15791000425815582 0.014803687110543251 0.010096976533532143
0.35845521092414856 0.024516168981790543 0.050620600581169128
0.62794524431228638 0.064023882150650024 0.12275783717632294
0.8787493109703064 0.1083485335111618 0.18809401988983154
0.10683970898389816 0.1783297061920166 0.0675463005900383
0.19430789351463318 0.18487884104251862 0.070136502385139465
0.39682161808013916 0.19746957719326019 0.072419054806232452
0.66138792037963867 0.19876618683338165 0.09459424763917923
0.89481252431869507 0.14603222906589508 0.18217596411705017
0.13584163784980774 0.41553494334220886 0.15129660069942474
0.24259431660175323 0.42303791642189026 0.14971624314785004
0.44988027215003967 0.43915852904319763 0.13794843852519989
0.70571351051330566 0.45422220230102539 0.10386979579925537
0.9383847713470459 0.42163076996803284 0.10784236341714859
0.22602231800556183 0.69576126337051392 0.28298366069793701
0.32526218891143799 0.70347326993942261 0.28056105971336365
0.51992875337600708 0.72304177284240723 0.26386156678199768
0.74068880081176758 0.75064545869827271 0.19602629542350769
0.96493220329284668 0.78035318851470947 0.038619436323642731
0.45622342824935913 0.91940665245056152 0.50251919031143188
0.50824850797653198 0.92474257946014404 0.50124859809875488
0.62856274843215942 0.94057446718215942 0.49203208088874817
0.7891700267791748 0.96739941835403442 0.45268765091896057
0.97039616107940674 0.99920976161956787 0.28668791055679321
0.002595104742795229 0.0050770514644682407 0.11737332493066788
0.13869057595729828 0.0094019100069999695 0.11751443892717361
0.35011911392211914 0.022364925593137741 0.11902545392513275
0.63233160972595215 0.064315393567085266 0.12424605339765549
0.88600689172744751 0.10927066951990128 0.19037774205207825
0.091057159006595612 0.16859467327594757 0.1763407289981842
0.17801694571971893 0.17610414326190948 0.17619946599006653
0.38516825437545776 0.19031834602355957 0.17361180484294891
0.65895897150039673 0.20191881060600281 0.15018031001091003
0.90142273902893066 0.16402378678321838 0.17883020639419556
0.1154988706111908 0.40799081325531006 0.24864737689495087
0.22646690905094147 0.41494566202163696 0.25011140108108521
0.43916475772857666 0.43035706877708435 0.24478705227375031
0.69820117950439453 0.448274165391922 0.19694620370864868
0.9420434832572937 0.43973392248153687 0.10705284774303436
0.21093779802322388 0.68591988086700439 0.37011462450027466
0.31460613012313843 0.6928025484085083 0.36995083093643188
0.51253759860992432 0.71193838119506836 0.36098253726959229
0.73380386829376221 0.73831796646118164 0.31313544511795044
0.95831060409545898 0.76852196455001831 0.12327494472265244
0.4522736668586731 0.91117942333221436 0.55695199966430664
0.50437420606613159 0.9167022705078125 0.55727273225784302
0.6250462532043457 0.93164932727813721 0.55320268869400024
0.78543764352798462 0.95627462863922119 0.5263289213180542
0.96078872680664062 0.99332988262176514 0.40326669812202454
4.0725069993641227e-05 0.00068097090115770698 0.26207771897315979
0.11196454614400864 0.003655929584056139 0.2641509473323822
0.32955491542816162 0.010427023284137249 0.26402056217193604
0.62169504165649414 0.035890925675630569 0.23496992886066437
0.89049750566482544 0.1105940192937851 0.1920168399810791
0.066054485738277435 0.1560911238193512 0.32510274648666382
0.15131613612174988 0.16214276850223541 0.33092695474624634
0.36256140470504761 0.17364534735679626 0.33839580416679382
0.64221644401550293 0.18498967587947845 0.31440383195877075
0.90316033363342285 0.17887665331363678 0.21585731208324432
0.059541255235671997 0.39481326937675476 0.40351048111915588
0.1925203949213028 0.4014342725276947 0.40932169556617737
0.41574370861053467 0.41560837626457214 0.41568627953529358
0.67837858200073242 0.42944794893264771 0.3964502215385437
0.92704254388809204 0.42675489187240601 0.2867925763130188
0.168387770652771 0.66839540004730225 0.50939011573791504
0.28587746620178223 0.67542344331741333 0.51445764303207397
0.49317085742950439 0.69198727607727051 0.52057331800460815
0.71667623519897461 0.71330791711807251 0.50642329454421997
0.93999654054641724 0.73536568880081177 0.40545478463172913
0.43895518779754639 0.89598643779754639 0.65638232231140137
0.49255132675170898 0.90113812685012817 0.65886634588241577
0.61502707004547119 0.91477388143539429 0.66279840469360352
0.77638989686965942 0.93628734350204468 0.65464061498641968
0.94838893413543701 0.96657031774520874 0.58806657791137695
0 0 0.44685867428779602
0.067560397088527679 1.304705506299797e-06 0.4605640172958374
0.29054403305053711 0.0016394754638895392 0.47849157452583313
0.58784419298171997 0.0057454691268503666 0.47403585910797119
0.87252932786941528 0.062036894261837006 0.36420366168022156
0.026868622750043869 0.14200732111930847 0.51139342784881592
0.10995370894670486 0.14690527319908142 0.52426439523696899
0.32293900847434998 0.15726387500762939 0.54827392101287842
0.60854035615921021 0.15875609219074249 0.55904507637023926
0.87241512537002563 0.14042825996875763 0.49363195896148682
0.007591217290610075 0.38350832462310791 0.57429015636444092
0.12758980691432953 0.3902287483215332 0.58562284708023071
0.37547945976257324 0.40260273218154907 0.60825890302658081
0.64707738161087036 0.410989910364151 0.6243930459022522
0.89598453044891357 0.39499610662460327 0.58240008354187012
0.091600008308887482 0.65272092819213867 0.65237855911254883
0.22818922996520996 0.65954554080963135 0.66092830896377563
0.46114969253540039 0.67501986026763916 0.67961972951889038
0.69228434562683105 0.69204479455947876 0.69215613603591919
0.91588360071182251 0.70160740613937378 0.66259104013442993
0.41191950440406799 0.87986570596694946 0.76087081432342529
0.46854338049888611 0.88462656736373901 0.76632940769195557
0.59667718410491943 0.89742016792297363 0.77790999412536621
0.76247364282608032 0.91610938310623169 0.78713685274124146
0.93497741222381592 0.93803352117538452 0.76587271690368652
0 0 0.63242655992507935
0.014601601287722588 0 0.65633523464202881
0.23821106553077698 2.7493544621393085e-05 0.69290995597839355
0.54390281438827515 0.00038551172474399209 0.72852230072021484
0.82394695281982422 3.8297490391414613e-05 0.70450252294540405
0.0010320908622816205 0.14480181038379669 0.67638522386550903
0.057118158787488937 0.1493736058473587 0.69406306743621826
0.26924031972885132 0.15948678553104401 0.73285895586013794
0.56867337226867676 0.15895816683769226 0.7776375412940979
0.83428782224655151 0.11366336792707443 0.78761821985244751
0.00013188077718950808 0.38540768623352051 0.71962523460388184
0.0075601194985210896 0.39229270815849304 0.73491567373275757
0.31229525804519653 0.40563488006591797 0.76992076635360718
0.60734885931015015 0.41444289684295654 0.81309044361114502
0.86293256282806396 0.3896268904209137 0.8328249454498291
0.00021858475520275533 0.64478087425231934 0.77605617046356201
0.099594064056873322 0.6515231728553772 0.78757393360137939
0.40343743562698364 0.66758966445922852 0.81700700521469116
0.65629172325134277 0.68383961915969849 0.85082536935806274
0.88842296600341797 0.68697279691696167 0.86972141265869141
0.34819948673248291 0.86691051721572876 0.84828335046768188
0.41561472415924072 0.87166798114776611 0.85578328371047974
0.55959630012512207 0.88405048847198486 0.87466955184936523
0.73808532953262329 0.90139144659042358 0.90002334117889404
0.9178282618522644 0.91745740175247192 0.91776061058044434
