LUTs/Agfa Ultra Color 100.cube
# Created by: G'MIC (https://gmic.eu)
TITLE "Agfa Ultra Color 100"
# LUT size
LUT_3D_SIZE 5
# Data domain
# LUT data points
DOMAIN_MIN 0.000000 0.000000 0.000000
DOMAIN_MAX 0.903226 0.903226 0.903226
0.0058101476170122623 0.0070863626897335052 0.0045537883415818214
0.11011799424886703 5.7718455082067521e-07 0.0026517147198319435
0.26959881186485291 0 0.00011516193626448512
0.54482227563858032 0 0
0.78095412254333496 0 0
0.10997344553470612 0.18532150983810425 0.042964767664670944
0.17319014668464661 0.15736067295074463 0.037261348217725754
0.34904584288597107 0.090816840529441833 0.021451219916343689
0.61649966239929199 0.00098497478757053614 0.0031431065872311592
0.8261038064956665 0 0.0012585530057549477
0.09219321608543396 0.49384677410125732 0.090047955513000488
0.23241414129734039 0.47456744313240051 0.085889838635921478
0.46864223480224609 0.41581180691719055 0.072738379240036011
0.74689710140228271 0.31219249963760376 0.04918220266699791
0.94129413366317749 0.19638560712337494 0.055511984974145889
0.2329719066619873 0.82907795906066895 0.041198968887329102
0.3739326000213623 0.81331539154052734 0.047466669231653214
0.62411254644393921 0.76608049869537354 0.055345725268125534
0.88324117660522461 0.69576066732406616 0.064544834196567535
1 0.62442171573638916 0.094908826053142548
0.6030544638633728 1 0
0.6723284125328064 0.99869590997695923 0
0.83950161933898926 0.97094404697418213 0
0.99870032072067261 0.92720240354537964 0
1 0.87817984819412231 0.012602437287569046
6.6040655610777321e-07 0.0017250035889446735 0.10967972129583359
0.071274645626544952 0 0.1012866273522377
0.2402544766664505 0 0.084017612040042877
0.51957350969314575 0 0.053369104862213135
0.74517238140106201 0 0.058916613459587097
0.08085845410823822 0.16823138296604156 0.14446254074573517
0.14187994599342346 0.13981813192367554 0.13992954790592194
0.32366642355918884 0.07101362943649292 0.12510542571544647
0.5876309871673584 6.0319442127365619e-05 0.097944363951683044
0.78631764650344849 0 0.10362818092107773
0.054354548454284668 0.48458194732666016 0.1760125458240509
0.19359433650970459 0.46449935436248779 0.17456755042076111
0.44422030448913574 0.40458959341049194 0.16594226658344269
0.7176443338394165 0.30102249979972839 0.15492606163024902
0.90272164344787598 0.18571957945823669 0.17430303990840912
0.15703825652599335 0.82903045415878296 0.16473992168903351
0.33029958605766296 0.81175321340560913 0.16239593923091888
0.59342235326766968 0.7643890380859375 0.15843379497528076
0.84767508506774902 0.69600188732147217 0.16783326864242554
0.99996495246887207 0.62540251016616821 0.21840788424015045
0.56462371349334717 1 0.097613222897052765
0.63582640886306763 0.99913495779037476 0.092330299317836761
0.79970574378967285 0.9742768406867981 0.090804174542427063
0.97067314386367798 0.93219095468521118 0.12533080577850342
1 0.88429683446884155 0.21323908865451813
0 1.7851494703791104e-05 0.25564613938331604
0.022631930187344551 0 0.2541765570640564
0.19963009655475616 0 0.24478691816329956
0.47842884063720703 0 0.22600656747817993
0.69410061836242676 0 0.23715993762016296
0.026426626369357109 0.14286041259765625 0.31508761644363403
0.085428126156330109 0.11334539204835892 0.31485235691070557
0.2699379026889801 0.041149605065584183 0.30533117055892944
0.52859330177307129 0 0.28523406386375427
0.71835166215896606 0 0.29230496287345886
0.0019528343109413981 0.46285384893417358 0.38936662673950195
0.1014128103852272 0.4411071240901947 0.38798883557319641
0.37902191281318665 0.37890529632568359 0.37892225384712219
0.64953255653381348 0.27468770742416382 0.36685100197792053
0.82743632793426514 0.15622039139270782 0.38158515095710754
4.1008484004123602e-06 0.82418602705001831 0.44595277309417725
0.16092117130756378 0.80694299936294556 0.44371137022972107
0.5066075325012207 0.75941550731658936 0.43803825974464417
0.76214313507080078 0.69379061460494995 0.43993523716926575
0.94691604375839233 0.62292152643203735 0.46683880686759949
0.4386332631111145 1 0.44951310753822327
0.5204969048500061 0.99972039461135864 0.44712409377098083
0.68871152400970459 0.98264610767364502 0.44775646924972534
0.86640697717666626 0.94245320558547974 0.46388021111488342
0.99998319149017334 0.89490455389022827 0.50097960233688354
0 0 0.4891299307346344
0 0 0.49008810520172119
0.13632775843143463 0 0.48065134882926941
0.41359856724739075 0 0.46077993512153625
0.62336558103561401 0 0.46169367432594299
0 0.094620004296302795 0.56810343265533447
0.0088129071518778801 0.061916690319776535 0.56567257642745972
0.18542957305908203 0.004456487949937582 0.55142337083816528
0.44006907939910889 0 0.52452737092971802
0.62593638896942139 0 0.51391065120697021
3.1058182230481179e-06 0.40978336334228516 0.6511688232421875
0.0097687095403671265 0.38597550988197327 0.64603972434997559
0.29770097136497498 0.32037743926048279 0.62892782688140869
0.562400221824646 0.21332624554634094 0.60333192348480225
0.73774218559265137 0.087679743766784668 0.59123718738555908
0 0.804909348487854 0.71316558122634888
0.001027994672767818 0.78804755210876465 0.70814073085784912
0.41754978895187378 0.7401319146156311 0.69210559129714966
0.67747724056243896 0.67720931768417358 0.67733043432235718
0.87226957082748413 0.60370135307312012 0.67233836650848389
0.27999234199523926 1 0.73425745964050293
0.38946574926376343 0.9995952844619751 0.72956585884094238
0.57542651891708374 0.98567473888397217 0.72122871875762939
0.7697950005531311 0.94686979055404663 0.71566551923751831
0.95279765129089355 0.89897626638412476 0.71735161542892456
0 0 0.72177708148956299
0 0 0.71137446165084839
0.092390857636928558 0 0.68888461589813232
0.36662447452545166 0 0.65455156564712524
0.57142013311386108 0 0.63719701766967773
0 0.010896390303969383 0.76632434129714966
0 0.0007218538667075336 0.75705546140670776
0.12057506293058395 0 0.7323000431060791
0.3685036301612854 0 0.69635295867919922
0.56280255317687988 0 0.67762744426727295
0.016680847853422165 0.29475128650665283 0.8280341625213623
0.073077276349067688 0.26745381951332092 0.81943351030349731
0.26979023218154907 0.19631581008434296 0.79629206657409668
0.49289968609809875 0.087699390947818756 0.76543241739273071
0.65342742204666138 0.0027142532635480165 0.7424500584602356
0 0.75080806016921997 0.89257019758224487
0.010652177035808563 0.73330622911453247 0.88558292388916016
0.39774623513221741 0.68571847677230835 0.86681485176086426
0.62735229730606079 0.62468945980072021 0.84821164608001709
0.81279653310775757 0.54560190439224243 0.83186542987823486
0.21374402940273285 0.99771690368652344 0.92627394199371338
0.33231228590011597 0.99346417188644409 0.92191857099533081
0.51783382892608643 0.9731021523475647 0.91263657808303833
0.70941883325576782 0.93645501136779785 0.90094649791717529
0.89033246040344238 0.88954037427902222 0.89001584053039551
