LUTs/Agfa Vista 200.cube
# Created by: G'MIC (https://gmic.eu)
TITLE "Agfa Vista 200"
# LUT size
LUT_3D_SIZE 32
# Data domain
DOMAIN_MIN 0.0 0.0 0.0
DOMAIN_MAX 1.0 1.0 1.0
# LUT data points
0.0028715881053358316 0.0032274459954351187 0.0021727592684328556
0.010725603438913822 0.0025970607530325651 0.001631616847589612
0.023137710988521576 0.002318141981959343 0.001159536768682301
0.039522465318441391 0.0019589141011238098 0.00084924185648560524
0.058997493237257004 0.0014137666439637542 0.00051970354979857802
0.07818952202796936 0.0011019561206921935 0.00034467180375941098
0.10063238441944122 0.00086748343892395496 0.00015374700888060033
0.12636356055736542 0.00063717726152390242 2.6241570594720542e-05
0.15591400861740112 0.00046793100773356855 2.5158345806630678e-07
0.18872985243797302 0.00035713956458494067 0
0.2277032881975174 0.0001760644227033481 0
0.27139094471931458 0.00011364706006133929 0
0.31299117207527161 0.00010458034375915304 0
0.36021128296852112 1.3055365343461744e-05 0
0.40367290377616882 0 0
0.45120334625244141 0 0
0.49810898303985596 0 0
0.54626011848449707 0 0
0.58926433324813843 0 0
0.63293814659118652 0 0
0.66963934898376465 0 0
0.70702064037322998 0 0
0.74124765396118164 0 0
0.77150255441665649 0 0
0.80245047807693481 0 0
0.8314812183380127 0 0
0.86116874217987061 0 0
0.88925224542617798 0 0
0.91844838857650757 0 0
0.94715535640716553 0 0
0.97646862268447876 0 0
0.99664175510406494 0 0
0.0064523336477577686 0.013680971227586269 0.0043959040194749832
0.013999365270137787 0.012535439804196358 0.0037728671450167894
0.026961252093315125 0.011543318629264832 0.0032823972869664431
0.04434334859251976 0.010641858913004398 0.002823979826644063
0.064115449786186218 0.0098459171131253242 0.0022184585686773062
0.083107620477676392 0.0090959677472710609 0.0016597376670688391
0.10581421852111816 0.0082429340109229088 0.0010596013162285089
0.13164368271827698 0.0072684171609580517 0.00051276717567816377
0.1613575667142868 0.0061409072950482368 0.00013172044418752193
0.19400736689567566 0.0052020964212715626 2.1478170310729183e-05
0.23301129043102264 0.0042071561329066753 1.9942589801758004e-07
0.27654355764389038 0.0038552966434508562 0
0.31797727942466736 0.0036144144833087921 0
0.36483916640281677 0.0024026604369282722 0
0.40789815783500671 0.0010011674603447318 0
0.45511943101882935 0.00066710141254588962 0
0.50152647495269775 0.00031805888283997774 0
0.54930251836776733 4.640762199414894e-05 0
0.59141832590103149 1.3333566357687232e-06 0
0.63440680503845215 0 0
0.67052346467971802 0 0
0.7070503830909729 0 0
0.74074655771255493 0 0
0.77063667774200439 0 0
0.80151587724685669 0 0
0.83047139644622803 0 0
0.86011850833892822 0 0
0.8880351185798645 0 0
0.91730260848999023 0 0
0.94592088460922241 0 0
0.97508811950683594 0 0
0.99611234664916992 0 0
0.012413675896823406 0.031001633033156395 0.0075621954165399075
0.019534030929207802 0.029484136030077934 0.0068490840494632721
0.030946735292673111 0.028364470228552818 0.0060213496908545494
0.048153266310691833 0.02692020870745182 0.0052927774377167225
0.068102970719337463 0.025289569050073624 0.0046078111045062542
0.087273232638835907 0.024142814800143242 0.0037891541142016649
0.11070480197668076 0.022408733144402504 0.0030807617586106062
0.13672743737697601 0.020790809765458107 0.0022068517282605171
0.16674485802650452 0.019032498821616173 0.0012513225665315986
0.19951647520065308 0.017338080331683159 0.00046224513789638877
0.23877978324890137 0.015672441571950912 7.0564528868999332e-05
0.28224286437034607 0.014484408311545849 9.791044703888474e-07
0.32350721955299377 0.013426927849650383 0
0.37022620439529419 0.010807589627802372 0
0.41312769055366516 0.0085665453225374222 0
0.46024960279464722 0.0071907602250576019 0
0.50632905960083008 0.0049716071225702763 0
0.55387270450592041 0.0032410749699920416 0
0.59579718112945557 0.0021762363612651825 0
0.63857150077819824 0.001212415867485106 0
0.67448002099990845 0.00038161932025104761 0
0.71061789989471436 3.2163352443603799e-05 0
0.743702232837677 0 0
0.7728690505027771 0 0
0.80282431840896606 0 0
0.83084076642990112 0 0
0.85980886220932007 0 0
0.88752979040145874 0 0
0.91656118631362915 0 0
0.9452509880065918 0 0
0.97437578439712524 0 0
0.99550038576126099 0 0
0.02062021940946579 0.053772322833538055 0.011857772246003151
0.027745436877012253 0.052537854760885239 0.011142351664602757
0.038350705057382584 0.050906043499708176 0.010226435959339142
0.052828334271907806 0.049216859042644501 0.0092162396758794785
0.071647614240646362 0.047438524663448334 0.0082190344110131264
0.091255031526088715 0.045651428401470184 0.0072623281739652157
0.11557206511497498 0.043612450361251831 0.0060281842015683651
0.14184367656707764 0.041206561028957367 0.0047650118358433247
0.17235696315765381 0.038647845387458801 0.0034074606373906136
0.20539000630378723 0.036231432110071182 0.0021682193037122488
0.24495252966880798 0.033667966723442078 0.00092495174612849951
0.28835904598236084 0.031665369868278503 0.00018147613445762545
0.32957607507705688 0.029519783332943916 8.4564235294237733e-06
0.37604919075965881 0.025443116202950478 0
0.41867870092391968 0.022204635664820671 0
0.46543249487876892 0.019403727725148201 0
0.5115235447883606 0.015967961400747299 0
0.55878305435180664 0.012821262702345848 0
0.60044068098068237 0.01042622048407793 0
0.6430010199546814 0.0082204369828104973 0
0.67849946022033691 0.0057070702314376831 0
0.71449446678161621 0.0033450231421738863 0
0.74737632274627686 0.002510283375158906 0
0.77646809816360474 0.001851110951974988 0
0.80636996030807495 0.00042676573502831161 0
0.83378618955612183 3.0618937216786435e-06 0
0.86217224597930908 0 0
0.88887733221054077 0 0
0.91687208414077759 0 0
0.94486862421035767 0 0
0.97386264801025391 0 0
0.99496716260910034 0 0
0.031461745500564575 0.0789150670170784 0.017651204019784927
0.038664434105157852 0.077696584165096283 0.016805239021778107
0.048735145479440689 0.076217494904994965 0.015615134499967098
0.06099429726600647 0.074394389986991882 0.014443587511777878
0.075907565653324127 0.072562672197818756 0.013074690476059914
0.095292426645755768 0.070778906345367432 0.011860430240631104
0.12092961370944977 0.068371035158634186 0.010258781723678112
0.14718179404735565 0.065759643912315369 0.0087486114352941513
0.17868858575820923 0.06280122697353363 0.0067890966311097145
0.21195591986179352 0.060046210885047913 0.0049057253636419773
0.25184956192970276 0.056952398270368576 0.003052727784961462
0.29525488615036011 0.054188881069421768 0.0013254653895273805
0.33638691902160645 0.051060650497674942 0.00027821058756671846
0.38269278407096863 0.046269804239273071 1.3420020877674688e-05
0.42486011981964111 0.042102955281734467 0
0.47152009606361389 0.037913400679826736 0
0.51737779378890991 0.033005569130182266 0
0.56420177221298218 0.028282370418310165 0
0.60551851987838745 0.024369291961193085 0
0.6477736234664917 0.020249534398317337 0
0.68291527032852173 0.016260847449302673 0
0.71864205598831177 0.012468204833567142 0
0.75129479169845581 0.010109501890838146 0
0.78010642528533936 0.0078777717426419258 0
0.80994910001754761 0.0042295344173908234 0
0.8372383713722229 0.0015549178933724761 0
0.86556947231292725 0.00041576538933441043 0
0.89210313558578491 8.6801854195073247e-05 0
0.91951584815979004 0 0
0.94636046886444092 0 0
0.97410720586776733 0 0
0.99472874402999878 0 0
0.044825062155723572 0.10645909607410431 0.024969540536403656
0.051498733460903168 0.10542956739664078 0.024030406028032303
0.060728292912244797 0.10389173775911331 0.022918038070201874
0.071832820773124695 0.10216869413852692 0.021444467827677727
0.084523878991603851 0.10017096251249313 0.019930893555283546
0.10148037225008011 0.098150700330734253 0.018196018412709236
0.12644778192043304 0.095461487770080566 0.016103336587548256
0.15303604304790497 0.092915311455726624 0.014111916534602642
0.18528054654598236 0.089792825281620026 0.011592511087656021
0.21918469667434692 0.086646124720573425 0.0091681201010942459
0.25943750143051147 0.083173148334026337 0.0065750856883823872
0.30314204096794128 0.079807944595813751 0.0040747267194092274
0.34421911835670471 0.076310701668262482 0.0020248917862772942
0.39007088541984558 0.07150394469499588 0.00061514106346294284
0.4319329559803009 0.067078858613967896 0.0001034824745147489
0.47826918959617615 0.061749842017889023 6.3129800764727406e-06
0.52389335632324219 0.056362520903348923 0
0.57048267126083374 0.050757233053445816 0
0.61117058992385864 0.045573551207780838 0
0.65293359756469727 0.039619289338588715 0
0.68772596120834351 0.03380686417222023 0
0.72309279441833496 0.028046632185578346 0
0.75550353527069092 0.023855078965425491 0
0.78414589166641235 0.019381599500775337 0
0.81372106075286865 0.01347243320196867 0
0.84091120958328247 0.009316369891166687 0
0.86915397644042969 0.0059468024410307407 0
0.89553767442703247 0.0037817324046045542 0
0.92285031080245972 0.0013761201407760382 0
0.94964933395385742 0.00018806857406161726 0
0.97664499282836914 0 0
0.99594372510910034 0 0
0.061269853264093399 0.14140993356704712 0.034884937107563019
0.067214354872703552 0.14039963483810425 0.033921137452125549
0.075452558696269989 0.13880395889282227 0.032676540315151215
0.085196763277053833 0.13731785118579865 0.031157542020082474
0.097412034869194031 0.13523921370506287 0.029309742152690887
0.11275811493396759 0.13310535252094269 0.027098774909973145
0.13322477042675018 0.13027051091194153 0.024414261803030968
0.15956945717334747 0.12765562534332275 0.021821770817041397
0.19303576648235321 0.12429553270339966 0.018683526664972305
0.22787712514400482 0.12084352970123291 0.015539004467427731
0.2686673104763031 0.11692850291728973 0.012038237415254116
0.31274905800819397 0.11296861618757248 0.0085363248363137245
0.35379171371459961 0.10918598622083664 0.0057138185948133469
0.39937886595726013 0.10407735407352448 0.0032249947544187307
0.44080883264541626 0.099336080253124237 0.0015315854689106345
0.48686879873275757 0.093383178114891052 0.00037388649070635438
0.53219026327133179 0.087624236941337585 1.2764024177158717e-05
0.57832658290863037 0.081184640526771545 0
0.61857020854949951 0.075263649225234985 0
0.65972208976745605 0.06839337944984436 0
0.69392585754394531 0.061298616230487823 0
0.72893750667572021 0.054070353507995605 0
0.76084578037261963 0.047754023224115372 0
0.78929013013839722 0.040433727204799652 0
0.81859755516052246 0.031909476965665817 0
0.84556347131729126 0.025070695206522942 0
0.87357860803604126 0.018725663423538208 0
0.89977437257766724 0.013659993186593056 0
0.92706179618835449 0.0083752060309052467 0
0.95370602607727051 0.0038998411037027836 0
0.98041689395904541 0.0012732942122966051 0
0.99723309278488159 0.00010746249608928338 0
0.076368920505046844 0.17816103994846344 0.045608736574649811
0.081792637705802917 0.17732802033424377 0.044804897159337997
0.089122913777828217 0.1760135143995285 0.043722823262214661
0.098717108368873596 0.17447848618030548 0.042185906320810318
0.11134591698646545 0.1725163608789444 0.040233198553323746
0.12701414525508881 0.17019069194793701 0.037706926465034485
0.14528621733188629 0.16754679381847382 0.034834638237953186
0.16806691884994507 0.16482879221439362 0.031694937497377396
0.20050287246704102 0.16134367883205414 0.027920281514525414
0.23654115200042725 0.1577686071395874 0.023853892460465431
0.27832970023155212 0.15360146760940552 0.019382622092962265
0.32283571362495422 0.14919137954711914 0.015036970376968384
0.36406043171882629 0.14489933848381042 0.011292858049273491
0.40936467051506042 0.13978287577629089 0.00777480099350214
0.45062988996505737 0.13487987220287323 0.0051312446594238281
0.49632912874221802 0.12862081825733185 0.0027513292152434587
0.54125851392745972 0.12246087938547134 0.00082079332787543535
0.5871010422706604 0.11527179926633835 9.5353141659870744e-05
0.62681883573532104 0.10868742316961288 7.9214271409000503e-07
0.66716057062149048 0.10110320150852203 0
0.70086073875427246 0.093207143247127533 0
0.73536640405654907 0.085211388766765594 0
0.76694279909133911 0.077426642179489136 0
0.79513108730316162 0.069011978805065155 0
0.82416176795959473 0.059040412306785583 0
0.85079342126846313 0.050247646868228912 0
0.87855291366577148 0.041040115058422089 0
0.90452826023101807 0.032440308481454849 0
0.93156981468200684 0.02307942695915699 0
0.95800608396530151 0.015198457986116409 0
0.98441076278686523 0.0089074829593300819 0
0.99842506647109985 0.0039743469096720219 0
0.07619871199131012 0.22217966616153717 0.056983117014169693
0.081279218196868896 0.2213674783706665 0.056340746581554413
0.08948642760515213 0.22022531926631927 0.055341865867376328
0.10109007358551025 0.21872334182262421 0.053852234035730362
0.11618579179048538 0.2167714536190033 0.051856640726327896
0.13321475684642792 0.21459586918354034 0.049546916037797928
0.15326109528541565 0.21209043264389038 0.04677281528711319
0.17670229077339172 0.20936959981918335 0.043306630104780197
0.20831277966499329 0.20603826642036438 0.039127588272094727
0.24587704241275787 0.20254448056221008 0.03442048653960228
0.2887890636920929 0.19819709658622742 0.028850046917796135
0.33391463756561279 0.19357378780841827 0.023886559531092644
0.37544918060302734 0.18891948461532593 0.019532211124897003
0.42072361707687378 0.18369299173355103 0.014925956726074219
0.46196478605270386 0.17874680459499359 0.011015351861715317
0.50757282972335815 0.17263989150524139 0.0072969421744346619
0.55210024118423462 0.16609972715377808 0.0042419438250362873
0.59751015901565552 0.15829788148403168 0.0016990425065159798
0.63695967197418213 0.150862917304039 0.00034859630977734923
0.6766241192817688 0.1427653580904007 1.9500788766890764e-05
0.70965152978897095 0.13439938426017761 0
0.74356621503829956 0.12530139088630676 0
0.77480155229568481 0.11627215147018433 0
0.80260342359542847 0.10706930607557297 0
0.83118546009063721 0.096020951867103577 0
0.85764479637145996 0.085922874510288239 0
0.88505774736404419 0.074895240366458893 0
0.91082632541656494 0.063371337950229645 0
0.93740200996398926 0.050738003104925156 0
0.96359866857528687 0.038287334144115448 0
0.98913067579269409 0.02617190033197403 0
0.99956297874450684 0.016607299447059631 0
0.077878870069980621 0.26783770322799683 0.069296889007091522
0.082003369927406311 0.26713827252388 0.068602398037910461
0.088623665273189545 0.26607212424278259 0.06744983047246933
0.097804494202136993 0.26462465524673462 0.065956935286521912
0.10965661704540253 0.26274675130844116 0.064005427062511444
0.12482710927724838 0.26085817813873291 0.061876766383647919
0.14663544297218323 0.25843340158462524 0.058800507336854935
0.1762285977602005 0.25591009855270386 0.055407389998435974
0.21501354873180389 0.25286325812339783 0.051226675510406494
0.25449356436729431 0.24951820075511932 0.046587657183408737
0.2987762987613678 0.2454647421836853 0.040897488594055176
0.3445398211479187 0.24088707566261292 0.034915007650852203
0.38624885678291321 0.23645162582397461 0.029562955722212791
0.43173131346702576 0.23114828765392303 0.02385413832962513
0.47316241264343262 0.22613495588302612 0.018928276374936104
0.51879411935806274 0.22007566690444946 0.014021784998476505
0.56319791078567505 0.21356800198554993 0.0099324807524681091
0.60824209451675415 0.20571757853031158 0.0063911243341863155
0.64725112915039062 0.19793581962585449 0.0036360593512654305
0.68629688024520874 0.18964648246765137 0.0014884807169437408
0.71891117095947266 0.18121349811553955 0.00048442004481330514
0.75246590375900269 0.17152188718318939 7.1998969360720366e-05
0.7835160493850708 0.16153264045715332 2.7388462058297591e-06
0.81105071306228638 0.151707723736763 0
0.83942842483520508 0.14007368683815002 0
0.86565220355987549 0.12869973480701447 0
0.89279639720916748 0.11614108085632324 0
0.91823357343673706 0.10301297158002853 0
0.94443494081497192 0.088574111461639404 0
0.97021728754043579 0.073426634073257446 0
0.9933127760887146 0.057016551494598389 0
0.99985635280609131 0.042237356305122375 0
0.053581949323415756 0.31855693459510803 0.081344671547412872
0.057886067777872086 0.31783083081245422 0.080614887177944183
0.064292535185813904 0.31668314337730408 0.079507939517498016
0.074466243386268616 0.3154664933681488 0.078143611550331116
0.089412488043308258 0.3140835165977478 0.07646893709897995
0.10814937949180603 0.31217861175537109 0.074244484305381775
0.13912060856819153 0.31006830930709839 0.071493186056613922
0.17811097204685211 0.30768480896949768 0.068304300308227539
0.2219281792640686 0.30502009391784668 0.064064033329486847
0.26360473036766052 0.30208966135978699 0.059683293104171753
0.30934396386146545 0.29851880669593811 0.054566290229558945
0.3555334210395813 0.29442861676216125 0.048583243042230606
0.39727643132209778 0.29050555825233459 0.042937520891427994
0.44340246915817261 0.28532072901725769 0.036196708679199219
0.48516795039176941 0.28038063645362854 0.030292876064777374
0.5309598445892334 0.27440738677978516 0.024440048262476921
0.57550662755966187 0.26809778809547424 0.019222699105739594
0.62026900053024292 0.2608761191368103 0.014105637557804585
0.65869134664535522 0.25331732630729675 0.010187754407525063
0.69715774059295654 0.24508535861968994 0.0068267611786723137
0.72948163747787476 0.23708450794219971 0.0043179485946893692
0.76262319087982178 0.22741296887397766 0.0021652095019817352
0.79355448484420776 0.21723468601703644 0.00067937141284346581
0.820914626121521 0.20703522861003876 0.00016853088163770735
0.84924441576004028 0.19503551721572876 3.0007246095919982e-05
0.87536060810089111 0.18302647769451141 7.0067522983663366e-07
0.9022592306137085 0.16947820782661438 0
0.92764115333557129 0.15498064458370209 0
0.95360642671585083 0.13899156451225281 0
0.97876995801925659 0.12158266454935074 0
0.99755752086639404 0.10208025574684143 0
0.99999964237213135 0.084051214158535004 0
0.019939528778195381 0.36868932843208313 0.092723734676837921
0.023123756051063538 0.36820864677429199 0.092214606702327728
0.027696814388036728 0.36748567223548889 0.091252833604812622
0.036987852305173874 0.36654442548751831 0.090030930936336517
0.059821818023920059 0.36517161130905151 0.088397040963172913
0.09664762020111084 0.36353042721748352 0.086388863623142242
0.14015790820121765 0.36174684762954712 0.083869844675064087
0.18272510170936584 0.35958099365234375 0.080685548484325409
0.22873450815677643 0.35735693573951721 0.076511137187480927
0.27272182703018188 0.35462415218353271 0.071894451975822449
0.31978505849838257 0.35132071375846863 0.066772647202014923
0.36650881171226501 0.34785425662994385 0.061191186308860779
0.4084533154964447 0.3443642258644104 0.055852599442005157
0.45490363240242004 0.33980000019073486 0.049659281969070435
0.49697616696357727 0.33511283993721008 0.044017694890499115
0.5430266261100769 0.32952341437339783 0.037404783070087433
0.58776980638504028 0.32377621531486511 0.030948104336857796
0.63189119100570679 0.31737983226776123 0.024710305035114288
0.66975504159927368 0.31070142984390259 0.019887639209628105
0.70785045623779297 0.30275207757949829 0.015480914153158665
0.73965442180633545 0.29557383060455322 0.011866406537592411
0.77251386642456055 0.28686133027076721 0.0085811354219913483
0.80342906713485718 0.27740496397018433 0.005769762210547924
0.83096688985824585 0.26751771569252014 0.0036199756432324648
0.85928046703338623 0.25595462322235107 0.001849458902142942
0.8855738639831543 0.24407628178596497 0.00059643294662237167
0.91257333755493164 0.23066510260105133 9.5576164312660694e-05
0.93803113698959351 0.21613693237304688 2.2400895431928802e-06
0.96405124664306641 0.19954386353492737 0
0.98775285482406616 0.18089434504508972 0
0.99930214881896973 0.15941527485847473 0
1 0.13936144113540649 0
0.0016910628182813525 0.41372501850128174 0.10257187485694885
0.0045276912860572338 0.41333183646202087 0.10121597349643707
0.014937960542738438 0.41284787654876709 0.10078134387731552
0.036403268575668335 0.41185489296913147 0.099499896168708801
0.071868531405925751 0.41061520576477051 0.0977763831615448
0.1080663651227951 0.40946835279464722 0.095954827964305878
0.14790454506874084 0.40777897834777832 0.093365281820297241
0.18900659680366516 0.40567734837532043 0.090215668082237244
0.23580156266689301 0.40343153476715088 0.086299099028110504
0.28148046135902405 0.40088561177253723 0.082155622541904449
0.32968991994857788 0.39783886075019836 0.077127806842327118
0.37670257687568665 0.39481624960899353 0.071930699050426483
0.41888785362243652 0.39176341891288757 0.066864192485809326
0.46520620584487915 0.38770034909248352 0.061270751059055328
0.50742232799530029 0.38362035155296326 0.055951088666915894
0.55373913049697876 0.37861767411231995 0.049430407583713531
0.59838134050369263 0.37331205606460571 0.042715098708868027
0.64201802015304565 0.36750254034996033 0.03622104600071907
0.67903631925582886 0.36177819967269897 0.030875207856297493
0.71668064594268799 0.35477381944656372 0.025552205741405487
0.74827831983566284 0.3481062650680542 0.021256765350699425
0.78093898296356201 0.34031346440315247 0.017039196565747261
0.81192499399185181 0.33170711994171143 0.013282426632940769
0.83965861797332764 0.32283198833465576 0.01017291471362114
0.86799794435501099 0.31246981024742126 0.0070929038338363171
0.8944440484046936 0.30165752768516541 0.0048146164044737816
0.92182427644729614 0.28922063112258911 0.002455592155456543
0.9474872350692749 0.27543923258781433 0.00085753423627465963
0.97362995147705078 0.25931486487388611 0.00017713710258249193
0.99431908130645752 0.24134819209575653 2.0166684407740831e-05
0.9998934268951416 0.21971237659454346 5.4842121244291775e-07
1 0.19948293268680573 0
0.022099487483501434 0.46277070045471191 0.11137231439352036
0.028748979791998863 0.46232873201370239 0.1103428527712822
0.040438033640384674 0.46171706914901733 0.10974037647247314
0.059611596167087555 0.46095764636993408 0.10842403024435043
0.082377880811691284 0.46031829714775085 0.10681673139333725
0.10901744663715363 0.45919159054756165 0.10483940690755844
0.14795967936515808 0.45747584104537964 0.10230734944343567
0.19484613835811615 0.45603519678115845 0.099396616220474243
0.24611097574234009 0.45385590195655823 0.095954380929470062
0.29247516393661499 0.45175760984420776 0.092252515256404877
0.3405366837978363 0.44911432266235352 0.087517544627189636
0.3881019651889801 0.44650664925575256 0.082659751176834106
0.43039107322692871 0.4437732994556427 0.078101642429828644
0.47676891088485718 0.4402412474155426 0.072701744735240936
0.51923507452011108 0.43647566437721252 0.067472361028194427
0.56572180986404419 0.4321674108505249 0.061676453799009323
0.60971862077713013 0.42733505368232727 0.05617087334394455
0.65265816450119019 0.42235061526298523 0.049826528877019882
0.68890905380249023 0.41754421591758728 0.044224098324775696
0.72579330205917358 0.41117414832115173 0.038809239864349365
0.7571677565574646 0.40556037425994873 0.033988282084465027
0.78974300622940063 0.39864754676818848 0.029001647606492043
0.82051551342010498 0.39114966988563538 0.024378189817070961
0.84824901819229126 0.38339203596115112 0.020410614088177681
0.87689542770385742 0.37459331750869751 0.01657073013484478
0.90352725982666016 0.36521318554878235 0.012981674633920193
0.93124783039093018 0.35397467017173767 0.0096015343442559242
0.95732128620147705 0.34219205379486084 0.0066318949684500694
0.98345893621444702 0.32766303420066833 0.0039156591519713402
0.99882245063781738 0.31166812777519226 0.0018506975611671805
1 0.29232728481292725 0.00040714014903642237
1 0.27285820245742798 4.8681831685826182e-05
0.004020503256469965 0.50708603858947754 0.11793903261423111
0.0048243957571685314 0.50694143772125244 0.11705900728702545
0.0092202369123697281 0.50658786296844482 0.11627110838890076
0.021671010181307793 0.50591528415679932 0.11513781547546387
0.044631566852331161 0.50504791736602783 0.11365633457899094
0.090989775955677032 0.5038873553276062 0.11169565469026566
0.15124954283237457 0.50281941890716553 0.10932137072086334
0.20475544035434723 0.50133860111236572 0.10663051903247833
