LUTs/Agfa Ultra Color 100.cube
# Created by: G'MIC (https://gmic.eu)
TITLE "Agfa Ultra Color 100"
# LUT size
LUT_3D_SIZE 32
# Data domain
DOMAIN_MIN 0.0 0.0 0.0
DOMAIN_MAX 1.0 1.0 1.0
# LUT data points
0.0058101476170122623 0.0070863626897335052 0.0045537883415818214
0.015738952904939651 0.0045031378977000713 0.004084467887878418
0.029699156060814857 0.0027286310214549303 0.003864367725327611
0.045296486467123032 0.0014747425448149443 0.0035310226958245039
0.061991948634386063 0.00069219991564750671 0.0031959579791873693
0.077131785452365875 0.00036061566788703203 0.0030540048610419035
0.092999540269374847 7.7669486927334219e-05 0.0029197644907981157
0.11011799424886703 5.7718455082067521e-07 0.0026517147198319435
0.12801006436347961 0 0.0023241764865815639
0.14571520686149597 0 0.0019049852853640914
0.16684295237064362 0 0.001493320451118052
0.19043582677841187 0 0.00095182243967428803
0.21355225145816803 0 0.00063285196665674448
0.24145357310771942 0 0.00030682748183608055
0.26959881186485291 0 0.00011516193626448512
0.304120272397995 0 8.3494260252336971e-06
0.34101071953773499 0 0
0.38135609030723572 0 0
0.41880518198013306 0 0
0.46019479632377625 0 0
0.49994257092475891 0 0
0.54482227563858032 0 0
0.58775025606155396 0 0
0.62478792667388916 0 0
0.66038656234741211 0 0
0.69201886653900146 0 0
0.72345435619354248 0 0
0.75200021266937256 0 0
0.78095412254333496 0 0
0.80905991792678833 0 0
0.83745455741882324 0 0
0.86083155870437622 0 0
0.014520677737891674 0.026205047965049744 0.0075437622144818306
0.024957461282610893 0.021369781345129013 0.0069411862641572952
0.041034795343875885 0.017135258764028549 0.0064922231249511242
0.058608490973711014 0.013114596717059612 0.006127768661826849
0.075688920915126801 0.0098208943381905556 0.0057218768633902073
0.090575352311134338 0.0071705724112689495 0.0054694111458957195
0.10690939426422119 0.0045623211190104485 0.005083947442471981
0.12359116971492767 0.0025430575478821993 0.0047581475228071213
0.14099843800067902 0.0010320922592654824 0.0042763850651681423
0.15911802649497986 0.00045996758854016662 0.0038716362323611975
0.18001978099346161 0.00011410991282900795 0.0033473935909569263
0.20332546532154083 1.8039530687019578e-06 0.0027262028306722641
0.22604197263717651 0 0.0021168014500290155
0.25371098518371582 0 0.0012469713110476732
0.2815837562084198 0 0.00069133465876802802
0.31570112705230713 0 0.00022681948030367494
0.35223686695098877 0 3.2777177693787962e-05
0.392202228307724 0 4.6865088165759516e-07
0.42891353368759155 0 0
0.46986564993858337 0 0
0.50893396139144897 0 0
0.55259394645690918 0 0
0.59407532215118408 0 0
0.62980794906616211 0 0
0.66389495134353638 0 0
0.69394999742507935 0 0
0.72390627861022949 0 0
0.7514612078666687 0 0
0.77975684404373169 0 0
0.80760639905929565 0 0
0.83566629886627197 0 0
0.85911113023757935 0 0
0.027147890999913216 0.053316120058298111 0.010812750086188316
0.036585450172424316 0.048357874155044556 0.010168683715164661
0.050575621426105499 0.042825940996408463 0.0096083451062440872
0.067565701901912689 0.037362262606620789 0.0090273711830377579
0.084631159901618958 0.031917639076709747 0.0086678015068173409
0.099776491522789001 0.026973407715559006 0.0083536515012383461
0.11672654747962952 0.02176833339035511 0.0079843746498227119
0.13365957140922546 0.016811536625027657 0.0074634579941630363
0.15156017243862152 0.012136979959905148 0.0068363016471266747
0.16968275606632233 0.008309963159263134 0.0061881882138550282
0.19102334976196289 0.0047766314819455147 0.0054907039739191532
0.21454997360706329 0.0020371486898511648 0.0046039111912250519
0.23753692209720612 0.00055925891501829028 0.0038577732630074024
0.26513347029685974 6.5295025706291199e-05 0.0030472325161099434
0.29281076788902283 0 0.0021357859950512648
0.32706251740455627 0 0.0010251669446006417
0.36362087726593018 0 0.00041491337469778955
0.40314745903015137 0 5.6840046454453841e-05
0.43957024812698364 0 2.1710575310862623e-06
0.48058262467384338 0 0
0.51952522993087769 0 0
0.56307518482208252 0 0
0.6042669415473938 0 0
0.6394614577293396 0 0
0.67323726415634155 0 0
0.70273470878601074 0 0
0.73179000616073608 0 0
0.75778484344482422 0 0
0.78364783525466919 0 0
0.80946618318557739 0 0
0.8356025218963623 0 0
0.85817581415176392 0 0
0.042810078710317612 0.08007492870092392 0.015059825964272022
0.051148582249879837 0.076000943779945374 0.01458527147769928
0.061690319329500198 0.071174994111061096 0.014054599218070507
0.075412347912788391 0.065786100924015045 0.013444811105728149
0.092030331492424011 0.060045797377824783 0.012858596630394459
0.10736248642206192 0.054757196456193924 0.012394319288432598
0.12499678134918213 0.048229552805423737 0.011844461783766747
0.14206820726394653 0.041217833757400513 0.011208291165530682
0.16041487455368042 0.034384939819574356 0.010376275517046452
0.17906160652637482 0.027548175305128098 0.0095750791952013969
0.20075923204421997 0.020609235391020775 0.0086646154522895813
0.22468805313110352 0.014110558666288853 0.0073741395026445389
0.24801005423069 0.0089996848255395889 0.0063017141073942184
0.27582189440727234 0.0046002375893294811 0.0051182429306209087
0.30373397469520569 0.0020440130028873682 0.004042603075504303
0.33802884817123413 0.00049560435581952333 0.0027002112474292517
0.37442344427108765 7.8412631410174072e-06 0.0015117439907044172
0.41366326808929443 0 0.00065210170578211546
0.449849933385849 0 0.00029568298486992717
0.49077716469764709 0 3.4163513191742823e-05
0.52956867218017578 0 0
0.57288068532943726 0 0
0.61357784271240234 0 0
0.64841777086257935 0 0
0.68217086791992188 0 0
0.7114717960357666 0 0
0.74041080474853516 0 0
0.7662346363067627 0 0
0.79199028015136719 0 0
0.81694328784942627 0 0
0.84136748313903809 0 0
0.86142349243164062 0 0
0.059437364339828491 0.105324387550354 0.020690005272626877
0.066414624452590942 0.10197839140892029 0.020074388012290001
0.075239427387714386 0.097695186734199524 0.019576579332351685
0.085713587701320648 0.092902399599552155 0.018848581239581108
0.098869942128658295 0.087830610573291779 0.018191715702414513
0.11422844976186752 0.082565121352672577 0.017451386898756027
0.13235378265380859 0.076064012944698334 0.016690179705619812
0.14945229887962341 0.069413170218467712 0.016009459272027016
0.16848208010196686 0.061797294765710831 0.015186063013970852
0.18750853836536407 0.05413702130317688 0.014252048917114735
0.20976686477661133 0.044909842312335968 0.012985698878765106
0.23419037461280823 0.035370197147130966 0.011401599273085594
0.25798267126083374 0.026837499812245369 0.009922894649207592
0.28607335686683655 0.018324088305234909 0.0083818137645721436
0.3142109215259552 0.011437265202403069 0.0068445075303316116
0.34873658418655396 0.0050645829178392887 0.0049761268310248852
0.38533157110214233 0.00086319306865334511 0.0033110005315393209
0.42415919899940491 1.4043697774468455e-05 0.0022360256407409906
0.46010309457778931 0 0.0013345950283110142
0.50094252824783325 0 0.00042416676296852529
0.53949195146560669 0 4.6804296289337799e-05
0.58260524272918701 0 7.9732006952326628e-07
0.62287098169326782 0 0
0.65739339590072632 0 0
0.69064640998840332 0 0
0.71979999542236328 0 0
0.7482721209526062 0 0
0.77388769388198853 0 0
0.79983305931091309 0 0
0.82474315166473389 0 0
0.84908097982406616 0 3.796762371166551e-08
0.8688126802444458 0 4.0670031012268737e-05
0.075691327452659607 0.12930959463119507 0.02738424576818943
0.081519201397895813 0.12661200761795044 0.0267481729388237
0.089169822633266449 0.12289875000715256 0.026093423366546631
0.098054826259613037 0.11863178759813309 0.025329535827040672
0.10786222666501999 0.11402089893817902 0.024519274011254311
0.12128607183694839 0.10897891968488693 0.023668697103857994
0.13963769376277924 0.10274726897478104 0.02281280979514122
0.15676626563072205 0.096409879624843597 0.022078095003962517
0.17613507807254791 0.088976480066776276 0.020990459248423576
0.1956368088722229 0.081336252391338348 0.019748369231820107
0.21834799647331238 0.072193525731563568 0.018371989950537682
0.24328650534152985 0.062168918550014496 0.016454156488180161
0.26739150285720825 0.052641913294792175 0.014536709524691105
0.29607051610946655 0.041422594338655472 0.012539254501461983
0.32461678981781006 0.030688352882862091 0.010656283237040043
0.35955226421356201 0.01862478069961071 0.0083582783117890358
0.39617571234703064 0.0088607165962457657 0.0061202826909720898
0.43477192521095276 0.0029239910654723644 0.0045386371202766895
0.47061347961425781 0.00069665734190493822 0.003401721129193902
0.51132667064666748 1.7256232240470126e-05 0.001759112928994
0.54961949586868286 0 0.00067677797051146626
0.59231626987457275 0 0.00011905829887837172
0.63221514225006104 0 3.6914882457494969e-06
0.66627007722854614 0 0
0.69911658763885498 0 0
0.72797262668609619 0 0
0.75623553991317749 0 0
0.78177511692047119 0 0
0.80752736330032349 0 0
0.83221209049224854 0 5.9239723668724764e-06
0.85642951726913452 0 0.00010469664994161576
0.87597513198852539 0 0.00059468596009537578
0.093875467777252197 0.15747106075286865 0.034986931830644608
0.098719500005245209 0.15522679686546326 0.034872513264417648
0.10524790734052658 0.15193819999694824 0.03430846706032753
0.11272388696670532 0.14830625057220459 0.033212997019290924
0.12147297710180283 0.14414836466312408 0.032582547515630722
0.13232900202274323 0.13917243480682373 0.031341731548309326
0.14756849408149719 0.13327305018901825 0.030450230464339256
0.16487264633178711 0.12733460962772369 0.029320493340492249
0.18485942482948303 0.12007094919681549 0.028071068227291107
0.20491771399974823 0.11248145997524261 0.026694159954786301
0.22827568650245667 0.10358121991157532 0.025048146024346352
0.25373217463493347 0.093634821474552155 0.022769540548324585
0.27842918038368225 0.084150739014148712 0.020449031144380569
0.3077426552772522 0.072531983256340027 0.017977351322770119
0.33672910928726196 0.060184095054864883 0.015621422789990902
0.37204769253730774 0.044118285179138184 0.012911605648696423
0.40881505608558655 0.028773173689842224 0.010037493892014027
0.44731402397155762 0.016204269602894783 0.0080264564603567123
0.48324692249298096 0.0075106853619217873 0.0062603522092103958
0.52395510673522949 0.0014198928838595748 0.0040162112563848495
0.56200593709945679 8.3987164543941617e-05 0.0024450984783470631
0.60420125722885132 0 0.0010176077485084534
0.64360612630844116 0 0.00028220767853781581
0.67704552412033081 0 8.3956190792378038e-05
0.70945006608963013 0 2.403983125986997e-05
0.73785644769668579 0 2.2688529497827403e-05
0.76582604646682739 0 2.2688529497827403e-05
0.79115676879882812 0 2.7031604986405e-05
0.81671321392059326 0 8.654373959871009e-05
0.84114968776702881 0 0.00032993918284773827
0.86516457796096802 0 0.0010266213212162256
0.88454824686050415 0 0.0024767762515693903
0.10997344553470612 0.18532150983810425 0.042964767664670944
0.11430704593658447 0.18331953883171082 0.04268854483962059
0.12004133313894272 0.18068434298038483 0.042096972465515137
0.12712074816226959 0.17753669619560242 0.041307270526885986
0.13604921102523804 0.17333553731441498 0.040785498917102814
0.14608253538608551 0.16845569014549255 0.039661280810832977
0.15771445631980896 0.16312259435653687 0.038555841892957687
0.17319014668464661 0.15736067295074463 0.037261348217725754
0.19323275983333588 0.15031777322292328 0.0360591821372509
0.21400909125804901 0.14292795956134796 0.034381724894046783
0.23809002339839935 0.13408337533473969 0.032206378877162933
0.26413989067077637 0.12426574528217316 0.029859138652682304
0.28927341103553772 0.11480356007814407 0.027222450822591782
0.319175124168396 0.1032610759139061 0.024329539388418198
0.34904584288597107 0.090816840529441833 0.021451219916343689
0.38479742407798767 0.075070671737194061 0.0181282889097929
0.42156651616096497 0.058405887335538864 0.014879968017339706
0.46007698774337769 0.041501596570014954 0.012213756330311298
0.49623405933380127 0.026720916852355003 0.0098456600680947304
0.53668981790542603 0.013386946171522141 0.0071780532598495483
0.57469946146011353 0.0049419072456657887 0.0050660711713135242
0.61649966239929199 0.00098497478757053614 0.0031431065872311592
0.65527999401092529 7.8265278716571629e-05 0.0018507858039811254
0.68812519311904907 0 0.0011156069813296199
0.72013121843338013 0 0.00073843164136633277
0.74805921316146851 0 0.00075112172635272145
0.77563828229904175 0 0.00074326334288343787
0.80077028274536133 0 0.00082448025932535529
0.8261038064956665 0 0.0012585530057549477
0.85026085376739502 0 0.0021158384624868631
0.87397772073745728 0 0.0036608588416129351
0.89324724674224854 0 0.0059508420526981354
0.11541064828634262 0.21848225593566895 0.050228491425514221
0.1201489046216011 0.21707509458065033 0.049990665167570114
0.1270708292722702 0.21455132961273193 0.04978601261973381
0.13607224822044373 0.21150507032871246 0.049435939639806747
0.14697480201721191 0.20740489661693573 0.048789668828248978
0.15785716474056244 0.202928826212883 0.047913078218698502
0.17001643776893616 0.19787509739398956 0.047044754028320312
0.18393181264400482 0.19233039021492004 0.046241592615842819
0.2027537077665329 0.18553169071674347 0.04499315470457077
0.22435827553272247 0.17836053669452667 0.043146375566720963
0.24915951490402222 0.16956460475921631 0.040741335600614548
0.27586004137992859 0.15987363457679749 0.038193132728338242
0.30184102058410645 0.15027408301830292 0.035428233444690704
0.33255410194396973 0.13850939273834229 0.032365202903747559
0.36321565508842468 0.12630985677242279 0.028799183666706085
0.39954334497451782 0.11120958626270294 0.024660605937242508
0.43640252947807312 0.095174074172973633 0.02108185738325119
0.47484704852104187 0.077482752501964569 0.017871130257844925
0.51130884885787964 0.06026831641793251 0.014595578424632549
0.55177634954452515 0.041346576064825058 0.011390093713998795
0.58964532613754272 0.025219909846782684 0.0087605565786361694
0.63101530075073242 0.011765163391828537 0.0062953918240964413
0.66920405626296997 0.003711591474711895 0.0045988759957253933
0.70162665843963623 0.00055389560293406248 0.0037237813230603933
0.73294651508331299 2.5760735297808424e-05 0.0032237421255558729
0.76022243499755859 0 0.0031882054172456264
0.78776061534881592 0 0.0030645066872239113
0.8125341534614563 0 0.003342632669955492
0.83732771873474121 0 0.0041961753740906715
0.86114948987960815 0 0.0056100902147591114
0.8845672607421875 0 0.0077788378112018108
0.90352946519851685 0 0.011055294424295425
0.1141999214887619 0.25428551435470581 0.058498132973909378
0.11839401721954346 0.25287678837776184 0.058379184454679489
0.12491505593061447 0.25042355060577393 0.058098834007978439
0.13430067896842957 0.24745115637779236 0.057443249970674515
0.14563076198101044 0.24371901154518127 0.056669216603040695
0.15786316990852356 0.23970401287078857 0.055965308099985123
0.17314346134662628 0.23472553491592407 0.054948873817920685
0.19055812060832977 0.22943504154682159 0.053802166134119034
0.21217949688434601 0.22306306660175323 0.052257247269153595
0.23457789421081543 0.21594639122486115 0.050751399248838425
0.26034313440322876 0.20744879543781281 0.048662617802619934
0.28798660635948181 0.19781838357448578 0.046099297702312469
0.31476801633834839 0.188192218542099 0.043746273964643478
0.34663671255111694 0.17614668607711792 0.040475640445947647
0.37803226709365845 0.16392582654953003 0.036917541176080704
0.41477814316749573 0.1492387056350708 0.032313480973243713
0.45188453793525696 0.13381575047969818 0.028230374678969383
0.49058252573013306 0.11643962562084198 0.024188237264752388
0.52705895900726318 0.0997324138879776 0.020423043519258499
0.56787586212158203 0.080308347940444946 0.016643013805150986
0.60561060905456543 0.061665460467338562 0.013438016176223755
0.6464306116104126 0.041817493736743927 0.010382711887359619
0.6842266321182251 0.024803599342703819 0.0084100011736154556
0.71610802412033081 0.013155758380889893 0.0072543909773230553
0.74678373336791992 0.0057715717703104019 0.0067205606028437614
0.77372771501541138 0.0022865741048008204 0.0066862218081951141
0.80075669288635254 0.00036616428405977786 0.006723565049469471
0.8253064751625061 0 0.007247293833643198
0.84966737031936646 0 0.0085315713658928871
0.87323999404907227 0 0.010372511111199856
0.89621102809906006 0 0.013359121978282928
0.91489553451538086 0 0.017506182193756104
0.1116902083158493 0.29721835255622864 0.067067749798297882
0.11640763282775879 0.29549014568328857 0.066949479281902313
0.12289069592952728 0.293375164270401 0.066483423113822937
0.13053606450557709 0.29059711098670959 0.06590425968170166
0.14141865074634552 0.28728950023651123 0.065565541386604309
0.15765716135501862 0.28335899114608765 0.064773470163345337
0.17792657017707825 0.27854228019714355 0.063954912126064301
0.19860184192657471 0.27344682812690735 0.06293661892414093
0.22251775860786438 0.26704829931259155 0.061307977885007858
0.24616318941116333 0.26029503345489502 0.059499286115169525
0.27307721972465515 0.25202390551567078 0.057428769767284393
0.30184260010719299 0.24273198843002319 0.054884366691112518
0.3295477032661438 0.23324806988239288 0.052257794886827469
0.3629748523235321 0.22093343734741211 0.048496142029762268
0.39558437466621399 0.2087571769952774 0.045040104538202286
0.43261370062828064 0.19417715072631836 0.040874235332012177
0.47004663944244385 0.17910070717334747 0.036722131073474884
0.50906169414520264 0.16235066950321198 0.032047614455223083
0.54564327001571655 0.14599445462226868 0.028067134320735931
0.58661985397338867 0.12706424295902252 0.023547511547803879
0.62439519166946411 0.10893324017524719 0.01977975107729435
0.66478955745697021 0.088614493608474731 0.016405779868364334
0.70196479558944702 0.068763308227062225 0.013974959030747414
0.73323965072631836 0.050761096179485321 0.012546892277896404
0.76322585344314575 0.034226194024085999 0.011938918381929398
0.79007375240325928 0.020567638799548149 0.011605010367929935
0.81667619943618774 0.0092409811913967133 0.011903172358870506
0.84086126089096069 0.0029352838173508644 0.012910365127027035
0.86491221189498901 0.0006933530094102025 0.014557489193975925
0.88779908418655396 0.00013208657037466764 0.0171229038387537
0.91046106815338135 6.9458578764169943e-06 0.021200079470872879
0.92876070737838745 0 0.026353809982538223
0.093552291393280029 0.34441083669662476 0.074416562914848328
0.10048121213912964 0.34328603744506836 0.074269123375415802
0.11082486063241959 0.34132736921310425 0.074173487722873688
0.12535016238689423 0.33889177441596985 0.07397538423538208
0.14312104880809784 0.33571642637252808 0.073702961206436157
0.16284795105457306 0.33190315961837769 0.07304421067237854
0.18473899364471436 0.32735273241996765 0.072094470262527466
0.20743739604949951 0.32216539978981018 0.070919036865234375
0.23266604542732239 0.31599554419517517 0.069325432181358337
0.2580280601978302 0.30924230813980103 0.067670688033103943
0.28634107112884521 0.30116882920265198 0.065756537020206451
0.31660920381546021 0.29201892018318176 0.063278406858444214
0.34561413526535034 0.28270983695983887 0.060679081827402115
0.38031607866287231 0.27086552977561951 0.057503171265125275
0.4138806164264679 0.25881955027580261 0.053737811744213104
0.45168778300285339 0.24429084360599518 0.049417432397603989
0.48973581194877625 0.22951172292232513 0.045016404241323471
0.52903246879577637 0.21332159638404846 0.040469694882631302
0.56570380926132202 0.19765780866146088 0.03648020327091217
0.60716468095779419 0.17832086980342865 0.03201642632484436
0.64503246545791626 0.16064934432506561 0.027813052758574486
0.68501192331314087 0.1419832706451416 0.024217739701271057
0.7215040922164917 0.12293195724487305 0.021339952945709229
0.75210130214691162 0.10504619777202606 0.02003045380115509
0.78177809715270996 0.086040064692497253 0.01904485747218132
0.80838745832443237 0.068215131759643555 0.018482966348528862
0.83469915390014648 0.049201264977455139 0.019012480974197388
0.85861974954605103 0.03207441046833992 0.020221168175339699
0.88243621587753296 0.018192552030086517 0.022586571052670479
0.90509271621704102 0.0080712651833891869 0.026213796809315681
0.92720580101013184 0.0019377643475309014 0.031655922532081604
0.94508308172225952 0.0002269274991704151 0.037959784269332886
0.10478340089321136 0.39052280783653259 0.08049512654542923
0.11221563816070557 0.38913750648498535 0.08046451210975647
0.12254514545202255 0.38774582743644714 0.08044925332069397
0.136021688580513 0.38524475693702698 0.080154232680797577
0.1523909866809845 0.38225153088569641 0.079538248479366302
0.16977870464324951 0.37893608212471008 0.079089820384979248
0.1914656013250351 0.37437030673027039 0.077996000647544861
0.21491131186485291 0.36941090226173401 0.076979361474514008
0.24159584939479828 0.36304160952568054 0.075914211571216583
0.26830798387527466 0.3565790057182312 0.074499607086181641
0.29827931523323059 0.34856289625167847 0.072473488748073578
0.33001524209976196 0.33965912461280823 0.070083454251289368
0.36069789528846741 0.33034235239028931 0.067826934158802032
0.39620864391326904 0.31909424066543579 0.064336791634559631
0.43075358867645264 0.30732282996177673 0.06079665943980217
0.46959605813026428 0.29306212067604065 0.057011660188436508
0.50792008638381958 0.27854946255683899 0.052837524563074112
0.54781055450439453 0.26238033175468445 0.048818647861480713
0.58506953716278076 0.24753120541572571 0.044423755258321762
0.62690657377243042 0.22910946607589722 0.039443869143724442
0.66483390331268311 0.21172109246253967 0.035583898425102234
0.70413637161254883 0.19365696609020233 0.032168835401535034
0.74006211757659912 0.17526738345623016 0.029558058828115463
0.770455002784729 0.15835720300674438 0.028293821960687637
0.79999077320098877 0.14007765054702759 0.026902148500084877
0.82623589038848877 0.12255638837814331 0.026662953197956085
0.85247862339019775 0.10360943526029587 0.027437100186944008
0.87618780136108398 0.084474466741085052 0.029061261564493179
0.89986813068389893 0.06425001472234726 0.031753860414028168
0.92244493961334229 0.04372435063123703 0.035753995180130005
0.94435787200927734 0.023840883746743202 0.042337335646152496
0.96203309297561646 0.01108203362673521 0.049623634666204453
0.11394807696342468 0.44346821308135986 0.085995033383369446
0.11958576738834381 0.44243153929710388 0.0859375
0.12779194116592407 0.44002887606620789 0.08586408942937851
0.13912957906723022 0.43843191862106323 0.085530266165733337
0.15508043766021729 0.43545559048652649 0.084972739219665527
0.17442764341831207 0.43213316798210144 0.084494076669216156
0.19811972975730896 0.42789766192436218 0.083988457918167114
0.22362181544303894 0.42301478981971741 0.082868486642837524
0.2525467574596405 0.41716909408569336 0.081605516374111176
0.28081163763999939 0.4105648398399353 0.080305248498916626
0.31228798627853394 0.40307745337486267 0.078256130218505859
0.3458690345287323 0.39448943734169006 0.076007895171642303
0.37718835473060608 0.38547983765602112 0.073951646685600281
0.41467615962028503 0.37423837184906006 0.070876270532608032
0.45028233528137207 0.36283695697784424 0.067808166146278381
0.49015387892723083 0.34928929805755615 0.064006417989730835
0.52887392044067383 0.33555316925048828 0.06054847314953804
0.56951355934143066 0.32025691866874695 0.056745875626802444
0.60727149248123169 0.30543053150177002 0.052692785859107971
0.64961081743240356 0.28815093636512756 0.048510883003473282
0.6874815821647644 0.27180087566375732 0.0447378009557724
0.726573646068573 0.25456199049949646 0.041446581482887268
0.76180142164230347 0.23719413578510284 0.03905859962105751
0.79176932573318481 0.22094403207302094 0.037668038159608841
0.82119643688201904 0.20416565239429474 0.03737703338265419
0.84731906652450562 0.1877695769071579 0.037659283727407455
0.87365716695785522 0.16954436898231506 0.038987454026937485
0.89743179082870483 0.15189151465892792 0.040966689586639404
0.92116117477416992 0.13181692361831665 0.04434700682759285
0.94365179538726807 0.11077100783586502 0.048819653689861298
0.96563178300857544 0.087297029793262482 0.05507219210267067
