LUTs/Agfa Precisa 100.cube
# Created by: G'MIC (https://gmic.eu)
TITLE "Agfa Precisa 100"
# LUT size
LUT_3D_SIZE 32
# Data domain
DOMAIN_MIN 0.0 0.0 0.0
DOMAIN_MAX 1.0 1.0 1.0
# LUT data points
0.0087817171588540077 0.0088852383196353912 0.0069312741979956627
0.024797670543193817 0.0094865364953875542 0.00699613057076931
0.047112446278333664 0.010278770700097084 0.0070972340181469917
0.069803871214389801 0.011115556582808495 0.0070590558461844921
0.092336364090442657 0.011888554319739342 0.0075611029751598835
0.11263461410999298 0.012469638139009476 0.0080121848732233047
0.134492427110672 0.013647470623254776 0.0091407420113682747
0.15791000425815582 0.014803687110543251 0.010096976533532143
0.18296205997467041 0.015713142231106758 0.011998550035059452
0.20866760611534119 0.017044994980096817 0.014753999188542366
0.23785875737667084 0.018729571253061295 0.019400555640459061
0.26876634359359741 0.020208815112709999 0.025746611878275871
0.29694512486457825 0.021097205579280853 0.033121541142463684
0.328634113073349 0.022891616448760033 0.042148999869823456
0.35845521092414856 0.024516168981790543 0.050620600581169128
0.39356875419616699 0.026723572984337807 0.060111455619335175
0.43007397651672363 0.030852891504764557 0.070897109806537628
0.4704098105430603 0.037257790565490723 0.081903465092182159
0.50885254144668579 0.042946260422468185 0.091856352984905243
0.55078476667404175 0.050220664590597153 0.10259357839822769
0.58797973394393921 0.056588154286146164 0.1125214546918869
0.62794524431228638 0.064023882150650024 0.12275783717632294
0.66699141263961792 0.070905856788158417 0.13301144540309906
0.70259225368499756 0.07697402685880661 0.14235891401767731
0.7396930456161499 0.083559222519397736 0.15216393768787384
0.77444952726364136 0.090510383248329163 0.1617419570684433
0.81056171655654907 0.096015959978103638 0.17099288105964661
0.84409350156784058 0.10215485095977783 0.17933870851993561
0.8787493109703064 0.1083485335111618 0.18809401988983154
0.91338551044464111 0.11439621448516846 0.19724145531654358
0.94746291637420654 0.1198238730430603 0.20639276504516602
0.97656595706939697 0.12540081143379211 0.21425603330135345
0.016611004248261452 0.027472177520394325 0.012027857825160027
0.031321756541728973 0.029100749641656876 0.012075123377144337
0.052929949015378952 0.030465211719274521 0.012079170905053616
0.075319811701774597 0.032090913504362106 0.012134112417697906
0.097933687269687653 0.033712159842252731 0.012189850211143494
0.11805532872676849 0.035445813089609146 0.012551521882414818
0.14043299853801727 0.036890588700771332 0.013347117230296135
0.16427823901176453 0.038512807339429855 0.013722869567573071
0.189700648188591 0.040050923824310303 0.014711245894432068
0.21563108265399933 0.04209759458899498 0.015838319435715675
0.2452457994222641 0.044647462666034698 0.018141811713576317
0.27615296840667725 0.046383872628211975 0.022244770079851151
0.30430936813354492 0.047095693647861481 0.027845233678817749
0.33557170629501343 0.04746893048286438 0.036450792104005814
0.36514559388160706 0.04668300598859787 0.045365180820226669
0.39986735582351685 0.045376073569059372 0.056318365037441254
0.43567824363708496 0.045401550829410553 0.068073377013206482
0.47515401244163513 0.046122696250677109 0.080493554472923279
0.51304799318313599 0.047810252755880356 0.091706462204456329
0.55425214767456055 0.052352793514728546 0.10320784151554108
0.59102338552474976 0.057468846440315247 0.1133887767791748
0.63051259517669678 0.064344212412834167 0.12347981333732605
0.66934490203857422 0.071573242545127869 0.13378065824508667
0.7045443058013916 0.077204257249832153 0.14279825985431671
0.74226915836334229 0.083942338824272156 0.15299080312252045
0.77674788236618042 0.090562917292118073 0.1618914008140564
0.8125612735748291 0.096102207899093628 0.17099317908287048
0.84611475467681885 0.10234789550304413 0.17937774956226349
0.88004547357559204 0.10888513922691345 0.18816559016704559
0.91392093896865845 0.114619180560112 0.19729608297348022
0.94828635454177856 0.11997045576572418 0.20642147958278656
0.97717165946960449 0.1254461258649826 0.21425603330135345
0.028381746262311935 0.052278395742177963 0.018561681732535362
0.041520599275827408 0.053717836737632751 0.018408508971333504
0.058902997523546219 0.05517270416021347 0.018389234319329262
0.079645439982414246 0.056712489575147629 0.018508018925786018
0.10178625583648682 0.058554794639348984 0.018719442188739777
0.12185277789831161 0.060213260352611542 0.019293973222374916
0.14484785497188568 0.062294423580169678 0.01969057135283947
0.16878637671470642 0.064166024327278137 0.019883828237652779
0.19435222446918488 0.066469185054302216 0.020210858434438705
0.22068890929222107 0.068691037595272064 0.021198438480496407
0.25042727589607239 0.071502290666103363 0.022313039749860764
0.28173807263374329 0.074288830161094666 0.024074288085103035
0.3101121187210083 0.076225109398365021 0.026516061276197433
0.34166762232780457 0.077254690229892731 0.031751662492752075
0.37140476703643799 0.076855018734931946 0.039312355220317841
0.40567940473556519 0.076071217656135559 0.049661442637443542
0.44158735871315002 0.075887829065322876 0.061160404235124588
0.48116478323936462 0.074814595282077789 0.073810242116451263
0.5185350775718689 0.073253922164440155 0.085847623646259308
0.55885577201843262 0.071186751127243042 0.099073350429534912
0.59492164850234985 0.069187037646770477 0.1109750047326088
0.6336250901222229 0.069114759564399719 0.12313844263553619
0.67194062471389771 0.072876550257205963 0.13378475606441498
0.70703917741775513 0.077831186354160309 0.14377802610397339
0.74340152740478516 0.084376528859138489 0.15324981510639191
0.77752315998077393 0.091092787683010101 0.1620393693447113
0.81313920021057129 0.096723556518554688 0.171462282538414
0.84680980443954468 0.10273738205432892 0.18031203746795654
0.88175421953201294 0.10921008139848709 0.18930074572563171
0.91478681564331055 0.11475063860416412 0.19806014001369476
0.94933503866195679 0.12049097567796707 0.20685116946697235
0.97801262140274048 0.12564389407634735 0.21428905427455902
0.042607445269823074 0.076929815113544464 0.026467200368642807
0.054178223013877869 0.077954426407814026 0.02646448090672493
0.068467207252979279 0.079300954937934875 0.026464024558663368
0.085638120770454407 0.080630458891391754 0.026582114398479462
0.10591338574886322 0.082256540656089783 0.026766737923026085
0.12572036683559418 0.083889409899711609 0.027143839746713638
0.14915359020233154 0.085746005177497864 0.027750741690397263
0.17297378182411194 0.087600216269493103 0.028197996318340302
0.1989169716835022 0.089880965650081635 0.028826886788010597
0.22529636323451996 0.092294484376907349 0.029486184939742088
0.25523999333381653 0.095318466424942017 0.030137740075588226
0.28649726510047913 0.098434388637542725 0.030642306432127953
0.31495428085327148 0.10085440427064896 0.031629253178834915
0.34675988554954529 0.10292103141546249 0.033408142626285553
0.37685346603393555 0.1037469208240509 0.036978971213102341
0.41197609901428223 0.10374704748392105 0.044569995254278183
0.44785726070404053 0.1037738025188446 0.05546286329627037
0.487303227186203 0.10305725038051605 0.067835442721843719
0.52446627616882324 0.10190771520137787 0.079472742974758148
0.56468343734741211 0.099721305072307587 0.092429406940937042
0.60031116008758545 0.096446238458156586 0.10439979285001755
0.63862568140029907 0.092636041343212128 0.11750167608261108
0.67583543062210083 0.088241137564182281 0.13045677542686462
0.71003967523574829 0.085787661373615265 0.14231708645820618
0.74638617038726807 0.087196558713912964 0.15301083028316498
0.78039813041687012 0.091703116893768311 0.16316850483417511
0.81582820415496826 0.097269564867019653 0.17248149216175079
0.84849727153778076 0.10298515856266022 0.18125076591968536
0.88273400068283081 0.10925871133804321 0.19027957320213318
0.91651660203933716 0.11475794762372971 0.19883868098258972
0.95052224397659302 0.12127425521612167 0.20782147347927094
0.97896307706832886 0.12604591250419617 0.21485801041126251
0.058363292366266251 0.10080741345882416 0.036053169518709183
0.068126551806926727 0.10166110098361969 0.035928905010223389
0.08025079220533371 0.10267588496208191 0.035916034132242203
0.094389252364635468 0.10386106371879578 0.035806439816951752
0.11074477434158325 0.10524284839630127 0.035924874246120453
0.13007859885692596 0.10658383369445801 0.036809518933296204
0.15414434671401978 0.10830555856227875 0.037552159279584885
0.17740869522094727 0.11009708791971207 0.03837687149643898
0.20368163287639618 0.11228040605783463 0.039206098765134811
0.2300204336643219 0.11444742232561111 0.039830252528190613
0.26002606749534607 0.11723269522190094 0.040879789739847183
0.29113918542861938 0.12033143639564514 0.040663633495569229
0.31941354274749756 0.12291164696216583 0.040412038564682007
0.35134705901145935 0.12539087235927582 0.04049750417470932
0.38184121251106262 0.12705355882644653 0.04085126519203186
0.41728150844573975 0.12867137789726257 0.04336056113243103
0.4538428783416748 0.12940016388893127 0.050995815545320511
0.49357005953788757 0.12881648540496826 0.062750592827796936
0.53046852350234985 0.12810660898685455 0.074146807193756104
0.57032889127731323 0.12618367373943329 0.08690991997718811
0.60586851835250854 0.12345363944768906 0.098521299660205841
0.64392030239105225 0.11987543106079102 0.11116029322147369
0.68090254068374634 0.11525308340787888 0.12396232783794403
0.71477818489074707 0.10989683866500854 0.13650915026664734
0.75001722574234009 0.10319545865058899 0.1498531699180603
0.78276264667510986 0.098057076334953308 0.16205602884292603
0.81742602586746216 0.098566785454750061 0.1725175678730011
0.85066920518875122 0.10318055748939514 0.18130719661712646
0.88478457927703857 0.10926318168640137 0.19037732481956482
0.91787993907928467 0.11476066708564758 0.19898383319377899
0.95165103673934937 0.12154082953929901 0.20823736488819122
0.98017078638076782 0.12635529041290283 0.21589659154415131
0.073839940130710602 0.12407845258712769 0.045890368521213531
0.081981465220451355 0.12481020390987396 0.045886646956205368
0.092852525413036346 0.12580190598964691 0.046028386801481247
0.10511813312768936 0.12685324251651764 0.046289432793855667
0.11876804381608963 0.12775728106498718 0.046552613377571106
0.13600581884384155 0.12916448712348938 0.047030314803123474
0.15933659672737122 0.13086031377315521 0.047727037221193314
0.18231621384620667 0.13235192000865936 0.048665881156921387
0.20874406397342682 0.13425660133361816 0.04977601021528244
0.23509801924228668 0.1363687664270401 0.050782006233930588
0.26485228538513184 0.13881991803646088 0.051864493638277054
0.2957446277141571 0.14159388840198517 0.052010558545589447
0.32396921515464783 0.14406315982341766 0.051730670034885406
0.35581547021865845 0.14619722962379456 0.051556147634983063
0.38635939359664917 0.14829322695732117 0.050691056996583939
0.42238360643386841 0.15056891739368439 0.049608681350946426
0.45973694324493408 0.15266521275043488 0.051077593117952347
0.4997183084487915 0.15336872637271881 0.058717649430036545
0.53641849756240845 0.15273447334766388 0.069324605166912079
0.57615566253662109 0.15065184235572815 0.082179158926010132
0.61123192310333252 0.14789386093616486 0.093575619161128998
0.64917892217636108 0.14469638466835022 0.10600228607654572
0.68619304895401001 0.14055095613002777 0.11835941672325134
0.71995902061462402 0.13566343486309052 0.13055224716663361
0.75487512350082397 0.12912425398826599 0.14350229501724243
0.78745055198669434 0.12160195410251617 0.15610387921333313
0.82145434617996216 0.11259409040212631 0.16927282512187958
0.85302144289016724 0.10832342505455017 0.18044751882553101
0.88674354553222656 0.11042546480894089 0.19029216468334198
0.9197813868522644 0.11512567102909088 0.19898404181003571
0.95345169305801392 0.12154266238212585 0.2082410603761673
0.98147755861282349 0.12637545168399811 0.21621465682983398
0.090799093246459961 0.15143272280693054 0.057003337889909744
0.097809337079524994 0.15178929269313812 0.057107746601104736
0.10720746964216232 0.15260599553585052 0.057312894612550735
0.11773715913295746 0.15352907776832581 0.057378895580768585
0.13041964173316956 0.1545528918504715 0.057605620473623276
0.14568904042243958 0.15576647222042084 0.058168534189462662
0.16546450555324554 0.15721729397773743 0.058868624269962311
0.18802696466445923 0.15864896774291992 0.059958692640066147
0.21454751491546631 0.16028666496276855 0.060811333358287811
0.24097414314746857 0.16230891644954681 0.061914652585983276
0.27063655853271484 0.16436165571212769 0.063182994723320007
0.30125060677528381 0.16677369177341461 0.063849642872810364
0.32921016216278076 0.16876393556594849 0.063407719135284424
0.36095547676086426 0.17093442380428314 0.063196614384651184
0.39150211215019226 0.17265161871910095 0.062574818730354309
0.42764163017272949 0.174928218126297 0.061038337647914886
0.46563002467155457 0.17753292620182037 0.05873778834939003
0.50639247894287109 0.17983280122280121 0.058665607124567032
0.54321879148483276 0.18043839931488037 0.064891733229160309
0.58250987529754639 0.17836625874042511 0.076610401272773743
0.61771082878112793 0.17562286555767059 0.087962955236434937
0.65527915954589844 0.17216157913208008 0.10048345476388931
0.69182509183883667 0.16838844120502472 0.11297552287578583
0.72548884153366089 0.16378732025623322 0.12468612939119339
0.76050692796707153 0.15764798223972321 0.13681252300739288
0.79282927513122559 0.15068256855010986 0.14908516407012939
0.82658439874649048 0.1409725546836853 0.16220209002494812
0.85776495933532715 0.1307537853717804 0.17518189549446106
0.88999903202056885 0.11999573558568954 0.18847978115081787
0.92212009429931641 0.1171838566660881 0.19895647466182709
0.95536834001541138 0.12167196720838547 0.20826978981494904
0.98288041353225708 0.12642921507358551 0.21621681749820709
0.10683970898389816 0.1783297061920166 0.0675463005900383
0.11293816566467285 0.17869427800178528 0.067586809396743774
0.12062884867191315 0.17928449809551239 0.067756563425064087
0.130202516913414 0.17997129261493683 0.067880831658840179
0.14274092018604279 0.18093773722648621 0.068045653402805328
0.15750876069068909 0.18226656317710876 0.068777941167354584
0.17393676936626434 0.18341244757175446 0.069247283041477203
0.19430789351463318 0.18487884104251862 0.070136502385139465
0.22035843133926392 0.18663811683654785 0.071227483451366425
0.24692876636981964 0.18833371996879578 0.07193630188703537
0.27642384171485901 0.19023549556732178 0.072692088782787323
0.3067057728767395 0.19225302338600159 0.073379382491111755
0.33458331227302551 0.19393357634544373 0.073294714093208313
0.36631762981414795 0.19578750431537628 0.072864070534706116
0.39682161808013916 0.19746957719326019 0.072419054806232452
0.43300667405128479 0.19947351515293121 0.07124742865562439
0.4712408185005188 0.2015993744134903 0.068998560309410095
0.51209849119186401 0.20440162718296051 0.065965801477432251
0.54940617084503174 0.20620043575763702 0.064837783575057983
0.58904546499252319 0.20556317269802094 0.071027070283889771
0.62375152111053467 0.20250190794467926 0.081884898245334625
0.66138792037963867 0.19876618683338165 0.09459424763917923
0.69757318496704102 0.19509878754615784 0.10729418694972992
0.73094451427459717 0.19031462073326111 0.1188775971531868
0.76581102609634399 0.18404267728328705 0.13132257759571075
0.79828453063964844 0.17736765742301941 0.14331963658332825
0.83172059059143066 0.1684609055519104 0.15580479800701141
0.86295264959335327 0.15882577002048492 0.1683255136013031
0.89481252431869507 0.14603222906589508 0.18217596411705017
0.92592662572860718 0.13250617682933807 0.19609464704990387
0.95792162418365479 0.12520876526832581 0.2084880918264389
0.98477059602737427 0.12721075117588043 0.21638847887516022
0.11571783572435379 0.20888316631317139 0.077316224575042725
0.12064499408006668 0.2093174159526825 0.077336408197879791
0.12787757813930511 0.20994867384433746 0.077456139028072357
0.13769571483135223 0.21065595746040344 0.07762504369020462
0.15035045146942139 0.21151982247829437 0.078100956976413727
0.1641179621219635 0.21267521381378174 0.078472070395946503
0.18025772273540497 0.21405886113643646 0.078960932791233063
0.20079205930233002 0.21530799567699432 0.079644583165645599
0.22689510881900787 0.21703712642192841 0.080558225512504578
0.25348365306854248 0.21866852045059204 0.081161327660083771
0.28271570801734924 0.22016486525535583 0.081506572663784027
0.31283679604530334 0.22202891111373901 0.082032822072505951
0.34064820408821106 0.2234521359205246 0.082123354077339172
0.37246218323707581 0.2249937504529953 0.082011133432388306
0.40328195691108704 0.22683724761009216 0.081332400441169739
0.43979763984680176 0.22857922315597534 0.080211400985717773
0.47780561447143555 0.2306026965379715 0.078749343752861023
0.51842415332794189 0.23242522776126862 0.076053284108638763
0.55594462156295776 0.23454321920871735 0.072194136679172516
0.59607899188995361 0.2354467362165451 0.06940104067325592
0.63066351413726807 0.23364493250846863 0.074872903525829315
0.66803818941116333 0.22972719371318817 0.086725465953350067
0.70407730340957642 0.22555570304393768 0.099418692290782928
0.73726505041122437 0.22048163414001465 0.11124013364315033
0.7722286581993103 0.21384632587432861 0.12410274147987366
0.80407243967056274 0.20698198676109314 0.13622622191905975
0.8375694751739502 0.19864711165428162 0.14903911948204041
0.86865055561065674 0.1892475038766861 0.16130474209785461
0.90038180351257324 0.17743043601512909 0.17453768849372864
0.93132203817367554 0.16304659843444824 0.18882720172405243
0.96239012479782104 0.14515382051467896 0.20409263670444489
0.98752731084823608 0.13330264389514923 0.21554599702358246
0.11229855567216873 0.23977367579936981 0.087117083370685577
0.11765584349632263 0.24008907377719879 0.087231375277042389
0.12552271783351898 0.24052141606807709 0.087804600596427917
0.1362505704164505 0.24141579866409302 0.088072828948497772
0.14924271404743195 0.24260483682155609 0.08829854428768158
0.1632273942232132 0.24374891817569733 0.088592790067195892
0.18311497569084167 0.24479413032531738 0.08929896354675293
0.20651426911354065 0.2465362548828125 0.089739367365837097
0.23349225521087646 0.24815620481967926 0.090408697724342346
0.25980883836746216 0.24958266317844391 0.090948186814785004
0.2888026237487793 0.25166121125221252 0.091206081211566925
0.31863716244697571 0.25267624855041504 0.091437369585037231
0.34648430347442627 0.25464388728141785 0.091430097818374634
0.37856218218803406 0.25607168674468994 0.091186173260211945
0.40961965918540955 0.25735834240913391 0.090754933655261993
0.44649189710617065 0.25976797938346863 0.089503958821296692
0.48448091745376587 0.26100340485572815 0.088259212672710419
0.52484792470932007 0.26336044073104858 0.08598753809928894
0.56208056211471558 0.26424342393875122 0.082369968295097351
0.60194754600524902 0.26525339484214783 0.077248968183994293
0.63748401403427124 0.26500603556632996 0.074319899082183838
0.67507737874984741 0.26234856247901917 0.080145843327045441
0.7110629677772522 0.25769889354705811 0.092125996947288513
0.74395906925201416 0.25220245122909546 0.10369980335235596
0.77832251787185669 0.24520456790924072 0.11597588658332825
0.81037676334381104 0.23790556192398071 0.1279422789812088
0.84335076808929443 0.22941803932189941 0.14095163345336914
0.87435615062713623 0.21963085234165192 0.15363228321075439
0.90605074167251587 0.20802997052669525 0.16726449131965637
0.93681889772415161 0.19424170255661011 0.18112733960151672
0.96775990724563599 0.1774994283914566 0.1958119124174118
0.99125432968139648 0.15894734859466553 0.20968185365200043
0.11793917417526245 0.27301475405693054 0.10035640001296997
0.12200462073087692 0.27343270182609558 0.10035932064056396
0.12802822887897491 0.2745172381401062 0.10041451454162598
0.13616761565208435 0.27580127120018005 0.10062649101018906
0.14750559628009796 0.27660420536994934 0.10078553855419159
0.16581206023693085 0.27735471725463867 0.10124387592077255
0.1896710991859436 0.27938663959503174 0.10174018889665604
0.21368451416492462 0.2806985080242157 0.1017858013510704
0.24080865085124969 0.28248447179794312 0.1017938032746315
0.26689264178276062 0.28441917896270752 0.10178827494382858
0.29558908939361572 0.28568997979164124 0.10184969007968903
0.32503336668014526 0.28828868269920349 0.10154477506875992
0.35287424921989441 0.28885740041732788 0.10100275278091431
0.38548010587692261 0.29184594750404358 0.10013225674629211
0.41699770092964172 0.29264301061630249 0.099479518830776215
0.4542098343372345 0.29546508193016052 0.098266705870628357
0.49209263920783997 0.29646864533424377 0.096672914922237396
0.53228962421417236 0.29874074459075928 0.094134174287319183
0.56912320852279663 0.30030328035354614 0.091022394597530365
0.60846471786499023 0.30031993985176086 0.086176812648773193
0.64374476671218872 0.30031952261924744 0.080095671117305756
0.68230676651000977 0.29991787672042847 0.075954154133796692
0.71875464916229248 0.29597154259681702 0.083144664764404297
0.7513430118560791 0.29012787342071533 0.094672918319702148
0.78538715839385986 0.28255939483642578 0.10730241984128952
0.8172839879989624 0.27494925260543823 0.11936097592115402
0.85006237030029297 0.26554906368255615 0.13176032900810242
0.88087934255599976 0.25489997863769531 0.14411111176013947
0.91231966018676758 0.24294111132621765 0.15785923600196838
0.94302308559417725 0.22915929555892944 0.17206278443336487
0.97372263669967651 0.21221069991588593 0.18675820529460907
0.99443203210830688 0.19494977593421936 0.20033051073551178
0.11038932949304581 0.30789664387702942 0.11260927468538284
0.11474528908729553 0.30874922871589661 0.1127852201461792
0.12206784635782242 0.30942645668983459 0.11289471387863159
0.1342281848192215 0.30972114205360413 0.113052599132061
0.15253162384033203 0.31054040789604187 0.11320062726736069
0.1738642156124115 0.3125443160533905 0.11327642202377319
0.19753029942512512 0.31364354491233826 0.11358421295881271
0.22178275883197784 0.31531617045402527 0.11356902122497559
0.2483161985874176 0.31740531325340271 0.11321460455656052
0.27422499656677246 0.31892511248588562 0.11294512450695038
0.30250480771064758 0.32133340835571289 0.11244525015354156
0.3318532407283783 0.32361578941345215 0.11165301501750946
0.35972869396209717 0.32533174753189087 0.1109749972820282
0.39256981015205383 0.32779589295387268 0.10988818109035492
0.42471110820770264 0.32931521534919739 0.10866071283817291
0.46237361431121826 0.33198946714401245 0.10732906311750412
0.50060063600540161 0.33337777853012085 0.10551010072231293
0.54011911153793335 0.33640626072883606 0.10287533700466156
0.57635581493377686 0.33703193068504333 0.099664546549320221
0.61538255214691162 0.3372027575969696 0.094929501414299011
0.65008032321929932 0.33833834528923035 0.089479260146617889
0.68840557336807251 0.33898568153381348 0.081993073225021362
0.72592306137084961 0.33762499690055847 0.077504687011241913
0.75874894857406616 0.3326585590839386 0.083953171968460083
0.79272985458374023 0.32482755184173584 0.096183165907859802
0.82439368963241577 0.31636321544647217 0.10830604285001755
0.85699957609176636 0.30620959401130676 0.12100430577993393
0.88771259784698486 0.29501181840896606 0.13395273685455322
0.9190295934677124 0.28209355473518372 0.14774197340011597
0.94962906837463379 0.26732361316680908 0.16181130707263947
0.97982406616210938 0.25000563263893127 0.1767280101776123
0.99736416339874268 0.23251347243785858 0.19025997817516327
0.1028551384806633 0.33899903297424316 0.12510272860527039
0.11190339922904968 0.33947393298149109 0.12514100968837738
0.12488040328025818 0.34144997596740723 0.12533359229564667
0.14139211177825928 0.34269466996192932 0.1255042552947998
0.16104438900947571 0.34280243515968323 0.12556156516075134
0.18146497011184692 0.34399837255477905 0.12553712725639343
0.20520897209644318 0.34661775827407837 0.12541103363037109
0.22894927859306335 0.34715697169303894 0.12522000074386597
0.25503948330879211 0.35010203719139099 0.12473984062671661
