LUTs/Anime.cube
# Created by: G'MIC (https://gmic.eu)
TITLE "Anime"
# LUT size
LUT_3D_SIZE 5
# Data domain
# LUT data points
DOMAIN_MIN 0.000000 0.000000 0.000000
DOMAIN_MAX 0.903226 0.903226 0.903226
0.062811091542243958 0.01101601030677557 0
0.20261630415916443 0.049389559775590897 0
0.36665534973144531 0.13840571045875549 0.0056397151201963425
0.52714842557907104 0.23755060136318207 0.061748631298542023
0.70869779586791992 0.34857949614524841 0.1419435441493988
1.0126233064511325e-05 0.22633600234985352 0
0.24631942808628082 0.20117492973804474 0.03681371733546257
0.37361046671867371 0.25997254252433777 0.086514636874198914
0.5320250391960144 0.33627310395240784 0.15436595678329468
0.70254898071289062 0.42674997448921204 0.22212360799312592
0 0.46239554882049561 0
0.23204220831394196 0.43538668751716614 0.015927825123071671
0.46628999710083008 0.43839094042778015 0.19416143000125885
0.5912359356880188 0.48723971843719482 0.24217797815799713
0.74209904670715332 0.56741595268249512 0.31016087532043457
0 0.72575557231903076 0
0.0098886182531714439 0.71280771493911743 0
0.5376625657081604 0.66844445466995239 0.30204665660858154
0.69744586944580078 0.68732208013534546 0.36942839622497559
0.84082907438278198 0.7303156852722168 0.41747620701789856
0 0.96416622400283813 0
0 0.96259421110153198 0
0.45530489087104797 0.92769992351531982 0.030134374275803566
0.78895974159240723 0.89224255084991455 0.49143069982528687
0.93427926301956177 0.90751606225967407 0.51705551147460938
0.09168224036693573 0.012139777652919292 0.18539503216743469
0.21164102852344513 0.040886092931032181 0.086138665676116943
0.36115339398384094 0.13041995465755463 0.11450744420289993
0.52675974369049072 0.23344205319881439 0.15657365322113037
0.72074639797210693 0.34106045961380005 0.21578367054462433
0.0089155649766325951 0.22965356707572937 0.14262290298938751
0.23848015069961548 0.20931927859783173 0.15417809784412384
0.39057496190071106 0.25138497352600098 0.18108521401882172
0.55998331308364868 0.32038614153862 0.21305659413337708
0.7398228645324707 0.40596523880958557 0.2551729679107666
0 0.48987892270088196 0.00016675784718245268
0.017817234620451927 0.4734286367893219 0.00049216218758374453
0.46180391311645508 0.43898609280586243 0.28427723050117493
0.59319734573364258 0.49687314033508301 0.33215761184692383
0.74841016530990601 0.56378471851348877 0.38925299048423767
0 0.74278795719146729 0
0 0.7381473183631897 0
0.47954350709915161 0.68706709146499634 0.25647386908531189
0.7019532322883606 0.68904280662536621 0.43834364414215088
0.83360332250595093 0.73315083980560303 0.47474199533462524
0 0.96611124277114868 0
0 0.97236037254333496 0
0.31398320198059082 0.94296902418136597 0.010142752900719643
0.78100812435150146 0.89549154043197632 0.52675986289978027
0.92716503143310547 0.9092782735824585 0.56481826305389404
0.10824542492628098 0.012921381741762161 0.39591193199157715
0.26905277371406555 0.0088382158428430557 0.34151747822761536
0.38383081555366516 0.14210914075374603 0.24182814359664917
0.53633987903594971 0.23502819240093231 0.28354647755622864
0.71516984701156616 0.34843519330024719 0.34025591611862183
0.050804376602172852 0.22112230956554413 0.40197834372520447
0.24313084781169891 0.22046777606010437 0.39747217297554016
0.40649637579917908 0.25129011273384094 0.29956850409507751
0.5548052191734314 0.31830647587776184 0.32477638125419617
0.72915810346603394 0.40702834725379944 0.36726081371307373
0.017431413754820824 0.47349968552589417 0.38126629590988159
0.067575551569461823 0.47039419412612915 0.38907700777053833
0.44887304306030273 0.44805583357810974 0.41068089008331299
0.61067330837249756 0.49010780453681946 0.43646413087844849
0.78058499097824097 0.55082839727401733 0.46476247906684875
0 0.75105041265487671 0.24806845188140869
0 0.75943475961685181 0.16517968475818634
0.091523386538028717 0.7393416166305542 0.21963608264923096
0.69681674242019653 0.69190472364425659 0.5522613525390625
0.82758283615112305 0.73903578519821167 0.58881741762161255
0 0.97359120845794678 0.17644734680652618
0 0.97465091943740845 0.046048529446125031
0 0.9787859320640564 0
0.71297979354858398 0.91582977771759033 0.49946126341819763
0.92255318164825439 0.90943026542663574 0.67004954814910889
0.11281926184892654 0.016630006954073906 0.60150063037872314
0.27358177304267883 0.0134345768019557 0.57436627149581909
0.45463988184928894 0.066750653088092804 0.49857500195503235
0.56476110219955444 0.24539755284786224 0.40684854984283447
0.7255675196647644 0.36019375920295715 0.4589296281337738
6.8508670665323734e-05 0.2294805496931076 0.6226235032081604
0.21331492066383362 0.22624161839485168 0.62179392576217651
0.45557865500450134 0.22735986113548279 0.56768929958343506
0.57924914360046387 0.32745435833930969 0.45811071991920471
0.74460417032241821 0.42060229182243347 0.49334985017776489
0.00025747035397216678 0.47445723414421082 0.66604483127593994
0.065821893513202667 0.46936514973640442 0.66277569532394409
0.43365833163261414 0.46663537621498108 0.65592169761657715
0.62590986490249634 0.49414950609207153 0.55687516927719116
0.7824023962020874 0.55308014154434204 0.57762795686721802
0 0.73317515850067139 0.6370621919631958
0.029391299933195114 0.73761916160583496 0.64464908838272095
0.23814640939235687 0.72974848747253418 0.65420830249786377
0.67918020486831665 0.70171952247619629 0.67696326971054077
0.84802776575088501 0.73802918195724487 0.70169883966445923
0 0.98036473989486694 0.5905957818031311
0 0.98401927947998047 0.55647939443588257
0 0.99532806873321533 0.46107751131057739
0.39454033970832825 0.97086590528488159 0.4844897985458374
0.92308276891708374 0.91260808706283569 0.78757119178771973
0.039626650512218475 0.054567720741033554 0.82182252407073975
0.24018873274326324 0.04884018748998642 0.79999685287475586
0.46830138564109802 0.06096702441573143 0.76458412408828735
0.63853424787521362 0.21530504524707794 0.65802162885665894
0.75282496213912964 0.37261274456977844 0.59526127576828003
0 0.24582555890083313 0.85832911729812622
0.11992104351520538 0.24674446880817413 0.86137968301773071
0.44542589783668518 0.24896347522735596 0.81875532865524292
0.65590131282806396 0.29917678236961365 0.7291872501373291
0.76820027828216553 0.42998990416526794 0.63122737407684326
0 0.47007167339324951 0.88021069765090942
0.049568619579076767 0.47359341382980347 0.88715583086013794
0.39719372987747192 0.4788665771484375 0.89628702402114868
0.66495829820632935 0.485687255859375 0.84597259759902954
0.80972498655319214 0.56251329183578491 0.71293413639068604
0.00089832954108715057 0.72674763202667236 0.90791183710098267
0.0010538914939388633 0.72877973318099976 0.91906547546386719
0.3262428343296051 0.72108477354049683 0.93103313446044922
0.65828210115432739 0.7139933705329895 0.92200154066085815
0.85963457822799683 0.73875325918197632 0.82494926452636719
0 0.9720262885093689 0.8814082145690918
0.00051757192704826593 0.96925032138824463 0.88581067323684692
0.059613890945911407 0.96111923456192017 0.88328260183334351
0.48652607202529907 0.95206248760223389 0.8940616250038147
0.90232676267623901 0.92023199796676636 0.91263598203659058
