LUTs/Anime.cube
# Created by: G'MIC (https://gmic.eu)
TITLE "Anime"
# LUT size
LUT_3D_SIZE 32
# Data domain
DOMAIN_MIN 0.0 0.0 0.0
DOMAIN_MAX 1.0 1.0 1.0
# LUT data points
0.062811091542243958 0.01101601030677557 0
0.083204381167888641 0.011195717379450798 0
0.102825827896595 0.017799239605665207 0
0.12087556719779968 0.019585050642490387 0
0.14057928323745728 0.021929124370217323 0
0.15909036993980408 0.031591713428497314 0
0.17909443378448486 0.041966486722230911 0
0.20261630415916443 0.049389559775590897 0
0.22731129825115204 0.059333037585020065 0
0.25216951966285706 0.072544500231742859 0
0.27795225381851196 0.087546132504940033 0
0.29972240328788757 0.10027765482664108 5.5662835620751139e-06
0.3200538158416748 0.11154001951217651 0.0011306534288451076
0.34489434957504272 0.12558220326900482 0.0024489890784025192
0.36665534973144531 0.13840571045875549 0.0056397151201963425
0.3888947069644928 0.15256106853485107 0.0086711067706346512
0.41247054934501648 0.16628438234329224 0.013762044720351696
0.43727919459342957 0.18155395984649658 0.027535051107406616
0.45854365825653076 0.1955956369638443 0.03852539137005806
0.48081633448600769 0.20864255726337433 0.043222248554229736
0.50206655263900757 0.22142016887664795 0.049062419682741165
0.52714842557907104 0.23755060136318207 0.061748631298542023
0.55398339033126831 0.25360742211341858 0.074927300214767456
0.58300459384918213 0.26965394616127014 0.091200694441795349
0.61267894506454468 0.28679916262626648 0.10653620213270187
0.63598531484603882 0.30104082822799683 0.11439890414476395
0.65931981801986694 0.31631049513816833 0.12254591286182404
0.68327271938323975 0.33269250392913818 0.13182035088539124
0.70869779586791992 0.34857949614524841 0.1419435441493988
0.73466378450393677 0.36292904615402222 0.15213871002197266
0.76464188098907471 0.38009369373321533 0.16630832850933075
0.79279631376266479 0.39630770683288574 0.18184156715869904
0.044672247022390366 0.039970524609088898 0
0.079846054315567017 0.026752805337309837 0
0.10651919990777969 0.031279511749744415 0
0.12515433132648468 0.043406538665294647 0
0.14531679451465607 0.048275433480739594 0
0.16666840016841888 0.053353328257799149 0
0.18680694699287415 0.061021570116281509 0
0.20654147863388062 0.066446743905544281 2.0438114006537944e-05
0.2289881706237793 0.074479363858699799 0.00017802590446081012
0.25077903270721436 0.0849599689245224 0.00019116129260510206
0.27589315176010132 0.098905675113201141 0.00021667807595804334
0.29923835396766663 0.11170018464326859 0.00026383940712548792
0.3197975754737854 0.12258437275886536 0.0023223608732223511
0.34359234571456909 0.13592857122421265 0.0063020773231983185
0.36525580286979675 0.14816910028457642 0.011355465278029442
0.38826075196266174 0.16107422113418579 0.018879739567637444
0.41190922260284424 0.17448790371417999 0.024453975260257721
0.43756482005119324 0.18902868032455444 0.035074111074209213
0.45910188555717468 0.20298370718955994 0.046304255723953247
0.48163050413131714 0.21617856621742249 0.054026946425437927
0.50318682193756104 0.2282588928937912 0.06003156304359436
0.5287168025970459 0.24325762689113617 0.070814013481140137
0.55472290515899658 0.2586376965045929 0.081909097731113434
0.58016163110733032 0.2739468514919281 0.092696860432624817
0.60958075523376465 0.29065874218940735 0.10771460831165314
0.63594144582748413 0.30555766820907593 0.12044154852628708
0.66003715991973877 0.32087752223014832 0.12954218685626984
0.68173062801361084 0.33721047639846802 0.13700523972511292
0.70663744211196899 0.35289144515991211 0.14707711338996887
0.73340541124343872 0.36575844883918762 0.15758548676967621
0.76353710889816284 0.3829960823059082 0.17122741043567657
0.79090958833694458 0.40057408809661865 0.18650320172309875
0.015680618584156036 0.080234766006469727 0
0.053017023950815201 0.063447482883930206 0
0.10358115285634995 0.051225010305643082 0
0.12970751523971558 0.063367962837219238 0
0.14858883619308472 0.077113516628742218 0.00027520619914866984
0.16986419260501862 0.080987319350242615 0.00082441745325922966
0.19235138595104218 0.085466161370277405 0.0021087718196213245
0.2109600305557251 0.090237997472286224 0.0027537541463971138
0.23080772161483765 0.096403948962688446 0.005311963614076376
0.25112539529800415 0.10539305955171585 0.0068554659374058247
0.27412939071655273 0.11554108560085297 0.0077109867706894875
0.29834392666816711 0.12717568874359131 0.00926239974796772
0.32101616263389587 0.13825589418411255 0.011802886612713337
0.34434312582015991 0.15170638263225555 0.016563387587666512
0.36410275101661682 0.16310513019561768 0.021974757313728333
0.38610637187957764 0.17476832866668701 0.031420756131410599
0.40923699736595154 0.18725214898586273 0.039918705821037292
0.43504220247268677 0.20124365389347076 0.049163520336151123
0.45839962363243103 0.21309588849544525 0.057104326784610748
0.48201432824134827 0.2253185510635376 0.064893908798694611
0.50468939542770386 0.23879262804985046 0.073453783988952637
0.53130412101745605 0.25414299964904785 0.083600319921970367
0.55685251951217651 0.26779162883758545 0.093023352324962616
0.57988888025283813 0.28183260560035706 0.10094447433948517
0.60529893636703491 0.2970765233039856 0.11074014008045197
0.63247436285018921 0.31180679798126221 0.1252751499414444
0.66009324789047241 0.32796791195869446 0.1387956440448761
0.68135243654251099 0.34438151121139526 0.14614188671112061
0.70457959175109863 0.3602336049079895 0.1550295352935791
0.7319980263710022 0.37192073464393616 0.16519477963447571
0.76167058944702148 0.38739573955535889 0.17805555462837219
0.78816187381744385 0.40581598877906799 0.19302274286746979
0.0065314504317939281 0.1150025948882103 0
0.035259120166301727 0.10232946276664734 0
0.090053856372833252 0.086804501712322235 0
0.13025696575641632 0.083871409296989441 1.598470589669887e-05
0.1517927348613739 0.093169227242469788 0.00083662330871447921
0.17007885873317719 0.10103074461221695 0.0021403953433036804
0.19193588197231293 0.10719991475343704 0.0041174953803420067
0.21215842664241791 0.11287644505500793 0.0055385478772222996
0.23244474828243256 0.11931175738573074 0.0091666784137487411
0.25212550163269043 0.12899643182754517 0.013627360574901104
0.27425888180732727 0.13844263553619385 0.017055466771125793
0.29759198427200317 0.14720803499221802 0.026190550997853279
0.32038748264312744 0.15772713720798492 0.031424142420291901
0.34388282895088196 0.17029182612895966 0.035900991410017014
0.36263826489448547 0.18085964024066925 0.041005164384841919
0.38228577375411987 0.19115106761455536 0.049263317137956619
0.40416672825813293 0.20300860702991486 0.05764513835310936
0.42882812023162842 0.21668949723243713 0.066453635692596436
0.45302993059158325 0.22784388065338135 0.073107175529003143
0.47974815964698792 0.23873931169509888 0.078245967626571655
0.50399386882781982 0.25233134627342224 0.086664669215679169
0.5321391224861145 0.26899507641792297 0.097316749393939972
0.55765843391418457 0.28203883767127991 0.10642450302839279
0.58014750480651855 0.29420009255409241 0.11403857171535492
0.60396981239318848 0.30793014168739319 0.12216775119304657
0.62722766399383545 0.32140934467315674 0.13227994740009308
0.65492349863052368 0.3372032642364502 0.14502705633640289
0.67995893955230713 0.35297074913978577 0.15594536066055298
0.70488435029983521 0.36858975887298584 0.16569757461547852
0.73308926820755005 0.3809644877910614 0.17408132553100586
0.76211643218994141 0.39614635705947876 0.18545064330101013
0.78549772500991821 0.41293436288833618 0.19842980802059174
0.0040337704122066498 0.14553281664848328 0
0.028652463108301163 0.13486044108867645 0
0.081926152110099792 0.12161694467067719 0
0.12941078841686249 0.11263039708137512 0.00016821999452076852
0.15836898982524872 0.11026465892791748 0.0024636625312268734
0.17605632543563843 0.11823524534702301 0.0043867886997759342
0.19523607194423676 0.12733961641788483 0.0082712331786751747
0.21542300283908844 0.13375893235206604 0.010791849344968796
0.23672562837600708 0.14118792116641998 0.013765542767941952
0.25598466396331787 0.15125471353530884 0.018746808171272278
0.27642536163330078 0.16173656284809113 0.024736098945140839
0.29835253953933716 0.17002524435520172 0.038154572248458862
0.31945264339447021 0.17874816060066223 0.048295184969902039
0.3423771858215332 0.19093501567840576 0.053354203701019287
0.36160469055175781 0.20103244483470917 0.059373822063207626
0.38064101338386536 0.21079681813716888 0.067035399377346039
0.40065217018127441 0.22124055027961731 0.074672311544418335
0.42430964112281799 0.23455038666725159 0.084029175341129303
0.44688436388969421 0.24601820111274719 0.091653726994991302
0.47471913695335388 0.25700023770332336 0.096778444945812225
0.50033295154571533 0.26758065819740295 0.10238230228424072
0.52919012308120728 0.28330004215240479 0.11226150393486023
0.55581295490264893 0.29817923903465271 0.1218339279294014
0.57875913381576538 0.30981475114822388 0.12971495091915131
0.60350674390792847 0.3227863609790802 0.13812753558158875
0.62548643350601196 0.33591765165328979 0.14643783867359161
0.65094727277755737 0.35070574283599854 0.15571404993534088
0.67753034830093384 0.36581704020500183 0.16784760355949402
0.70543438196182251 0.37935259938240051 0.17778736352920532
0.73445612192153931 0.39137926697731018 0.18445603549480438
0.7623639702796936 0.4066430926322937 0.1950528621673584
0.78421056270599365 0.42222943902015686 0.20725229382514954
0.0016540312208235264 0.17017987370491028 0
0.015690118074417114 0.16232600808143616 0
0.067369990050792694 0.15031366050243378 0
0.13218587636947632 0.14116710424423218 0.00022774400713387877
0.17012661695480347 0.13713450729846954 0.0032569763716310263
0.18867515027523041 0.14034196734428406 0.0058760098181664944
0.20711274445056915 0.14771601557731628 0.010993491858243942
0.2243451327085495 0.15504960715770721 0.017875239253044128
0.24430903792381287 0.16285610198974609 0.022246383130550385
0.26327070593833923 0.17164607346057892 0.02750653401017189
0.28274059295654297 0.18168506026268005 0.034171011298894882
0.30253139138221741 0.19035139679908752 0.04549834132194519
0.32233738899230957 0.19879549741744995 0.055129695683717728
0.34464272856712341 0.21146692335605621 0.062073353677988052
0.36439990997314453 0.22182312607765198 0.068892046809196472
0.38454672694206238 0.23112902045249939 0.077488139271736145
0.40444213151931763 0.24048195779323578 0.085009478032588959
0.42783883213996887 0.25166529417037964 0.095088116824626923
0.4497743546962738 0.26280650496482849 0.10397797822952271
0.4741375744342804 0.27511793375015259 0.11247262358665466
0.49875554442405701 0.28475713729858398 0.11846736073493958
0.52662456035614014 0.2984079122543335 0.12744031846523285
0.55337369441986084 0.31347742676734924 0.13734064996242523
0.576549232006073 0.32559937238693237 0.14520741999149323
0.60229343175888062 0.33872100710868835 0.15473762154579163
0.62723797559738159 0.35207289457321167 0.16552871465682983
0.65329188108444214 0.36658704280853271 0.1751028299331665
0.67806535959243774 0.38142171502113342 0.18533910810947418
0.70569866895675659 0.39385291934013367 0.19305835664272308
0.73495203256607056 0.4035898745059967 0.19786478579044342
0.76230370998382568 0.41757696866989136 0.20758581161499023
0.78356868028640747 0.43221139907836914 0.22011768817901611
0.00075746199581772089 0.19746962189674377 0
0.0088151125237345695 0.19125582277774811 0
0.048401154577732086 0.182984858751297 0
0.1195262223482132 0.17481058835983276 0.00041923471144400537
0.17832408845424652 0.16816885769367218 0.0075473147444427013
0.20162153244018555 0.16840775310993195 0.012564315460622311
0.21986745297908783 0.17105010151863098 0.016696678474545479
0.23578667640686035 0.17784164845943451 0.024686271324753761
0.25310429930686951 0.18573123216629028 0.03084711916744709
0.2711641788482666 0.19305931031703949 0.035970814526081085
0.2905944287776947 0.20171329379081726 0.043240722268819809
0.30919688940048218 0.21026374399662018 0.053270179778337479
0.32693207263946533 0.21879616379737854 0.060663461685180664
0.34873199462890625 0.23143289983272552 0.068241186439990997
0.36918243765830994 0.24328945577144623 0.077355794608592987
0.39017969369888306 0.2526242733001709 0.086721532046794891
0.41057443618774414 0.26098752021789551 0.093823350965976715
0.43352344632148743 0.27033713459968567 0.10392408072948456
0.45527210831642151 0.28055253624916077 0.11395775526762009
0.47876852750778198 0.29326736927032471 0.12393176555633545
0.50118523836135864 0.30436128377914429 0.13346824049949646
0.52801406383514404 0.31761828064918518 0.14370734989643097
0.55388408899307251 0.33220767974853516 0.1537044495344162
0.5768929123878479 0.34443038702011108 0.16195589303970337
0.60254257917404175 0.35648104548454285 0.17111551761627197
0.62839174270629883 0.36902868747711182 0.18326972424983978
0.65482044219970703 0.38305225968360901 0.19456315040588379
0.67816317081451416 0.39769533276557922 0.20369447767734528
0.70400494337081909 0.41077306866645813 0.21146444976329803
0.73294031620025635 0.42022290825843811 0.21576827764511108
0.76255494356155396 0.43142378330230713 0.22328859567642212
0.78462314605712891 0.44542506337165833 0.23531469702720642
1.0126233064511325e-05 0.22633600234985352 0
0.0025190319865942001 0.22124700248241425 0
0.035666979849338531 0.21442759037017822 0
0.10715475678443909 0.207806795835495 0.000422100187279284
0.17231521010398865 0.20025873184204102 0.0097068166360259056
0.20690380036830902 0.19676439464092255 0.021765971556305885
0.22931535542011261 0.19726543128490448 0.028417635709047318
0.24631942808628082 0.20117492973804474 0.03681371733546257
0.26378777623176575 0.20752038061618805 0.042857177555561066
0.27976056933403015 0.21296215057373047 0.044938802719116211
0.29789274930953979 0.22074994444847107 0.051284249871969223
0.31611865758895874 0.23023714125156403 0.062986381351947784
0.33364665508270264 0.23862813413143158 0.070706203579902649
0.35350668430328369 0.24858766794204712 0.077145114541053772
0.37361046671867371 0.25997254252433777 0.086514636874198914
0.39685115218162537 0.27250844240188599 0.098082691431045532
0.41703677177429199 0.28114169836044312 0.10528039932250977
0.4363655149936676 0.28857666254043579 0.11180663853883743
0.45729759335517883 0.29885333776473999 0.12065871059894562
0.48374828696250916 0.31180974841117859 0.13092999160289764
0.50650870800018311 0.32359039783477783 0.1414950042963028
0.5320250391960144 0.33627310395240784 0.15436595678329468
0.55769973993301392 0.35059827566146851 0.16563691198825836
0.58133554458618164 0.36481204628944397 0.17652967572212219
0.60671347379684448 0.37628465890884399 0.18648868799209595
0.6309736967086792 0.38684290647506714 0.19755227863788605
0.65580976009368896 0.39953863620758057 0.20791137218475342
0.67777246236801147 0.41304782032966614 0.21362906694412231
0.70254898071289062 0.42674997448921204 0.22212360799312592
0.72953563928604126 0.43739810585975647 0.23200502991676331
0.76001584529876709 0.44856399297714233 0.24137979745864868
0.78456825017929077 0.45980268716812134 0.25040099024772644
0 0.25925126671791077 0
0.00018632541468832642 0.25463265180587769 0
0.015356319025158882 0.24872089922428131 0
0.079816550016403198 0.24275225400924683 6.0163234593346715e-05
0.1585458517074585 0.23568578064441681 0.0031920652836561203
0.20459333062171936 0.23033557832241058 0.013907525688409805
0.23755092918872833 0.22758227586746216 0.034990239888429642
0.2578587532043457 0.22995707392692566 0.049864728003740311
0.27582234144210815 0.2331794798374176 0.056700848042964935
0.29151338338851929 0.23674124479293823 0.057662773877382278
0.30786505341529846 0.24286921322345734 0.061617780476808548
0.32554090023040771 0.25237581133842468 0.073873043060302734
0.34363070130348206 0.26087352633476257 0.083494387567043304
0.36302754282951355 0.26955521106719971 0.09002048522233963
0.38063177466392517 0.27951082587242126 0.097797773778438568
0.40380442142486572 0.2932220995426178 0.10979681462049484
0.42585185170173645 0.30346468091011047 0.11894790083169937
0.44378948211669922 0.31003108620643616 0.12419380992650986
0.46160954236984253 0.31878188252449036 0.1303895115852356
0.48764237761497498 0.33239012956619263 0.14018118381500244
0.51165473461151123 0.34474006295204163 0.14947451651096344
0.536612868309021 0.35736709833145142 0.16288591921329498
0.56103956699371338 0.36982634663581848 0.17567697167396545
0.58522534370422363 0.38425818085670471 0.18808856606483459
0.60989373922348022 0.39629387855529785 0.19977568089962006
0.63284075260162354 0.40568649768829346 0.2101493626832962
0.65679895877838135 0.41720080375671387 0.21911352872848511
0.67836874723434448 0.43006542325019836 0.22294679284095764
0.7037007212638855 0.44393494725227356 0.23173564672470093
0.7298467755317688 0.4554210901260376 0.24530504643917084
0.75690227746963501 0.46806144714355469 0.2587030827999115
0.78167188167572021 0.47922512888908386 0.26695039868354797
0 0.29308828711509705 0
6.5700500272214413e-05 0.28877353668212891 0
0.007242211140692234 0.28295877575874329 0
0.050998300313949585 0.27791061997413635 0
0.13003186881542206 0.27078843116760254 2.8636639399337582e-05
0.19587475061416626 0.26380202174186707 0.0028151983860880136
0.2387116402387619 0.25997394323348999 0.026625541970133781
0.26694536209106445 0.26007530093193054 0.058138951659202576
0.28746858239173889 0.26123791933059692 0.070808939635753632
0.30397814512252808 0.2621510922908783 0.072796210646629333
0.32065290212631226 0.26672056317329407 0.076497964560985565
0.33771553635597229 0.27430823445320129 0.08431592583656311
0.35538023710250854 0.28215178847312927 0.092934630811214447
0.37721875309944153 0.29247215390205383 0.1027027815580368
0.3950100839138031 0.30296045541763306 0.110857293009758
0.41445434093475342 0.3158842921257019 0.12222647666931152
0.4354986846446991 0.32566127181053162 0.13200443983078003
0.45611512660980225 0.33210086822509766 0.13926531374454498
0.47352179884910583 0.34067344665527344 0.14577457308769226
0.4930674135684967 0.35224083065986633 0.15365864336490631
0.51474893093109131 0.36448842287063599 0.16185763478279114
0.54020828008651733 0.37916380167007446 0.17468719184398651
0.56481021642684937 0.39132991433143616 0.18739914894104004
0.589530348777771 0.40330499410629272 0.19821445643901825
0.6137537956237793 0.41449332237243652 0.20863661170005798
0.63386988639831543 0.42281636595726013 0.21656009554862976
0.65734052658081055 0.4336000382900238 0.22511698305606842
0.68043923377990723 0.44514161348342896 0.23298084735870361
0.70669090747833252 0.45889738202095032 0.24306023120880127
0.73237550258636475 0.47202238440513611 0.25397017598152161
0.7580382227897644 0.48612129688262939 0.26671916246414185
0.78291803598403931 0.50040799379348755 0.27896913886070251
0 0.32851356267929077 0
9.281207894673571e-06 0.32453495264053345 0
0.0037377320695668459 0.31867635250091553 0
0.035188645124435425 0.31453487277030945 0
0.10103203356266022 0.30910244584083557 0
0.17676852643489838 0.30132800340652466 0.00081933970795944333
0.23746240139007568 0.29405039548873901 0.020706044510006905
0.2714293897151947 0.29216817021369934 0.059593319892883301
0.29825130105018616 0.29222708940505981 0.087457440793514252
0.31649798154830933 0.29246565699577332 0.09242674708366394
0.33546411991119385 0.29529973864555359 0.095747187733650208
0.35395762324333191 0.30150529742240906 0.10035350173711777
0.3701978325843811 0.3074442446231842 0.10500872135162354
0.39207780361175537 0.31766635179519653 0.11521666496992111
0.4110696017742157 0.3282315731048584 0.12481548637151718
0.42816084623336792 0.3401610255241394 0.13609874248504639
0.44529843330383301 0.34961241483688354 0.1457228809595108
0.46658122539520264 0.35623547434806824 0.15353313088417053
0.48744627833366394 0.36442404985427856 0.16163595020771027
0.5048835277557373 0.37517410516738892 0.16945865750312805
0.52104157209396362 0.3860851526260376 0.17629939317703247
0.54544061422348022 0.4009949266910553 0.18871223926544189
0.57052743434906006 0.41500991582870483 0.20151741802692413
0.59558820724487305 0.42607390880584717 0.21163889765739441
0.62055480480194092 0.4363216757774353 0.21996554732322693
0.63957256078720093 0.44419223070144653 0.22606533765792847
0.66139435768127441 0.45392903685569763 0.23361921310424805
0.6854778528213501 0.46384578943252563 0.2434765100479126
0.71087807416915894 0.47595980763435364 0.2553962767124176
0.73549842834472656 0.48985704779624939 0.26394194364547729
0.76129043102264404 0.50467664003372192 0.27494433522224426
0.78662216663360596 0.51974105834960938 0.28966554999351501
0 0.36233004927635193 0
0 0.36002671718597412 0
0.00011691162944771349 0.35516050457954407 0
0.0091691296547651291 0.35211032629013062 0
0.06444946676492691 0.34758517146110535 0
0.15967994928359985 0.3393804132938385 0.00075368647230789065
0.23546352982521057 0.33077409863471985 0.021237727254629135
0.27739134430885315 0.32522490620613098 0.069367073476314545
0.30854842066764832 0.32396996021270752 0.10574974864721298
0.32806593179702759 0.32537814974784851 0.115603968501091
0.34793677926063538 0.32807064056396484 0.11932877451181412
0.37067556381225586 0.33370408415794373 0.12214804440736771
0.38781869411468506 0.33866384625434875 0.12549839913845062
0.4065881073474884 0.34365186095237732 0.13120371103286743
0.42416301369667053 0.35154670476913452 0.13915461301803589
0.44051247835159302 0.36314660310745239 0.15015482902526855
0.45677176117897034 0.37242087721824646 0.1592928022146225
0.47532334923744202 0.37897992134094238 0.1642293781042099
0.49692317843437195 0.38740739226341248 0.17209906876087189
0.5202067494392395 0.39937868714332581 0.18400098383426666
0.53711748123168945 0.41010519862174988 0.19200018048286438
0.55680984258651733 0.42329370975494385 0.20218032598495483
0.57985442876815796 0.43633291125297546 0.21422815322875977
0.60296839475631714 0.44768199324607849 0.22546976804733276
0.62775838375091553 0.45837977528572083 0.23422561585903168
0.64850270748138428 0.46916863322257996 0.24212250113487244
0.67090070247650146 0.47924506664276123 0.24989454448223114
0.69322466850280762 0.48691967129707336 0.25597703456878662
0.7172853946685791 0.4982096254825592 0.26631608605384827
0.74199700355529785 0.51283931732177734 0.27724635601043701
0.76815336942672729 0.5271182656288147 0.28934174776077271
0.7927667498588562 0.53909361362457275 0.3042653501033783
0 0.39380225539207458 0
0 0.39223569631576538 0
0 0.38916110992431641 0
0.0010995499324053526 0.38620743155479431 0
0.033230919390916824 0.3825339674949646 0
0.12872302532196045 0.37468358874320984 0.00014661853492725641
0.22531266510486603 0.36533290147781372 0.010008410550653934
0.27544882893562317 0.35881677269935608 0.055072851479053497
0.3156159520149231 0.35486581921577454 0.11361048370599747
0.33851766586303711 0.35588458180427551 0.13439925014972687
0.35794878005981445 0.35881340503692627 0.13928927481174469
0.3813537061214447 0.36382243037223816 0.14197537302970886
0.40200001001358032 0.36818256974220276 0.14501582086086273
0.42078572511672974 0.37111732363700867 0.14905871450901031
0.43693479895591736 0.37520095705986023 0.15434493124485016
0.45390576124191284 0.38550716638565063 0.16486722230911255
0.46972578763961792 0.39613264799118042 0.17509594559669495
0.48751440644264221 0.40352171659469604 0.1797044426202774
0.50616729259490967 0.41041070222854614 0.18383534252643585
0.53014779090881348 0.42140349745750427 0.19529654085636139
0.54993218183517456 0.43100491166114807 0.20549841225147247
0.56891441345214844 0.44275948405265808 0.21506065130233765
0.58972561359405518 0.4551832377910614 0.22535507380962372
0.61184889078140259 0.46642675995826721 0.23636379837989807
0.63558697700500488 0.47856554388999939 0.24764828383922577
0.6568724513053894 0.4909108579158783 0.25685340166091919
0.67957431077957153 0.50321125984191895 0.266304612159729
0.70114290714263916 0.51091194152832031 0.27191120386123657
0.72382402420043945 0.52090030908584595 0.27883380651473999
0.74860531091690063 0.53534215688705444 0.28988951444625854
