LUTs/Fuji Provia 400F.cube
# Created by: G'MIC (https://gmic.eu)
TITLE "Fuji Provia 400F"
# LUT size
LUT_3D_SIZE 32
# Data domain
DOMAIN_MIN 0.0 0.0 0.0
DOMAIN_MAX 1.0 1.0 1.0
# LUT data points
0.0035128695890307426 0.0037637327332049608 0.0030508190393447876
0.011021188460290432 0.0035917407367378473 0.0019207026343792677
0.02214212529361248 0.0032321722246706486 0.0011490980396047235
0.036883171647787094 0.0026067639701068401 0.00051370746223255992
0.054761484265327454 0.002280600368976593 0.00017831953300628811
0.073406301438808441 0.002204827731475234 4.1404462535865605e-05
0.096189253032207489 0.0022035164292901754 3.7737515867775073e-07
0.12438841909170151 0.0022788390051573515 0
0.15732032060623169 0.0029742075130343437 0
0.19117733836174011 0.0043553337454795837 0
0.22718638181686401 0.0050122598186135292 0
0.26511278748512268 0.007496541365981102 0
0.30041635036468506 0.010325653478503227 0
0.34010979533195496 0.013243086636066437 0
0.37649902701377869 0.016093447804450989 0
0.41421866416931152 0.019672470167279243 0
0.44962331652641296 0.024355484172701836 0
0.48571589589118958 0.02890835702419281 0
0.51847583055496216 0.03341187909245491 0
0.55369478464126587 0.038790997117757797 0
0.58558416366577148 0.043827943503856659 0
0.61915373802185059 0.049377512186765671 0
0.65111589431762695 0.054510664194822311 0
0.67960399389266968 0.059111375361680984 0
0.70833247900009155 0.063135549426078796 0
0.73494201898574829 0.067260637879371643 0
0.76177680492401123 0.072054848074913025 0
0.78691709041595459 0.075633935630321503 0
0.81325811147689819 0.078830145299434662 0
0.83895003795623779 0.082285791635513306 0
0.86538219451904297 0.08565790206193924 0
0.88782960176467896 0.08878672868013382 0
0.0084975417703390121 0.014205665327608585 0.0084001850336790085
0.016026034951210022 0.013574589975178242 0.0065707694739103317
0.028365243226289749 0.012565920129418373 0.0049791410565376282
0.044459454715251923 0.011856354773044586 0.0035025477409362793
0.062605142593383789 0.011587954126298428 0.0023053952027112246
0.081113457679748535 0.011430264450609684 0.0012619398767128587
0.10473558306694031 0.011316682212054729 0.00039727758849039674
0.13313773274421692 0.011522027663886547 5.3525687690125778e-05
0.16554634273052216 0.011920269578695297 3.1908143682812806e-07
0.19849690794944763 0.012747437693178654 0
0.23370717465877533 0.013610414229333401 0
0.2702784538269043 0.014484992250800133 0
0.30479058623313904 0.015665590763092041 0
0.34313797950744629 0.016554001718759537 0
0.37788650393486023 0.017242230474948883 0
0.41470405459403992 0.019642520695924759 0
0.44963830709457397 0.023547209799289703 0
0.48528185486793518 0.027771852910518646 0
0.51788538694381714 0.031996641308069229 0
0.55281358957290649 0.037476684898138046 0
0.58478391170501709 0.04224095493555069 0
0.61807930469512939 0.047729868441820145 0
0.64974206686019897 0.052878726273775101 0
0.67813950777053833 0.057497456669807434 0
0.70660918951034546 0.061476640403270721 0
0.73300075531005859 0.065423890948295593 0
0.7596394419670105 0.070171132683753967 0
0.78480452299118042 0.073916412889957428 0
0.81091678142547607 0.07695905864238739 0
0.83639389276504517 0.080088391900062561 0
0.8625633716583252 0.083373919129371643 0
0.88481354713439941 0.08623909205198288 0
0.016177274286746979 0.031225478276610374 0.015922585502266884
0.023310370743274689 0.03007393516600132 0.013849737122654915
0.03484523668885231 0.028116300702095032 0.011396369896829128
0.051138509064912796 0.027509149163961411 0.0093876225873827934
0.069788418710231781 0.027212848886847496 0.0071657500229775906
0.088686190545558929 0.027037076652050018 0.0053581497631967068
0.11330286413431168 0.027015602216124535 0.0031288079917430878
0.14206278324127197 0.027177413925528526 0.0013124705292284489
0.17468155920505524 0.027434399351477623 0.00021143184858374298
0.20717211067676544 0.028049208223819733 7.2581437962071504e-06
0.24251046776771545 0.030088469386100769 0
0.27906647324562073 0.031185168772935867 0
0.31260228157043457 0.031416207551956177 0
0.35024911165237427 0.031385097652673721 0
0.38412389159202576 0.031177839264273643 0
0.4190652072429657 0.029521746560931206 0
0.45194429159164429 0.028910418972373009 0
0.48621487617492676 0.029297690838575363 0
0.51801979541778564 0.031444363296031952 0
0.55270504951477051 0.036341119557619095 0
0.58434820175170898 0.041130151599645615 0
0.61753243207931519 0.046448282897472382 0
0.6489255428314209 0.051487267017364502 0
0.67693108320236206 0.055934343487024307 0
0.70539069175720215 0.060017462819814682 0
0.73158901929855347 0.063833698630332947 0
0.75819456577301025 0.068470865488052368 0
0.78311997652053833 0.072171755135059357 0
0.80895465612411499 0.075128376483917236 0
0.83424121141433716 0.078232400119304657 0
0.86013334989547729 0.081370972096920013 0
0.88219648599624634 0.084022842347621918 0
0.026808347553014755 0.05293729156255722 0.026529297232627869
0.034070614725351334 0.051709134131669998 0.023944905027747154
0.044221650809049606 0.050309367477893829 0.02110680378973484
0.058659408241510391 0.048835381865501404 0.018052710220217705
0.076994329690933228 0.047776509076356888 0.01501946896314621
0.096598118543624878 0.047288637608289719 0.012144804932177067
0.12252514064311981 0.047077160328626633 0.0086390981450676918
0.15147681534290314 0.047349408268928528 0.0053625875152647495
0.18471308052539825 0.048069138079881668 0.0024204722139984369
0.21631103754043579 0.04889349639415741 0.00078430649591609836
0.25096678733825684 0.049884453415870667 5.534052979783155e-05
0.28672671318054199 0.050908830016851425 4.6308994683386118e-07
0.32083246111869812 0.051784481853246689 0
0.35780319571495056 0.051649883389472961 0
0.39110112190246582 0.050279170274734497 0
0.42559200525283813 0.048842500895261765 0
0.45791378617286682 0.046969123184680939 0
0.49091002345085144 0.043393570929765701 0
0.52100449800491333 0.040406830608844757 0
0.55410504341125488 0.038997296243906021 0
0.58429694175720215 0.040713675320148468 0
0.61706650257110596 0.045160040259361267 0
0.64836776256561279 0.049970377236604691 0
0.67600923776626587 0.054385453462600708 0
0.70421719551086426 0.058502014726400375 0
0.73029017448425293 0.062123961746692657 0
0.75664591789245605 0.066619671881198883 0
0.78131735324859619 0.070338502526283264 0
0.80697381496429443 0.073188155889511108 0
0.8320239782333374 0.076170884072780609 0
0.85762691497802734 0.079141892492771149 0
0.87941789627075195 0.081635080277919769 0
0.041210327297449112 0.078370906412601471 0.040735259652137756
0.047926191240549088 0.07692323625087738 0.038073703646659851
0.05726907029747963 0.075170449912548065 0.034561481326818466
0.068990565836429596 0.073416776955127716 0.030633475631475449
0.085021801292896271 0.071975104510784149 0.026395797729492188
0.10567473620176315 0.070984847843647003 0.022187087684869766
0.13304212689399719 0.07038000226020813 0.016872478649020195
0.16188439726829529 0.070327319204807281 0.012187028303742409
0.19487676024436951 0.070610970258712769 0.00762187410145998
0.2260957658290863 0.070833750069141388 0.0041169775649905205
0.26043117046356201 0.071056343615055084 0.0012856768444180489
0.29567870497703552 0.071295104920864105 0.00014933675993233919
0.32956200838088989 0.071427226066589355 5.1256290589662967e-07
0.36643043160438538 0.070861496031284332 0
0.39875492453575134 0.070527590811252594 0
0.43240797519683838 0.067963212728500366 0
0.46433353424072266 0.066109098494052887 0
0.49717634916305542 0.062790200114250183 0
0.52664124965667725 0.058499455451965332 0
0.55856579542160034 0.053406555205583572 0
0.58683234453201294 0.048418276011943817 0
0.61751812696456909 0.046124249696731567 0
0.64766997098922729 0.048591464757919312 0
0.67514616250991821 0.052608262747526169 0
0.70301538705825806 0.056695859879255295 0
0.72876489162445068 0.060166005045175552 0
0.75502544641494751 0.064536921679973602 0
0.77930980920791626 0.068086706101894379 0
0.80475640296936035 0.070900298655033112 0
0.82962465286254883 0.073829047381877899 0
0.85495543479919434 0.076610945165157318 0
0.87649047374725342 0.078814975917339325 0
0.058413062244653702 0.10844527930021286 0.058723006397485733
0.064323596656322479 0.10682211816310883 0.056217439472675323
0.073083356022834778 0.1047775074839592 0.052386675029993057
0.083205200731754303 0.10261360555887222 0.048052605241537094
0.096541300415992737 0.10061691701412201 0.043102853000164032
0.11667978763580322 0.09888826310634613 0.037310350686311722
0.14506164193153381 0.097606629133224487 0.03008006326854229
0.17364753782749176 0.096820048987865448 0.023488549515604973
0.20592637360095978 0.09573325514793396 0.016840428113937378
0.23648293316364288 0.095091812312602997 0.011407059617340565
0.27031081914901733 0.094461224973201752 0.0064437538385391235
0.30582281947135925 0.094034500420093536 0.0027077991981059313
0.33892178535461426 0.09342019259929657 0.00070522079477086663
0.3748946487903595 0.091743715107440948 6.5098567574750632e-05
0.40617626905441284 0.089954867959022522 6.2416472701443126e-07
0.43939688801765442 0.087703995406627655 0
0.47089049220085144 0.084718726575374603 0
0.50327038764953613 0.080935634672641754 0
0.5324934720993042 0.076950967311859131 0
0.56409680843353271 0.071725793182849884 0
0.59195220470428467 0.0661301389336586 0
0.62122976779937744 0.059549629688262939 0
0.64914584159851074 0.053824204951524734 0
0.67482978105545044 0.052402157336473465 0
0.70199352502822876 0.05491628497838974 0
0.72738265991210938 0.058182120323181152 0
0.75332760810852051 0.062351826578378677 0
0.77738696336746216 0.065829701721668243 0
0.80254286527633667 0.068453170359134674 0
0.82713401317596436 0.071156926453113556 0
0.85215198993682861 0.073892116546630859 0
0.87356561422348022 0.075957998633384705 0
0.07935979962348938 0.14708511531352997 0.081424079835414886
0.085023991763591766 0.14555652439594269 0.078873276710510254
0.092642337083816528 0.14347569644451141 0.075450144708156586
0.10225126892328262 0.14138808846473694 0.071271270513534546
0.11468389630317688 0.13914050161838531 0.065991908311843872
0.1325015127658844 0.13675375282764435 0.05911644920706749
0.15894278883934021 0.13457462191581726 0.050761759281158447
0.18767645955085754 0.13275201618671417 0.042626071721315384
0.21947492659091949 0.13016189634799957 0.033521126955747604
0.24921651184558868 0.12832140922546387 0.025364771485328674
0.28246024250984192 0.12568821012973785 0.017495471984148026
0.31784102320671082 0.123631551861763 0.010626655071973801
0.35027617216110229 0.12144950777292252 0.0055527118965983391
0.38494160771369934 0.11828937381505966 0.0019375821575522423
0.41568908095359802 0.11525202542543411 0.00035247328924015164
0.44776788353919983 0.11135283857584 2.6497486032894813e-05
0.47871214151382446 0.10733205080032349 0
0.51051324605941772 0.10280267894268036 0
0.53925496339797974 0.098201699554920197 0
0.57049286365509033 0.092672258615493774 0
0.5979042649269104 0.08659692108631134 0
0.62669730186462402 0.079918637871742249 0
0.65361279249191284 0.071387574076652527 0
0.67706948518753052 0.062822096049785614 0
0.70175856351852417 0.056321162730455399 0
0.72600251436233521 0.05616556853055954 0
0.75156235694885254 0.059977728873491287 0
0.77526021003723145 0.063167333602905273 0
0.80010706186294556 0.06562468409538269 0
0.82450711727142334 0.068098239600658417 0
0.84930461645126343 0.070875443518161774 0
0.87057679891586304 0.072875410318374634 0
0.098611526191234589 0.18467353284358978 0.10279932618141174
0.10383649170398712 0.1836276650428772 0.10075603425502777
0.1112339198589325 0.18212854862213135 0.097778551280498505
0.1211005225777626 0.18054616451263428 0.093953393399715424
0.13473165035247803 0.17864485085010529 0.088637344539165497
0.15256465971469879 0.17660237848758698 0.081806443631649017
0.17448620498180389 0.17471411824226379 0.074128501117229462
0.20176756381988525 0.17255581915378571 0.066001072525978088
0.23281590640544891 0.16977353394031525 0.056599773466587067
0.26258975267410278 0.1666683554649353 0.047072045505046844
0.29584589600563049 0.16302883625030518 0.036412514746189117
0.33078745007514954 0.1591809093952179 0.026284441351890564
0.36252710223197937 0.15522703528404236 0.017905648797750473
0.39655765891075134 0.15025237202644348 0.010797423310577869
0.42603063583374023 0.14541515707969666 0.0056793908588588238
0.45707449316978455 0.13933438062667847 0.0023090334143489599
0.48722991347312927 0.13281944394111633 0.00054169551003724337
0.51833206415176392 0.12615256011486053 4.7962363169062883e-05
0.54640799760818481 0.12023480236530304 7.9214271409000503e-07
0.57687145471572876 0.11348441988229752 0
0.60373318195343018 0.10676806420087814 0
0.63204783201217651 0.099190562963485718 0
0.65860003232955933 0.090604029595851898 0
0.6815832257270813 0.081850722432136536 0
0.7049364447593689 0.070599593222141266 0
0.7266266942024231 0.061224233359098434 0
0.75013744831085205 0.058884758502244949 0
0.77340269088745117 0.060740727931261063 0
0.79783862829208374 0.063014380633831024 0
0.82206946611404419 0.065189734101295471 0
0.84674829244613647 0.067890450358390808 0
0.86795520782470703 0.070049524307250977 0
0.10263628512620926 0.22517292201519012 0.12408404052257538
0.10829030722379684 0.22451534867286682 0.12251246720552444
0.11724981665611267 0.22353188693523407 0.11975003778934479
0.12997226417064667 0.2223021537065506 0.11591566354036331
0.14702792465686798 0.2209371030330658 0.11061915010213852
0.16589896380901337 0.21963022649288177 0.1046350970864296
0.18890267610549927 0.21802686154842377 0.097720734775066376
0.2164379209280014 0.2163512259721756 0.090377025306224823
0.24697314202785492 0.21421593427658081 0.081968456506729126
0.27701377868652344 0.21149809658527374 0.072970025241374969
0.31073462963104248 0.20776824653148651 0.062272228300571442
0.34556177258491516 0.20349760353565216 0.050909001380205154
0.37705236673355103 0.19894962012767792 0.040433976799249649
0.41006019711494446 0.19310925900936127 0.029819406569004059
0.43869605660438538 0.18672199547290802 0.021071568131446838
0.46909958124160767 0.17819194495677948 0.012934581376612186
0.49827820062637329 0.16906607151031494 0.0067830798216164112
0.52816075086593628 0.15905912220478058 0.0024449825286865234
0.55554944276809692 0.14995069801807404 0.00058155064471065998
0.58494800329208374 0.14053003489971161 3.1843577744439244e-05
0.61086952686309814 0.13146807253360748 0
0.6385345458984375 0.12223130464553833 0
0.66429257392883301 0.11271896958351135 0
0.68686777353286743 0.10373470932245255 0
0.70965790748596191 0.091965541243553162 0
0.73044073581695557 0.080074705183506012 0
0.75132924318313599 0.067508809268474579 0
0.77194869518280029 0.060144931077957153 0
0.79562139511108398 0.060254156589508057 0
0.81968849897384644 0.062148988246917725 0
0.8443266749382019 0.064779147505760193 0
0.86542260646820068 0.066895261406898499 0
0.10629542917013168 0.26518699526786804 0.14548312127590179
0.11101413518190384 0.26451495289802551 0.14381171762943268
0.11903089284896851 0.26383835077285767 0.1409124881029129
0.13207338750362396 0.26301172375679016 0.13720475137233734
0.15040014684200287 0.26191410422325134 0.13225658237934113
0.17265132069587708 0.26080131530761719 0.12706111371517181
0.20129640400409698 0.25964289903640747 0.12071733921766281
0.22981467843055725 0.25802052021026611 0.11397882550954819
0.26077219843864441 0.25600045919418335 0.10624796897172928
0.29084664583206177 0.25372993946075439 0.098167985677719116
0.32459807395935059 0.25059166550636292 0.088333338499069214
0.35947775840759277 0.24679790437221527 0.077787980437278748
0.39033940434455872 0.24285577237606049 0.067953914403915405
0.42287972569465637 0.23735536634922028 0.056841075420379639
0.45120149850845337 0.23120412230491638 0.046553388237953186
0.48144662380218506 0.22279693186283112 0.035126637667417526
0.51026016473770142 0.21300974488258362 0.024962630122900009
0.53974390029907227 0.20117762684822083 0.015742279589176178
0.56629586219787598 0.18920788168907166 0.0088170068338513374
0.59469187259674072 0.1759837418794632 0.0037608442362397909
0.61952513456344604 0.16331802308559418 0.0013511814177036285
0.6459810733795166 0.15026326477527618 0.00026207248447462916
0.67070269584655762 0.13818614184856415 2.1666799511876889e-05
0.69245803356170654 0.12711487710475922 0
0.71480202674865723 0.11433600634336472 0
0.7351609468460083 0.10189267247915268 0
0.75553172826766968 0.088088572025299072 0
0.77426630258560181 0.073378570377826691 0
0.79494780302047729 0.062281068414449692 0
0.81778579950332642 0.059729963541030884 0
0.84235817193984985 0.06197788193821907 0
0.86336606740951538 0.063981607556343079 0
0.10050515830516815 0.30969920754432678 0.16886100172996521
0.10775557160377502 0.30917173624038696 0.16699732840061188
0.11954652518033981 0.30869230628013611 0.164200559258461
0.13682796061038971 0.30812367796897888 0.1608264297246933
0.16018545627593994 0.30721005797386169 0.15676411986351013
0.18716932833194733 0.30639857053756714 0.15194408595561981
0.2163807600736618 0.30502375960350037 0.14607220888137817
0.24452723562717438 0.30376559495925903 0.14008073508739471
0.27559992671012878 0.30181404948234558 0.1327204704284668
0.30595684051513672 0.29992994666099548 0.12533482909202576
0.33957836031913757 0.29723864793777466 0.11660483479499817
0.37386712431907654 0.29391053318977356 0.10707058757543564
0.40393939614295959 0.29031959176063538 0.098393477499485016
0.43593743443489075 0.2849428653717041 0.087927438318729401
0.4639948308467865 0.27902016043663025 0.078574769198894501
0.49408271908760071 0.27127039432525635 0.067704044282436371
0.52301013469696045 0.26241087913513184 0.056433651596307755
0.55273866653442383 0.25137999653816223 0.04399518296122551
0.57922506332397461 0.23940618336200714 0.032854616641998291
0.60718339681625366 0.22443294525146484 0.021775417029857635
0.6312706470489502 0.21047347784042358 0.013366534374654293
0.65635496377944946 0.19251240789890289 0.0066586281172931194
0.679645836353302 0.17494100332260132 0.0024767795111984015
0.70011609792709351 0.15915000438690186 0.00064772029872983694
0.72151345014572144 0.14260499179363251 0.00013596280768979341
0.74110537767410278 0.12845171988010406 7.408653345919447e-06
0.76104891300201416 0.11335911601781845 0
0.77960813045501709 0.097750388085842133 0
0.7984774112701416 0.079382143914699554 0
0.817757248878479 0.063648156821727753 0
0.84050220251083374 0.059544123709201813 0
0.86150312423706055 0.061220802366733551 0
0.10259737074375153 0.35322916507720947 0.19146181643009186
0.11490224301815033 0.35310313105583191 0.18988639116287231
0.13117346167564392 0.35285553336143494 0.1875571608543396
0.15214861929416656 0.35216563940048218 0.1846512109041214
0.17695087194442749 0.35172262787818909 0.18085254728794098
0.20320551097393036 0.35129842162132263 0.17669472098350525
0.23115544021129608 0.35045978426933289 0.17167393863201141
0.25937235355377197 0.34956285357475281 0.16596858203411102
0.29034861922264099 0.34833443164825439 0.15941151976585388
0.32091784477233887 0.34656405448913574 0.15240207314491272
0.3544238805770874 0.34463217854499817 0.14458377659320831
0.38781014084815979 0.34182420372962952 0.13622313737869263
0.41714379191398621 0.33871424198150635 0.12854553759098053
0.44840702414512634 0.333697110414505 0.11942902207374573
0.4763159453868866 0.32784044742584229 0.11057311296463013
0.50625807046890259 0.32034850120544434 0.10071916133165359
0.53535908460617065 0.31191933155059814 0.090441539883613586
0.56514614820480347 0.30151724815368652 0.079089254140853882
0.59182679653167725 0.29068562388420105 0.068112201988697052
0.61961495876312256 0.27730247378349304 0.05581795796751976
0.64393573999404907 0.26361998915672302 0.044466372579336166
0.66895729303359985 0.24715316295623779 0.032462511211633682
0.69167178869247437 0.22679455578327179 0.021185733377933502
0.71129906177520752 0.2068297415971756 0.012592693790793419
0.73114013671875 0.18379119038581848 0.0060272216796875
0.74946898221969604 0.16378018260002136 0.0022073374129831791
0.76825904846191406 0.14399385452270508 0.00041481747757643461
0.78626894950866699 0.12613129615783691 2.739929550443776e-05
0.80474144220352173 0.10653997212648392 0
0.82256287336349487 0.085734464228153229 0
0.84125208854675293 0.065466791391372681 0
0.86009150743484497 0.059171982109546661 0
0.13321065902709961 0.38986426591873169 0.21329224109649658
0.1431150883436203 0.38987863063812256 0.21186883747577667
0.15676100552082062 0.38990440964698792 0.20974321663379669
0.17418681085109711 0.3898608386516571 0.20694057643413544
0.19479829072952271 0.38985428214073181 0.20353730022907257
0.21768023073673248 0.38956710696220398 0.19969567656517029
0.24535636603832245 0.38899824023246765 0.19463050365447998
0.27297744154930115 0.38850194215774536 0.18907429277896881
0.30397331714630127 0.3878975510597229 0.18276970088481903
0.33433642983436584 0.38673296570777893 0.17627792060375214
0.36737337708473206 0.38499897718429565 0.16899107396602631
0.39991021156311035 0.38331350684165955 0.16145095229148865
0.42858299612998962 0.38075393438339233 0.1544044017791748
0.45916777849197388 0.37652871012687683 0.14659492671489716
0.48668861389160156 0.37185171246528625 0.13917279243469238
0.51673555374145508 0.36503097414970398 0.13026668131351471
0.54603332281112671 0.35754269361495972 0.12087037414312363
0.575886070728302 0.34826433658599854 0.11083228886127472
0.60266351699829102 0.33803507685661316 0.10096106678247452
0.63078600168228149 0.32559165358543396 0.089212954044342041
0.65500009059906006 0.31247285008430481 0.078512676060199738
0.68021667003631592 0.29744890332221985 0.066570982336997986
0.70331710577011108 0.2789304256439209 0.053454753011465073
0.7232545018196106 0.25912827253341675 0.041052807122468948
0.74275314807891846 0.2351493239402771 0.027701696380972862
0.76025259494781494 0.21026715636253357 0.01671912707388401
0.77771753072738647 0.18343617022037506 0.0081791747361421585
0.79415398836135864 0.15880177915096283 0.0029781158082187176
0.81168460845947266 0.13549371063709259 0.00067700212821364403
0.82897472381591797 0.11296944320201874 9.7039694082923234e-05
0.84620338678359985 0.087578296661376953 3.7185632209002506e-06
0.86137276887893677 0.066659219563007355 0
0.15554222464561462 0.42894977331161499 0.23843458294868469
0.16370321810245514 0.42904239892959595 0.23709411919116974
0.17616924643516541 0.42922559380531311 0.23532126843929291
0.19244912266731262 0.42919671535491943 0.2329513281583786
0.21264152228832245 0.42929527163505554 0.22987149655818939
0.23563630878925323 0.42928701639175415 0.22614277899265289
0.26226076483726501 0.42907729744911194 0.22162319719791412
0.28971579670906067 0.42896384000778198 0.21646174788475037
0.32035711407661438 0.42862960696220398 0.21055273711681366
0.34980848431587219 0.4281141459941864 0.20424136519432068
0.38136601448059082 0.42726260423660278 0.19697478413581848
0.41264635324478149 0.4256502091884613 0.18967412412166595
0.4402773380279541 0.4241032600402832 0.18286155164241791
0.4701974093914032 0.42106446623802185 0.17535488307476044
0.49768224358558655 0.41744890809059143 0.16840142011642456
0.52800875902175903 0.41249683499336243 0.16039681434631348
0.55743801593780518 0.40670737624168396 0.15225896239280701
0.58750319480895996 0.39921370148658752 0.14345502853393555
0.6144065260887146 0.39086735248565674 0.13499391078948975
0.64276087284088135 0.38077685236930847 0.12523232400417328
0.66707861423492432 0.36918288469314575 0.11591169983148575
0.69241660833358765 0.35474547743797302 0.10518503189086914
0.7158581018447876 0.33785122632980347 0.093525484204292297
0.73627299070358276 0.31988739967346191 0.08160603791475296
0.75654536485671997 0.2982667088508606 0.06822696328163147
0.77450776100158691 0.27473956346511841 0.054513264447450638
0.79198700189590454 0.24596773087978363 0.038999371230602264
0.80724591016769409 0.21524453163146973 0.024831358343362808
0.82264488935470581 0.18220765888690948 0.012957635335624218
