LUTs/Fuji Velvia 50.cube
# Created by: G'MIC (https://gmic.eu)
TITLE "Fuji Velvia 50"
# LUT size
LUT_3D_SIZE 5
# Data domain
# LUT data points
DOMAIN_MIN 0.000000 0.000000 0.000000
DOMAIN_MAX 0.903226 0.903226 0.903226
0.0015642475336790085 0.0015119005693122745 0.00088280183263123035
0.1331794261932373 0 0.0010796419810503721
0.40394648909568787 0 0.0010874103754758835
0.64843320846557617 0 0.00029258729773573577
0.87174296379089355 0 0
0.032613363116979599 0.16755452752113342 0.016906382516026497
0.14861705899238586 0.1470513641834259 0.016966685652732849
0.41135114431381226 0.10362841188907623 0.016427477821707726
0.65407693386077881 0.053253676742315292 0.012256111018359661
0.8759235143661499 0.011194994673132896 0.0055931867100298405
0 0.44401371479034424 0.056989409029483795
0.11574298888444901 0.42984345555305481 0.057546045631170273
0.39927768707275391 0.40178504586219788 0.05589853972196579
0.65482646226882935 0.36453181505203247 0.047042336314916611
0.88178706169128418 0.32406133413314819 0.029665175825357437
0 0.69955527782440186 0.097928412258625031
0.0086928149685263634 0.69116216897964478 0.1001678928732872
0.3691631555557251 0.67002958059310913 0.10053566843271255
0.63792926073074341 0.64112365245819092 0.093949243426322937
0.87850850820541382 0.60770183801651001 0.069731160998344421
0 0.94375854730606079 0.14371451735496521
0 0.93726074695587158 0.14284686744213104
0.31404784321784973 0.92169588804244995 0.13878507912158966
0.60658973455429077 0.9001537561416626 0.12158466130495071
0.86737960577011108 0.87124478816986084 0.050248578190803528
0.0016333711100742221 0.0014743609353899956 0.085796929895877838
0.13091571629047394 0 0.085974700748920441
0.40509426593780518 0 0.083485871553421021
0.65298581123352051 0 0.071547269821166992
0.87870550155639648 0 0.048250205814838409
0.031830102205276489 0.16416333615779877 0.14324858784675598
0.14764650166034698 0.14383968710899353 0.14408336579799652
0.41297250986099243 0.10012419521808624 0.14297853410243988
0.65931165218353271 0.049382574856281281 0.12957292795181274
0.88234132528305054 0.0090429810807108879 0.098005421459674835
0 0.4478515088558197 0.20173119008541107
0.11405031383037567 0.43127673864364624 0.20369966328144073
0.40134748816490173 0.40307912230491638 0.20450173318386078
0.6581229567527771 0.36554497480392456 0.19581939280033112
0.88635510206222534 0.32476633787155151 0.1690499484539032
0 0.7015196681022644 0.25464478135108948
0.0052570998668670654 0.69299894571304321 0.25567305088043213
0.37043464183807373 0.67218858003616333 0.25563344359397888
0.64093077182769775 0.64328247308731079 0.25008159875869751
0.88241302967071533 0.60913527011871338 0.22683514654636383
0 0.94544422626495361 0.29797101020812988
0 0.94052612781524658 0.29835879802703857
0.31174051761627197 0.92473411560058594 0.2992672324180603
0.60789203643798828 0.90276575088500977 0.29540920257568359
0.870391845703125 0.87374520301818848 0.27563819289207458
0.0019660734105855227 0.00086608331184834242 0.29474985599517822
0.12711761891841888 0 0.29769474267959595
0.40619349479675293 0 0.29878318309783936
0.6582304835319519 0 0.29240727424621582
0.88610845804214478 0 0.27217048406600952
0.029462475329637527 0.15659858286380768 0.3477078378200531
0.14192914962768555 0.1368190199136734 0.35028502345085144
0.41602414846420288 0.090960077941417694 0.3528439998626709
0.66397553682327271 0.039539556950330734 0.34971025586128235
0.88871967792510986 0.0053727072663605213 0.3360755443572998
0 0.44796043634414673 0.39681461453437805
0.10420147329568863 0.43172824382781982 0.39930516481399536
0.4023575484752655 0.40228772163391113 0.40223968029022217
0.66177666187286377 0.3640885055065155 0.40193188190460205
0.89257878065109253 0.32217299938201904 0.39331483840942383
0 0.70377331972122192 0.44901040196418762
0.0018511397065594792 0.69569861888885498 0.45064863562583923
0.36921980977058411 0.67403274774551392 0.45316368341445923
0.64358776807785034 0.64473283290863037 0.45345529913902283
0.88638335466384888 0.60991346836090088 0.44560760259628296
0 0.95220214128494263 0.49602171778678894
0 0.94510561227798462 0.49712815880775452
0.30472269654273987 0.9293593168258667 0.49898803234100342
0.60867100954055786 0.90718787908554077 0.49880212545394897
0.87515795230865479 0.87771880626678467 0.49017533659934998
0.0018152701668441296 0.00031423920881934464 0.47633060812950134
0.11348501592874527 0 0.48218047618865967
0.40398639440536499 0 0.48712223768234253
0.66045564413070679 0 0.48856830596923828
0.89060842990875244 0 0.48155277967453003
0.022642992436885834 0.13636907935142517 0.53443437814712524
0.12676709890365601 0.11672608554363251 0.53844106197357178
0.41231366991996765 0.067942135035991669 0.54374444484710693
0.66445696353912354 0.020277859643101692 0.54556643962860107
0.89410156011581421 0.00079571123933419585 0.54096102714538574
0 0.4446331262588501 0.58724159002304077
0.077045857906341553 0.42777165770530701 0.58989638090133667
0.39850729703903198 0.39624196290969849 0.59418189525604248
0.66417109966278076 0.35653761029243469 0.59684377908706665
0.89812004566192627 0.31307545304298401 0.59466135501861572
0 0.70681726932525635 0.6359296441078186
0.0001927541452459991 0.69601088762283325 0.63756304979324341
0.36084142327308655 0.67401951551437378 0.64069020748138428
0.64391499757766724 0.64372760057449341 0.64377063512802124
0.89302116632461548 0.60797446966171265 0.64251834154129028
0 0.95694506168365479 0.67965561151504517
0 0.95052832365036011 0.6809457540512085
0.28540566563606262 0.93427819013595581 0.6837727427482605
0.60637515783309937 0.91146546602249146 0.6866721510887146
0.87965184450149536 0.8809850811958313 0.68533158302307129
0 0 0.65431231260299683
0.088684052228927612 0 0.66035401821136475
0.3916420042514801 0 0.66623806953430176
0.65797233581542969 0 0.66982263326644897
0.89421206712722778 0 0.66936576366424561
0.012577090412378311 0.10137076675891876 0.70545285940170288
0.096659034490585327 0.084520615637302399 0.70945876836776733
0.39933758974075317 0.032715026289224625 0.71517848968505859
0.66105645895004272 0.0029516052454710007 0.7196122407913208
0.89614760875701904 0 0.72049355506896973
0 0.43488708138465881 0.75729924440383911
0.013086589984595776 0.4166949987411499 0.76014292240142822
0.3874688446521759 0.38122731447219849 0.76566267013549805
0.6606752872467041 0.33911898732185364 0.77096271514892578
0.90204161405563354 0.29288139939308167 0.77369123697280884
0 0.7036060094833374 0.81191754341125488
0 0.69329309463500977 0.81396776437759399
0.3381008505821228 0.66910421848297119 0.81824016571044922
0.63937163352966309 0.6369207501411438 0.82397472858428955
0.8961065411567688 0.59931856393814087 0.82757091522216797
0 0.96195489168167114 0.86587202548980713
0 0.95496845245361328 0.86751317977905273
0.23288771510124207 0.93736904859542847 0.87160390615463257
0.59537398815155029 0.91310209035873413 0.87703418731689453
0.88149142265319824 0.8812069296836853 0.88130271434783936
