LUTs/Fuji 160C 1 -.cube
# Created by: G'MIC (https://gmic.eu)
TITLE "Fuji 160C 1 -"
# LUT size
LUT_3D_SIZE 5
# Data domain
# LUT data points
DOMAIN_MIN 0.000000 0.000000 0.000000
DOMAIN_MAX 0.903226 0.903226 0.903226
0.012233154848217964 0.012652675621211529 0.010437652468681335
0.26155117154121399 0.00063704530475661159 0.015451904386281967
0.57018834352493286 0 0.010770601220428944
0.79770380258560181 0 0.014766206964850426
0.95976096391677856 0.1587517112493515 0.057177167385816574
0 0.25345635414123535 0.00029790261760354042
0.21969197690486908 0.25285837054252625 2.1825630938110407e-06
0.56215363740921021 0.22289624810218811 0
0.78065896034240723 0.22914189100265503 5.702222915715538e-05
0.94649094343185425 0.30776014924049377 0.022870916873216629
0 0.49889925122261047 0.00121372623834759
0.057380661368370056 0.49130341410636902 0.012679646722972393
0.46790343523025513 0.4929872453212738 0.00026812750729732215
0.72652131319046021 0.49290686845779419 0
0.91267359256744385 0.50174736976623535 0
0 0.67408591508865356 0.11948604881763458
0.070944890379905701 0.66759806871414185 0.12905938923358917
0.41118228435516357 0.66174405813217163 0.13169142603874207
0.65276426076889038 0.66686338186264038 0.1144857332110405
0.86935651302337646 0.70282304286956787 0.059117827564477921
0.068326540291309357 0.864432692527771 0.24376066029071808
0.23894365131855011 0.86123627424240112 0.24900190532207489
0.43108531832695007 0.85390669107437134 0.26282197237014771
0.6406630277633667 0.86039924621582031 0.26046833395957947
0.83302628993988037 0.8729170560836792 0.25774744153022766
0.032488968223333359 0.031888622790575027 0.23424503207206726
0.28904831409454346 0.0069421366788446903 0.24299642443656921
0.58272987604141235 0 0.22126473486423492
0.79264307022094727 0.14189264178276062 0.26922109723091125
0.95154225826263428 0.25854825973510742 0.28928938508033752
0.0017848648130893707 0.26937288045883179 0.25290212035179138
0.29716876149177551 0.2770683765411377 0.25790426135063171
0.57361739873886108 0.28432950377464294 0.26461377739906311
0.77685916423797607 0.30178341269493103 0.26733377575874329
0.94107377529144287 0.3555653989315033 0.27688446640968323
0.063563741743564606 0.51866286993026733 0.26958188414573669
0.24545896053314209 0.51017129421234131 0.26226645708084106
0.50130712985992432 0.50322127342224121 0.25737962126731873
0.73172253370285034 0.49939876794815063 0.23176281154155731
0.91220998764038086 0.51702070236206055 0.23488456010818481
0.0038828274700790644 0.68338263034820557 0.27650076150894165
0.21989782154560089 0.67736488580703735 0.27880531549453735
0.43995356559753418 0.66574877500534058 0.28012740612030029
0.66166448593139648 0.67125940322875977 0.27422457933425903
0.87167572975158691 0.70377492904663086 0.25098541378974915
0.12003466486930847 0.86821287870407104 0.33063274621963501
0.25740078091621399 0.86530524492263794 0.33345600962638855
0.43819016218185425 0.85690635442733765 0.34098371863365173
0.64049148559570312 0.86151856184005737 0.34213921427726746
0.83433330059051514 0.87398171424865723 0.3421197235584259
0.13650980591773987 0.073383614420890808 0.48688569664955139
0.32772719860076904 0.088490195572376251 0.4942222535610199
0.59078943729400635 0.11210023611783981 0.5115811824798584
0.79393750429153442 0.090107947587966919 0.47670456767082214
0.95665198564529419 0.24022060632705688 0.48672312498092651
0.18883122503757477 0.26623609662055969 0.48934492468833923
0.35952261090278625 0.29386782646179199 0.50095885992050171
0.58706694841384888 0.31715598702430725 0.51607328653335571
0.78436267375946045 0.30928623676300049 0.49068042635917664
0.94571894407272339 0.36966308951377869 0.50140434503555298
0.17040178179740906 0.52241653203964233 0.50799566507339478
0.33998757600784302 0.52745258808135986 0.51309287548065186
0.56231343746185303 0.53300982713699341 0.51849591732025146
0.74611657857894897 0.53359508514404297 0.5124245285987854
0.9170336127281189 0.54746001958847046 0.50958162546157837
0.29375335574150085 0.70904690027236938 0.51551264524459839
0.38709348440170288 0.70547008514404297 0.517192542552948
0.50100249052047729 0.68877345323562622 0.49147745966911316
0.68317538499832153 0.68599575757980347 0.48749035596847534
0.88253992795944214 0.7016834020614624 0.46294379234313965
0.18492566049098969 0.88152331113815308 0.49898537993431091
0.27281171083450317 0.87892484664916992 0.4909369945526123
0.45065715909004211 0.86927235126495361 0.49005448818206787
0.63679325580596924 0.8646392822265625 0.4905964732170105
0.83857429027557373 0.87677663564682007 0.49381360411643982
0.33975940942764282 0.16067059338092804 0.6837618350982666
0.4414706826210022 0.17566780745983124 0.6888849139213562
0.62311381101608276 0.21847520768642426 0.69646364450454712
0.79312872886657715 0.26797226071357727 0.70783507823944092
0.94011878967285156 0.27306279540061951 0.68993169069290161
0.3661026656627655 0.31087842583656311 0.68293070793151855
0.45260941982269287 0.3197053074836731 0.68713873624801636
0.61840486526489258 0.34753689169883728 0.69528341293334961
0.78395497798919678 0.38365563750267029 0.70883375406265259
0.93609875440597534 0.37685844302177429 0.69250702857971191
0.28204989433288574 0.47307884693145752 0.66154444217681885
0.38225653767585754 0.48178949952125549 0.6689598560333252
0.58358049392700195 0.52009636163711548 0.687050461769104
0.75962293148040771 0.55480891466140747 0.7079693078994751
0.93104392290115356 0.54217749834060669 0.69593989849090576
0.29745867848396301 0.70343178510665894 0.69275039434432983
0.38120797276496887 0.70522332191467285 0.69492906332015991
0.54287666082382202 0.70881623029708862 0.69961762428283691
0.73147594928741455 0.72129577398300171 0.71083474159240723
0.90722084045410156 0.72224456071853638 0.70641088485717773
0.3092343807220459 0.90380454063415527 0.71231722831726074
0.38256201148033142 0.90201729536056519 0.7114255428314209
0.5282825231552124 0.89541131258010864 0.70788538455963135
0.65654796361923218 0.8800957202911377 0.67876178026199341
0.85487836599349976 0.88342928886413574 0.68019968271255493
0.55260008573532104 0.30028730630874634 0.8793339729309082
0.59861671924591064 0.30951747298240662 0.87971591949462891
0.70147919654846191 0.33871135115623474 0.88089287281036377
0.82873320579528809 0.39826399087905884 0.88521969318389893
0.96407407522201538 0.43173041939735413 0.89312201738357544
0.54099947214126587 0.38915905356407166 0.87644451856613159
0.58740419149398804 0.3962150514125824 0.87785696983337402
0.69005668163299561 0.41732314229011536 0.8791540265083313
0.81981480121612549 0.46374824643135071 0.88466435670852661
0.95748132467269897 0.49222919344902039 0.89317506551742554
0.45786330103874207 0.5150761604309082 0.86686497926712036
0.52505743503570557 0.52738648653030396 0.86911070346832275
0.64850533008575439 0.5441051721572876 0.87346762418746948
0.79478734731674194 0.58150660991668701 0.8821830153465271
0.94382017850875854 0.60883259773254395 0.8942108154296875
0.30897274613380432 0.67505943775177002 0.85924476385116577
0.37413543462753296 0.67141997814178467 0.85887670516967773
0.51473557949066162 0.66192185878753662 0.85751247406005859
0.74079358577728271 0.70447623729705811 0.87600857019424438
0.92729049921035767 0.75048232078552246 0.89766424894332886
0.28355538845062256 0.89226222038269043 0.88935637474060059
0.35746943950653076 0.89238578081130981 0.88964551687240601
0.50849086046218872 0.89382326602935791 0.89128488302230835
0.69884574413299561 0.89804333448410034 0.89491218328475952
0.90851223468780518 0.91104155778884888 0.90610736608505249
