LUTs/Fuji Superia 400 4 ++.cube
# Created by: G'MIC (https://gmic.eu)
TITLE "Fuji Superia 400 4 ++"
# LUT size
LUT_3D_SIZE 5
# Data domain
# LUT data points
DOMAIN_MIN 0.000000 0.000000 0.000000
DOMAIN_MAX 0.903226 0.903226 0.903226
0.020242601633071899 0.07467101514339447 0.065913178026676178
0.16468216478824615 0.084712080657482147 0.065360799431800842
0.45753735303878784 0.05676492303609848 0.05532367154955864
0.81514108180999756 0 0.0076063810847699642
0.99998360872268677 0.10664611309766769 0
0.0079972231760621071 0.18069502711296082 0.096610113978385925
0.15666988492012024 0.21899108588695526 0.071839019656181335
0.50042587518692017 0.22293755412101746 0.015107573010027409
0.82188773155212402 0.22745810449123383 0
0.99997353553771973 0.28100419044494629 0
0 0.44258776307106018 0.16689716279506683
0.10845663398504257 0.4511837363243103 0.17020677030086517
0.49597540497779846 0.5752408504486084 0.0056074708700180054
0.85092365741729736 0.56727665662765503 0
0.99999284744262695 0.50700294971466064 0
0.1084982305765152 0.69908422231674194 0.32930329442024231
0.23946601152420044 0.69647818803787231 0.33430135250091553
0.44626921415328979 0.73443406820297241 0.31956517696380615
0.78064620494842529 0.81318092346191406 0.24238413572311401
0.99988150596618652 0.83273482322692871 0.025031397119164467
0.57285338640213013 0.89949226379394531 0.61418247222900391
0.59920287132263184 0.89864206314086914 0.6173710823059082
0.665976881980896 0.89687240123748779 0.62635791301727295
0.78960680961608887 0.92532885074615479 0.62239605188369751
0.93256908655166626 0.94763636589050293 0.60581016540527344
0.026134068146348 0.082065314054489136 0.17687280476093292
0.16378819942474365 0.098715215921401978 0.17467124760150909
0.45909944176673889 0.045563466846942902 0.18851050734519958
0.82061117887496948 0.001255550654605031 0.19331350922584534
0.99998021125793457 0.1535823792219162 0.18372578918933868
0.014856797643005848 0.20905745029449463 0.19502823054790497
0.1946718692779541 0.22688515484333038 0.20948396623134613
0.52650868892669678 0.24022339284420013 0.20708969235420227
0.8293195366859436 0.2425341010093689 0.18602946400642395
0.99998313188552856 0.29818356037139893 0.16362135112285614
0.098740428686141968 0.48849904537200928 0.30109739303588867
0.22457106411457062 0.48944565653800964 0.30131629109382629
0.51902341842651367 0.5742526650428772 0.26218625903129578
0.83727341890335083 0.53575384616851807 0.12754218280315399
0.99999988079071045 0.51316040754318237 0.052871178835630417
0.26036685705184937 0.71678084135055542 0.42570596933364868
0.33489415049552917 0.71462386846542358 0.42984181642532349
0.48742035031318665 0.73196667432785034 0.42844581604003906
0.7867811918258667 0.8126712441444397 0.39827987551689148
0.9988136887550354 0.82612723112106323 0.2878323495388031
0.60321837663650513 0.9021487832069397 0.65229678153991699
0.62722265720367432 0.90102487802505493 0.65529292821884155
0.68525785207748413 0.89809048175811768 0.66190022230148315
0.79632437229156494 0.92384171485900879 0.66532528400421143
0.93188744783401489 0.94740486145019531 0.65937906503677368
0 0.094277940690517426 0.47258147597312927
0.20856054127216339 0.10241489857435226 0.47523188591003418
0.49335956573486328 0.11909853667020798 0.48401948809623718
0.78935074806213379 0.1008707657456398 0.4864794909954071
0.9999847412109375 0.13618455827236176 0.47394073009490967
0 0.21448080241680145 0.50758033990859985
0.22696039080619812 0.24466902017593384 0.51980769634246826
0.53068292140960693 0.29109612107276917 0.51840907335281372
0.80955815315246582 0.30504247546195984 0.51164513826370239
0.99999737739562988 0.31698817014694214 0.48282206058502197
0.0018164298962801695 0.52758884429931641 0.5224640965461731
0.25464597344398499 0.54485207796096802 0.53886014223098755
0.55759459733963013 0.56577777862548828 0.55850839614868164
0.82049673795700073 0.55710530281066895 0.52961033582687378
0.99941015243530273 0.57184410095214844 0.50815314054489136
0.44983384013175964 0.75125241279602051 0.61023223400115967
0.51715075969696045 0.75449901819229126 0.62215983867645264
0.59510880708694458 0.74742525815963745 0.61319589614868164
0.7989189624786377 0.81092000007629395 0.62156587839126587
0.98737096786499023 0.79986363649368286 0.53243786096572876
0.66995292901992798 0.91015154123306274 0.73645651340484619
0.68388813734054565 0.90934067964553833 0.73518645763397217
0.72926533222198486 0.90627080202102661 0.73780667781829834
0.81005024909973145 0.91883295774459839 0.74596256017684937
0.93172299861907959 0.94707626104354858 0.75641131401062012
0.033467084169387817 0.10587989538908005 0.76010102033615112
0.29426321387290955 0.11093498021364212 0.76455080509185791
0.57036453485488892 0.15622961521148682 0.76030874252319336
0.81202685832977295 0.25513157248497009 0.75607699155807495
0.99008816480636597 0.35274180769920349 0.74810785055160522
0.0860256627202034 0.25139206647872925 0.77381837368011475
0.31748202443122864 0.26631689071655273 0.77478706836700439
0.58856135606765747 0.31668037176132202 0.76917052268981934
0.81821250915527344 0.4021058976650238 0.76474171876907349
0.98419398069381714 0.46798458695411682 0.75759875774383545
0 0.47625479102134705 0.7651246190071106
0.17004714906215668 0.49117293953895569 0.77091449499130249
0.58536273241043091 0.55292487144470215 0.77276360988616943
0.81315118074417114 0.61817741394042969 0.77341568470001221
0.96738559007644653 0.65482723712921143 0.77668219804763794
0.36956581473350525 0.7711452841758728 0.76171857118606567
0.46010908484458923 0.77526265382766724 0.76590812206268311
0.63104903697967529 0.78316378593444824 0.77446168661117554
0.81406086683273315 0.80373859405517578 0.79316222667694092
0.95818537473678589 0.80082607269287109 0.77475720643997192
0.72641348838806152 0.920390784740448 0.82916343212127686
0.74683517217636108 0.92044252157211304 0.83190017938613892
0.79560208320617676 0.92069268226623535 0.83844542503356934
0.84166532754898071 0.91871118545532227 0.83615577220916748
0.93597710132598877 0.94699275493621826 0.85525929927825928
0.42425444722175598 0.20746371150016785 0.93880760669708252
0.51244044303894043 0.2266160249710083 0.93743979930877686
0.69255268573760986 0.29489734768867493 0.93252509832382202
0.87533652782440186 0.4394209086894989 0.92417365312576294
0.99128085374832153 0.55633014440536499 0.91880446672439575
0.43697741627693176 0.33502379059791565 0.93799740076065063
0.52529561519622803 0.35441318154335022 0.93695217370986938
0.69872242212295532 0.40902078151702881 0.93151313066482544
0.87269800901412964 0.52278017997741699 0.92308765649795532
0.98213690519332886 0.6187557578086853 0.91788202524185181
0.36330199241638184 0.52091306447982788 0.93139219284057617
0.49205401539802551 0.54627799987792969 0.93018609285354614
0.68530625104904175 0.58672505617141724 0.92651969194412231
0.85995447635650635 0.66436052322387695 0.92038851976394653
0.96294558048248291 0.73432457447052002 0.91676771640777588
0.28537902235984802 0.74395883083343506 0.91920900344848633
0.37703698873519897 0.74133419990539551 0.91971844434738159
0.56104451417922974 0.73454707860946655 0.91999655961990356
0.82815152406692505 0.79523694515228271 0.91815483570098877
0.94330048561096191 0.85319918394088745 0.91920340061187744
0.68099087476730347 0.93080782890319824 0.91513168811798096
0.70637345314025879 0.9307401180267334 0.91567826271057129
0.77016502618789673 0.93165606260299683 0.91782069206237793
0.85693192481994629 0.93467909097671509 0.92267543077468872
0.94207370281219482 0.94450962543487549 0.93359869718551636
