LUTs/Fuji 400H 1 -.cube
# Created by: G'MIC (https://gmic.eu)
TITLE "Fuji 400H 1 -"
# LUT size
LUT_3D_SIZE 5
# Data domain
# LUT data points
DOMAIN_MIN 0.000000 0.000000 0.000000
DOMAIN_MAX 0.903226 0.903226 0.903226
0.0068634641356766224 0.01029984001070261 0.0091667985543608665
0.20652352273464203 0.023863593116402626 0.011208534240722656
0.54912948608398438 0 0.004693484865128994
0.80207759141921997 0 0.00157461769413203
0.94813895225524902 0.13875047862529755 0.018025591969490051
0 0.22185023128986359 0.015902705490589142
0.16971620917320251 0.23064784705638885 0.0028320818673819304
0.54791063070297241 0.23043100535869598 0
0.78643792867660522 0.23149648308753967 0
0.93566197156906128 0.29335930943489075 3.118752283626236e-05
0 0.48457947373390198 0.043088663369417191
0.01114435400813818 0.47535303235054016 0.071384124457836151
0.46572262048721313 0.48709693551063538 0.00030175640131346881
0.73497706651687622 0.48719850182533264 0
0.90325295925140381 0.48894783854484558 0
0 0.65805214643478394 0.18915383517742157
0.12604948878288269 0.65074700117111206 0.20073549449443817
0.42032572627067566 0.64583325386047363 0.19517529010772705
0.66223180294036865 0.6541142463684082 0.14130561053752899
0.8602447509765625 0.67459189891815186 0.05274200439453125
0.29690530896186829 0.81870514154434204 0.36675164103507996
0.36138629913330078 0.81536602973937988 0.37353429198265076
0.48565644025802612 0.80747205018997192 0.39146387577056885
0.64817434549331665 0.81702029705047607 0.37301349639892578
0.82314687967300415 0.83289492130279541 0.33920788764953613
0.012392721138894558 0.029410135000944138 0.22035817801952362
0.23287762701511383 0.023294063284993172 0.23024281859397888
0.56856691837310791 0 0.22406119108200073
0.80002897977828979 0.073158591985702515 0.26230338215827942
0.93893486261367798 0.23778863251209259 0.28513219952583313
0 0.25242066383361816 0.24370037019252777
0.23761339485645294 0.26160112023353577 0.2497304230928421
0.56935125589370728 0.26617974042892456 0.25590404868125916
0.78459060192108154 0.28283387422561646 0.2581736147403717
0.92872506380081177 0.3387303352355957 0.270914226770401
0.00055629335111007094 0.5143389105796814 0.27806273102760315
0.20034594833850861 0.50277316570281982 0.27538889646530151
0.49861124157905579 0.50007134675979614 0.25796347856521606
0.7397121787071228 0.49365681409835815 0.21528178453445435
0.90083163976669312 0.50224792957305908 0.21999707818031311
0.072506986558437347 0.66837060451507568 0.31898796558380127
0.25061196088790894 0.66143763065338135 0.3245755136013031
0.45094543695449829 0.64958447217941284 0.32649785280227661
0.66834753751754761 0.65847676992416382 0.29876887798309326
0.86025369167327881 0.67653638124465942 0.26162365078926086
0.3220866322517395 0.82271075248718262 0.42755493521690369
0.38100451231002808 0.81939905881881714 0.43256595730781555
0.49641788005828857 0.81035822629928589 0.44620844721794128
0.64958077669143677 0.8178858757019043 0.43614739179611206
0.823280930519104 0.83385562896728516 0.41029584407806396
0.014097744598984718 0.065910875797271729 0.50161343812942505
0.28707441687583923 0.067197784781455994 0.50989222526550293
0.58466637134552002 0.045618440955877304 0.52911412715911865
0.79684692621231079 0.0021524326875805855 0.49873372912406921
0.93675082921981812 0.23520325124263763 0.50076103210449219
0.022332498803734779 0.25053265690803528 0.50605982542037964
0.31084242463111877 0.27818408608436584 0.51872795820236206
0.5840722918510437 0.30045858025550842 0.53494793176651001
0.78475487232208252 0.29456299543380737 0.51118308305740356
0.92181146144866943 0.37545144557952881 0.51806330680847168
0.00036494116648100317 0.52537709474563599 0.52662891149520874
0.29506039619445801 0.53013032674789429 0.531993567943573
0.56028759479522705 0.53359419107437134 0.5377812385559082
0.74094676971435547 0.53360992670059204 0.53106886148452759
0.89179658889770508 0.54495245218276978 0.52888375520706177
0.32752060890197754 0.69408273696899414 0.53729194402694702
0.41847175359725952 0.68955373764038086 0.5425032377243042
0.52280634641647339 0.67149484157562256 0.52674680948257446
0.68369656801223755 0.67226177453994751 0.51570224761962891
0.86297041177749634 0.67910706996917725 0.48497435450553894
0.37561729550361633 0.8362622857093811 0.55487769842147827
0.41446629166603088 0.83353543281555176 0.55131953954696655
0.52125942707061768 0.82330983877182007 0.55587190389633179
0.65293002128601074 0.82009702920913696 0.55707991123199463
0.82583147287368774 0.83704954385757446 0.5417143702507019
0.29409095644950867 0.13553616404533386 0.69386416673660278
0.41407415270805359 0.14690925180912018 0.6981164813041687
0.61529123783111572 0.18999385833740234 0.70416116714477539
0.78535670042037964 0.25317126512527466 0.7126699686050415
0.91757702827453613 0.27371683716773987 0.69355911016464233
0.32379540801048279 0.29680046439170837 0.69246411323547363
0.42820322513580322 0.30605271458625793 0.69580328464508057
0.61095839738845825 0.33741596341133118 0.70210397243499756
0.77409708499908447 0.38214153051376343 0.71244418621063232
0.90960115194320679 0.38476580381393433 0.69578111171722412
0.22914135456085205 0.46978262066841125 0.67239385843276978
0.36152127385139465 0.4799284040927887 0.67847025394439697
0.58140718936920166 0.52144092321395874 0.69234448671340942
0.74650144577026367 0.55773967504501343 0.70941311120986938
0.89796113967895508 0.54863691329956055 0.70046854019165039
0.32087472081184387 0.69086337089538574 0.69627761840820312
0.40367570519447327 0.69177162647247314 0.69803047180175781
0.55684417486190796 0.69427967071533203 0.70184999704360962
0.72257304191589355 0.70452141761779785 0.71100115776062012
0.87822842597961426 0.70414656400680542 0.70672595500946045
0.41114664077758789 0.86251509189605713 0.71251624822616577
0.46121969819068909 0.86049151420593262 0.71243953704833984
0.57130837440490723 0.85346585512161255 0.71254652738571167
0.67599642276763916 0.83652502298355103 0.69688224792480469
0.83968275785446167 0.84455543756484985 0.69067049026489258
0.53697699308395386 0.28988489508628845 0.85526204109191895
0.58429795503616333 0.30106657743453979 0.85534721612930298
0.68633908033370972 0.3366205096244812 0.85553032159805298
0.80623352527618408 0.40581724047660828 0.85832422971725464
0.93049734830856323 0.4461570680141449 0.86440503597259521
0.53177350759506226 0.38637158274650574 0.85205292701721191
0.57789218425750732 0.39504733681678772 0.85287296772003174
0.67730957269668579 0.4200177788734436 0.85338753461837769
0.79770201444625854 0.47232624888420105 0.85704952478408813
0.92374414205551147 0.50385046005249023 0.86366313695907593
0.46945583820343018 0.51644396781921387 0.84209102392196655
0.53258907794952393 0.52953088283538818 0.84352570772171021
0.64483809471130371 0.54738277196884155 0.84695225954055786
0.77669340372085571 0.58356046676635742 0.85373955965042114
0.91209149360656738 0.60765677690505981 0.86408209800720215
0.3613317608833313 0.65966600179672241 0.83482867479324341
0.41647422313690186 0.65741318464279175 0.8339989185333252
0.53776991367340088 0.65202987194061279 0.83269768953323364
0.73187524080276489 0.6902582049369812 0.84804195165634155
0.90170085430145264 0.72754555940628052 0.86740285158157349
0.37695333361625671 0.85602760314941406 0.85982221364974976
0.42630136013031006 0.85622125864028931 0.8601265549659729
0.53919363021850586 0.85780048370361328 0.86153870820999146
0.69535666704177856 0.86243271827697754 0.86481940746307373
0.89172279834747314 0.87490218877792358 0.87514430284500122
