LUTs/Fuji Provia 100F.cube
# Created by: G'MIC (https://gmic.eu)
TITLE "Fuji Provia 100F"
# LUT size
LUT_3D_SIZE 32
# Data domain
DOMAIN_MIN 0.0 0.0 0.0
DOMAIN_MAX 1.0 1.0 1.0
# LUT data points
0.0062469481490552425 0.0082424692809581757 0.0083512747660279274
0.028078446164727211 0.01571263000369072 0.012622389942407608
0.05801926925778389 0.028377704322338104 0.0179014652967453
0.091451689600944519 0.047253824770450592 0.030430348590016365
0.1239834800362587 0.065192513167858124 0.043472111225128174
0.15414431691169739 0.084271028637886047 0.059640366584062576
0.18371106684207916 0.10319703072309494 0.077919185161590576
0.21399921178817749 0.1204860657453537 0.096177317202091217
0.24520383775234222 0.13620255887508392 0.11348798871040344
0.27730831503868103 0.15005744993686676 0.12935607135295868
0.31069108843803406 0.16274306178092957 0.14404687285423279
0.34543585777282715 0.17468476295471191 0.15788918733596802
0.38150244951248169 0.18591946363449097 0.17096492648124695
0.41883334517478943 0.1962469220161438 0.18317368626594543
0.45733910799026489 0.20545525848865509 0.19442234933376312
0.49686941504478455 0.21370323002338409 0.20497439801692963
0.53715020418167114 0.22099313139915466 0.21507695317268372
0.5780341625213623 0.22713086009025574 0.22456067800521851
0.6197277307510376 0.23278406262397766 0.23389372229576111
0.66122698783874512 0.23911656439304352 0.24357712268829346
0.69956958293914795 0.24406294524669647 0.25059002637863159
0.73503094911575317 0.24731926620006561 0.25495418906211853
0.7673497200012207 0.24989452958106995 0.25798109173774719
0.79294449090957642 0.25083774328231812 0.25884094834327698
0.81283271312713623 0.24943068623542786 0.25710403919219971
0.82984572649002075 0.24651774764060974 0.25380620360374451
0.84564393758773804 0.24267476797103882 0.24957738816738129
0.86119824647903442 0.23829133808612823 0.24481186270713806
0.87697714567184448 0.23379190266132355 0.2399425208568573
0.89321351051330566 0.22925816476345062 0.23505978286266327
0.91007506847381592 0.22485978901386261 0.23036119341850281
0.92768305540084839 0.22037246823310852 0.22565543651580811
0.01572977751493454 0.0297248475253582 0.012306665070354939
0.032667621970176697 0.02775130607187748 0.012526043690741062
0.060858629643917084 0.03220246359705925 0.016390120610594749
0.093949414789676666 0.049675203859806061 0.027714280411601067
0.12571488320827484 0.069432713091373444 0.041905395686626434
0.15531273186206818 0.090728692710399628 0.060525283217430115
0.18494260311126709 0.11092028021812439 0.080329477787017822
0.2154136449098587 0.12950301170349121 0.099533095955848694
0.24645772576332092 0.14566205441951752 0.11712145060300827
0.27860400080680847 0.16027608513832092 0.13317075371742249
0.31213325262069702 0.17413456737995148 0.14820165932178497
0.34705331921577454 0.18736726045608521 0.1624140590429306
0.38335457444190979 0.1997760534286499 0.17573244869709015
0.42098861932754517 0.21105773746967316 0.18800519406795502
0.45982065796852112 0.22131457924842834 0.19950754940509796
0.4995688796043396 0.23043879866600037 0.21050341427326202
0.53999125957489014 0.23799100518226624 0.22064697742462158
0.58125060796737671 0.24458770453929901 0.23031061887741089
0.6235923171043396 0.25124368071556091 0.24045093357563019
0.66505944728851318 0.25816026329994202 0.25035867094993591
0.70336997509002686 0.26319152116775513 0.25703799724578857
0.73936647176742554 0.26693820953369141 0.26151859760284424
0.7712630033493042 0.27014714479446411 0.26485249400138855
0.79558354616165161 0.27089548110961914 0.26520064473152161
0.81465476751327515 0.26940226554870605 0.26306626200675964
0.83105349540710449 0.26649162173271179 0.25943168997764587
0.84638851881027222 0.26273664832115173 0.2549145519733429
0.86158245801925659 0.2586023211479187 0.24999044835567474
0.87701332569122314 0.25446027517318726 0.24506799876689911
0.89290845394134521 0.25037798285484314 0.24023537337779999
0.90943300724029541 0.24634264409542084 0.2355353832244873
0.92679029703140259 0.24215295910835266 0.23072348535060883
0.033062316477298737 0.06001666933298111 0.021386725828051567
0.041124768555164337 0.062489334493875504 0.020594058558344841
0.068666614592075348 0.056701160967350006 0.024254754185676575
0.10032587498426437 0.058821830898523331 0.027389267459511757
0.12921079993247986 0.077007554471492767 0.042806845158338547
0.15843698382377625 0.099141247570514679 0.063694596290588379
0.18840469419956207 0.12038104981184006 0.084745600819587708
0.21864108741283417 0.13920107483863831 0.10449133068323135
0.2496894896030426 0.15634667873382568 0.12256470322608948
0.28208786249160767 0.17264172434806824 0.13926556706428528
0.31589537858963013 0.18817043304443359 0.15483535826206207
0.35116004943847656 0.2027517557144165 0.16928963363170624
0.38788354396820068 0.21611140668392181 0.18255516886711121
0.42591816186904907 0.22822357714176178 0.19486331939697266
0.46498021483421326 0.23899215459823608 0.20659889280796051
0.50485861301422119 0.24802252650260925 0.21747395396232605
0.54562568664550781 0.25595548748970032 0.22776959836483002
0.58745837211608887 0.26334354281425476 0.23801212012767792
0.63018119335174561 0.270731121301651 0.24876469373703003
0.67134028673171997 0.27754133939743042 0.25810828804969788
0.70988941192626953 0.2826610803604126 0.26439875364303589
0.74614322185516357 0.28701674938201904 0.26911184191703796
0.77626115083694458 0.29011842608451843 0.27199849486351013
0.79886847734451294 0.29045861959457397 0.27160471677780151
0.81687504053115845 0.28880921006202698 0.26897314190864563
0.83257830142974854 0.28592655062675476 0.2649778425693512
0.84747123718261719 0.2823827862739563 0.26022058725357056
0.86232370138168335 0.2787192165851593 0.2552981972694397
0.87741875648498535 0.27509838342666626 0.25042435526847839
0.89295917749404907 0.27158674597740173 0.24575476348400116
0.90923577547073364 0.267934650182724 0.24096865952014923
0.92633157968521118 0.26465979218482971 0.236602783203125
0.056915611028671265 0.093550100922584534 0.042189024388790131
0.063077263534069061 0.095031477510929108 0.044212851673364639
0.081167407333850861 0.09199041873216629 0.046561092138290405
0.11052073538303375 0.089964047074317932 0.048234619200229645
0.13735826313495636 0.096414953470230103 0.055627621710300446
0.16488134860992432 0.11271908134222031 0.072054214775562286
0.19449712336063385 0.13254249095916748 0.092347800731658936
0.22471188008785248 0.15225817263126373 0.11266156286001205
0.25596761703491211 0.17101410031318665 0.13130056858062744
0.28853479027748108 0.18875038623809814 0.14829768240451813
0.32263639569282532 0.20545031130313873 0.16391603648662567
0.35839718580245972 0.22089795768260956 0.17821545898914337
0.39559462666511536 0.23483237624168396 0.19131699204444885
0.43386188149452209 0.24699169397354126 0.20357079803943634
0.47303566336631775 0.25741866230964661 0.21506007015705109
0.51320582628250122 0.26685351133346558 0.22611980140209198
0.55435210466384888 0.27565157413482666 0.2370074987411499
0.59648764133453369 0.28358578681945801 0.24766753613948822
0.63919305801391602 0.29082131385803223 0.25807648897171021
0.68016880750656128 0.29734316468238831 0.26662719249725342
0.71887123584747314 0.30253848433494568 0.27249020338058472
0.75411999225616455 0.3072008490562439 0.27721694111824036
0.7816164493560791 0.30961877107620239 0.27906817197799683
0.80242282152175903 0.30951914191246033 0.27789369225502014
0.81932717561721802 0.30775541067123413 0.27475661039352417
0.83439368009567261 0.30503737926483154 0.27044963836669922
0.84892904758453369 0.30196070671081543 0.26561847329139709
0.86347264051437378 0.29896587133407593 0.26082205772399902
0.87822890281677246 0.29609528183937073 0.25622683763504028
0.89348214864730835 0.29310816526412964 0.25157806277275085
0.90964311361312866 0.29034397006034851 0.2470560222864151
0.92639291286468506 0.28820148110389709 0.2434903085231781
0.085427328944206238 0.12766124308109283 0.068833254277706146
0.091542311012744904 0.1274731308221817 0.069925874471664429
0.10069293528795242 0.12840878963470459 0.072310909628868103
0.12189211696386337 0.1298602968454361 0.077781058847904205
0.1492098867893219 0.13156324625015259 0.082684807479381561
0.17586666345596313 0.13941887021064758 0.090917214751243591
0.20437107980251312 0.15368489921092987 0.10659130662679672
0.23421464860439301 0.17123831808567047 0.12496150285005569
0.26529085636138916 0.18983222544193268 0.14281955361366272
0.29813629388809204 0.20828996598720551 0.15955023467540741
0.33293071389198303 0.22575563192367554 0.17490707337856293
0.36926290392875671 0.24162125587463379 0.18898686766624451
0.4066845178604126 0.25523000955581665 0.2019936591386795
0.44499430060386658 0.26684945821762085 0.21393141150474548
0.48431187868118286 0.27765452861785889 0.2255287766456604
0.52463990449905396 0.2878778874874115 0.2370658814907074
0.56582522392272949 0.29711553454399109 0.24810443818569183
0.60795533657073975 0.3047691285610199 0.25831374526023865
0.65051591396331787 0.31146806478500366 0.26796019077301025
0.69116115570068359 0.31760299205780029 0.27559357881546021
0.72935861349105835 0.32283893227577209 0.28110262751579285
0.76217502355575562 0.32709574699401855 0.28519892692565918
0.78694206476211548 0.32870352268218994 0.28590565919876099
0.8060423731803894 0.32825103402137756 0.2839972972869873
0.82197386026382446 0.32654747366905212 0.28043240308761597
0.83656871318817139 0.32425245642662048 0.27594476938247681
0.85085606575012207 0.32197630405426025 0.27128836512565613
0.86512136459350586 0.31990483403205872 0.2668493390083313
0.87956410646438599 0.31777194142341614 0.26246494054794312
0.89473092555999756 0.31564334034919739 0.25795888900756836
0.91076290607452393 0.31430515646934509 0.25436308979988098
0.92712956666946411 0.31257957220077515 0.25102129578590393
0.11204560846090317 0.16198490560054779 0.093945249915122986
0.11867863684892654 0.16246408224105835 0.095771372318267822
0.12637405097484589 0.16511321067810059 0.099951207637786865
0.14045031368732452 0.16878467798233032 0.10685102641582489
0.16231030225753784 0.17134436964988708 0.11202573031187057
0.18816803395748138 0.17613738775253296 0.11661196500062943
0.21592703461647034 0.18515151739120483 0.12680447101593018
0.24604211747646332 0.19821260869503021 0.14119493961334229
0.27793976664543152 0.21479569375514984 0.15708653628826141
0.31174030900001526 0.23268595337867737 0.17285303771495819
0.34705966711044312 0.2497098296880722 0.18789827823638916
0.38356268405914307 0.26434376835823059 0.20176835358142853
0.4209161102771759 0.27703377604484558 0.21430452167987823
0.45914295315742493 0.28904899954795837 0.22627383470535278
0.49836966395378113 0.30065149068832397 0.23820927739143372
0.53847771883010864 0.31128427386283875 0.2496560662984848
0.57944768667221069 0.32041263580322266 0.2602514922618866
0.62138855457305908 0.32708150148391724 0.26942679286003113
0.6635671854019165 0.332864910364151 0.27807143330574036
0.70348691940307617 0.33838871121406555 0.28464552760124207
0.74020040035247803 0.34347409009933472 0.28991484642028809
0.76975905895233154 0.34674012660980225 0.29279366135597229
0.79204875230789185 0.34766647219657898 0.29246789216995239
0.80969202518463135 0.3470999002456665 0.28995832800865173
0.82491558790206909 0.34576818346977234 0.28612485527992249
0.83928114175796509 0.34429645538330078 0.28172782063484192
0.85341864824295044 0.34315401315689087 0.27753189206123352
0.86740612983703613 0.34209832549095154 0.27354905009269714
0.8817177414894104 0.34085884690284729 0.26931685209274292
0.89695453643798828 0.34017837047576904 0.26555010676383972
0.91271460056304932 0.33980336785316467 0.26273378729820251
0.92872703075408936 0.33804181218147278 0.25911709666252136
0.13606560230255127 0.19724178314208984 0.11804945021867752
0.14349748194217682 0.19825908541679382 0.12123402953147888
0.15227140486240387 0.20135350525379181 0.12627050280570984
0.16412952542304993 0.20593267679214478 0.13277614116668701
0.17959737777709961 0.21123592555522919 0.13800562918186188
0.20084355771541595 0.21741296350955963 0.14261548221111298
0.22805918753147125 0.2247457355260849 0.14978674054145813
0.25969341397285461 0.23428602516651154 0.16038939356803894
0.29369738698005676 0.24729901552200317 0.17386750876903534
0.32855275273323059 0.26233658194541931 0.18870583176612854
0.36428198218345642 0.27670007944107056 0.20313712954521179
0.4006064236164093 0.29016470909118652 0.21643172204494476
0.43755200505256653 0.30325579643249512 0.22890493273735046
0.47534877061843872 0.31597411632537842 0.24098433554172516
0.51416212320327759 0.32777604460716248 0.25265461206436157
0.55379903316497803 0.33812215924263 0.26341038942337036
0.59436923265457153 0.34622329473495483 0.27289465069770813
0.63583320379257202 0.35180088877677917 0.28086784482002258
0.6772693395614624 0.35644608736038208 0.2883964478969574
0.71616595983505249 0.36045357584953308 0.29389595985412598
0.75036102533340454 0.36433771252632141 0.29841184616088867
0.77668160200119019 0.36656725406646729 0.29998421669006348
0.79691833257675171 0.36714988946914673 0.29884639382362366
0.81351172924041748 0.36687371134757996 0.29596289992332458
0.8284183144569397 0.36634600162506104 0.29211553931236267
0.84280449151992798 0.36615672707557678 0.28821337223052979
0.85680121183395386 0.36633631587028503 0.28473308682441711
0.87060606479644775 0.36626863479614258 0.28102105855941772
0.88505613803863525 0.36634570360183716 0.27725827693939209
0.90025860071182251 0.36710461974143982 0.27468237280845642
0.91566616296768188 0.36682799458503723 0.27181145548820496
0.93135815858840942 0.36503225564956665 0.26787170767784119
0.15770736336708069 0.23278059065341949 0.14041520655155182
0.16615593433380127 0.2340615838766098 0.14417056739330292
0.17598040401935577 0.23751184344291687 0.14948537945747375
0.18774569034576416 0.24282987415790558 0.1553577184677124
0.20056836307048798 0.25023236870765686 0.160490483045578
0.21728380024433136 0.25902533531188965 0.16577798128128052
0.24213135242462158 0.26755520701408386 0.17242315411567688
0.2742571234703064 0.27623268961906433 0.18150225281715393
0.31037208437919617 0.28560861945152283 0.19290147721767426
0.34657570719718933 0.29801002144813538 0.20717605948448181
0.38225948810577393 0.31188839673995972 0.22142821550369263
0.41816717386245728 0.32553398609161377 0.23456405103206635
0.4547010064125061 0.33846443891525269 0.24663920700550079
0.49217095971107483 0.35032808780670166 0.2578987181186676
0.53056496381759644 0.36091640591621399 0.26843276619911194
0.56980466842651367 0.36972129344940186 0.2779603898525238
0.60989391803741455 0.37629958987236023 0.28621861338615417
0.65089058876037598 0.38139057159423828 0.29428938031196594
0.69096732139587402 0.38450360298156738 0.30079388618469238
0.72768032550811768 0.38531908392906189 0.30418044328689575
0.75907963514328003 0.38607344031333923 0.30643609166145325
0.7829633355140686 0.38747972249984741 0.30694270133972168
0.8017393946647644 0.38826513290405273 0.305318683385849
0.81784629821777344 0.38878461718559265 0.3023737370967865
0.83287841081619263 0.38953232765197754 0.29890832304954529
0.84738504886627197 0.39091435074806213 0.29593446850776672
0.86120855808258057 0.39224258065223694 0.29296979308128357
0.87509810924530029 0.39331808686256409 0.2895599901676178
0.88974124193191528 0.3948918879032135 0.28690695762634277
0.9046858549118042 0.39612290263175964 0.28481805324554443
0.91976004838943481 0.39571332931518555 0.28157582879066467
0.9351346492767334 0.39385324716567993 0.27730175852775574
0.1772625595331192 0.26830160617828369 0.16038534045219421
0.1867704838514328 0.26991847157478333 0.16453239321708679
0.19775363802909851 0.27394589781761169 0.17008113861083984
0.21006841957569122 0.28018435835838318 0.17553214728832245
0.22322842478752136 0.28817334771156311 0.1805993914604187
0.23962883651256561 0.29788312315940857 0.18635754287242889
0.26249390840530396 0.30865728855133057 0.19373036921024323
0.29249322414398193 0.31926122307777405 0.20262134075164795
0.32702437043190002 0.33003377914428711 0.21378102898597717
0.36254462599754333 0.34393095970153809 0.22829030454158783
0.39808818697929382 0.35846585035324097 0.2425059974193573
0.43409663438796997 0.37188753485679626 0.25527191162109375
0.47104388475418091 0.38328811526298523 0.26621633768081665
0.50899589061737061 0.39340320229530334 0.27643737196922302
0.54771780967712402 0.40212538838386536 0.28642779588699341
0.58683496713638306 0.40779340267181396 0.29476439952850342
0.62631666660308838 0.41071397066116333 0.30182141065597534
0.66622370481491089 0.41302019357681274 0.30905637145042419
0.70392853021621704 0.41380405426025391 0.31372275948524475
0.737254798412323 0.41257172822952271 0.31508088111877441
0.76586222648620605 0.41059955954551697 0.31455522775650024
0.78874951601028442 0.41100126504898071 0.3140634298324585
0.80689680576324463 0.4125429093837738 0.31235739588737488
0.82312417030334473 0.41426506638526917 0.30969521403312683
0.83856838941574097 0.41658216714859009 0.30714979767799377
0.85306346416473389 0.41929548978805542 0.30505275726318359
0.86687994003295898 0.42156606912612915 0.30233404040336609
0.88104814291000366 0.42377349734306335 0.2995772659778595
0.8956720232963562 0.4262005090713501 0.29800665378570557
0.91028845310211182 0.42724773287773132 0.295614093542099
0.92506253719329834 0.42668002843856812 0.29199129343032837
0.94011956453323364 0.42470499873161316 0.2873702347278595
0.19490839540958405 0.30385673046112061 0.17818827927112579
0.2057768851518631 0.30601093173027039 0.1828504353761673
0.21816666424274445 0.31070682406425476 0.18831320106983185
0.23171287775039673 0.31718295812606812 0.19360983371734619
0.24643871188163757 0.32497960329055786 0.19899278879165649
0.26407620310783386 0.33546009659767151 0.20553983747959137
0.28648099303245544 0.34833472967147827 0.21368412673473358
0.31367221474647522 0.3624454140663147 0.2234390527009964
0.34462165832519531 0.37827971577644348 0.23642434179782867
0.37874242663383484 0.39402809739112854 0.25101366639137268
0.41461151838302612 0.40771910548210144 0.26420694589614868
0.45153346657752991 0.41953715682029724 0.27557888627052307
0.48948481678962708 0.43033859133720398 0.28656759858131409
0.52810287475585938 0.43901491165161133 0.2973976731300354
0.56655210256576538 0.4441588819026947 0.30616238713264465
0.60448122024536133 0.44601738452911377 0.31244227290153503
0.64223796129226685 0.44595411419868469 0.31748193502426147
0.68003970384597778 0.44601577520370483 0.32305490970611572
0.71489256620407104 0.44501730799674988 0.32611382007598877
0.74510866403579712 0.44279751181602478 0.32610881328582764
0.77112805843353271 0.44012492895126343 0.32388699054718018
0.79386043548583984 0.43936815857887268 0.32201042771339417
0.81251633167266846 0.44153061509132385 0.3204752504825592
0.82930994033813477 0.44448935985565186 0.31846261024475098
0.84513014554977417 0.44814980030059814 0.31710958480834961
0.85963833332061768 0.45155218243598938 0.31529915332794189
0.87377089262008667 0.45438161492347717 0.31277197599411011
0.88826984167098999 0.45739313960075378 0.31123542785644531
0.90270102024078369 0.45976522564888 0.30974623560905457
0.9170648455619812 0.4605536162853241 0.30693498253822327
0.93156993389129639 0.45980221033096313 0.30294913053512573
0.94632875919342041 0.45770850777626038 0.29799452424049377
0.21096564829349518 0.33948102593421936 0.19417537748813629
0.22347861528396606 0.34214308857917786 0.19902393221855164
0.23760412633419037 0.34679797291755676 0.20435023307800293
0.25252857804298401 0.35255095362663269 0.20956693589687347
0.26877933740615845 0.36055660247802734 0.21532531082630157
0.28809848427772522 0.37237900495529175 0.22288580238819122
0.311379075050354 0.38740265369415283 0.2326623797416687
0.33716166019439697 0.4048595130443573 0.24468357861042023
0.36515381932258606 0.42372521758079529 0.25795859098434448
0.39795210957527161 0.44026035070419312 0.27116009593009949
0.43410101532936096 0.45395028591156006 0.28349316120147705
0.47186657786369324 0.46645718812942505 0.29615220427513123
0.51000946760177612 0.47613802552223206 0.30813649296760559
0.54768639802932739 0.48179617524147034 0.31754356622695923
0.58445280790328979 0.48411181569099426 0.32416239380836487
0.6202695369720459 0.48415461182594299 0.32852852344512939
0.65592491626739502 0.48304691910743713 0.33212095499038696
0.69134408235549927 0.48203465342521667 0.33646389842033386
0.72338300943374634 0.48017308115959167 0.33835124969482422
0.75124651193618774 0.4778536856174469 0.3376060426235199
0.77556860446929932 0.47584086656570435 0.33498570322990417
0.79777956008911133 0.47516417503356934 0.33239820599555969
0.81726574897766113 0.47689571976661682 0.33060657978057861
0.83511847257614136 0.47988998889923096 0.328980952501297
0.85149139165878296 0.48374873399734497 0.32798612117767334
0.8665587306022644 0.48709481954574585 0.32608217000961304
0.88152563571929932 0.49007388949394226 0.32430344820022583
0.89636492729187012 0.4932326078414917 0.32356172800064087
0.91068923473358154 0.49529117345809937 0.3217049241065979
0.92489063739776611 0.49584546685218811 0.31853774189949036
0.9391634464263916 0.49493801593780518 0.31422954797744751
0.95363891124725342 0.49272185564041138 0.30895823240280151
0.2259218841791153 0.37450775504112244 0.20792627334594727
0.24030238389968872 0.37699365615844727 0.21273224055767059
0.25567805767059326 0.38075810670852661 0.21773466467857361
0.27180454134941101 0.38642051815986633 0.22301089763641357
0.29001134634017944 0.39562776684761047 0.229749396443367
0.31158968806266785 0.40911212563514709 0.23907588422298431
0.3355938196182251 0.42518392205238342 0.25052419304847717
0.36059698462486267 0.44302469491958618 0.26241186261177063
0.38824364542961121 0.4633476734161377 0.27536219358444214
0.41976845264434814 0.48350635170936584 0.28906384110450745
0.45525586605072021 0.50039553642272949 0.30371460318565369
0.49238461256027222 0.51246517896652222 0.31738433241844177
0.52916198968887329 0.51991367340087891 0.32803040742874146
0.56495523452758789 0.52366924285888672 0.33557718992233276
0.59960561990737915 0.5247846245765686 0.34051814675331116
0.63338214159011841 0.52419406175613403 0.34353339672088623
0.66712343692779541 0.52273023128509521 0.34603303670883179
0.70022153854370117 0.52142667770385742 0.34946706891059875
0.72973358631134033 0.5195845365524292 0.35065871477127075
0.75600188970565796 0.51752710342407227 0.34963107109069824
0.78011435270309448 0.51587551832199097 0.34749585390090942
0.80223065614700317 0.51598405838012695 0.34611260890960693
0.82157152891159058 0.51737838983535767 0.343962162733078
0.83971989154815674 0.51913774013519287 0.34096443653106689
0.85703450441360474 0.52190947532653809 0.33891561627388
0.87334734201431274 0.52465325593948364 0.3369373083114624
0.88971930742263794 0.52755063772201538 0.33636248111724854
0.90494740009307861 0.53040003776550293 0.33560541272163391
0.91933947801589966 0.53214609622955322 0.33343660831451416
0.93342030048370361 0.53249126672744751 0.32997271418571472
0.94746363162994385 0.53142303228378296 0.32537034153938293
0.96165567636489868 0.52905339002609253 0.319795161485672
0.24034854769706726 0.40758752822875977 0.21893349289894104
0.25587993860244751 0.40953385829925537 0.22367221117019653
0.27211442589759827 0.41317087411880493 0.22865037620067596
0.28992259502410889 0.41984179615974426 0.23471371829509735
0.3105948269367218 0.43055382370948792 0.24309171736240387
0.33364316821098328 0.44392889738082886 0.25352963805198669
0.35754615068435669 0.4591732919216156 0.26432490348815918
0.38345792889595032 0.47800713777542114 0.27649173140525818
0.41222798824310303 0.50029420852661133 0.29084482789039612
0.44312158226966858 0.52318066358566284 0.30717030167579651
0.4756544828414917 0.54222595691680908 0.32286480069160461
0.51076871156692505 0.5547335147857666 0.33583930134773254
0.54574954509735107 0.5619698166847229 0.34530618786811829
0.57981103658676147 0.56542128324508667 0.35170930624008179
