LUTs/Fuji Provia 100F.cube
# Created by: G'MIC (https://gmic.eu)
TITLE "Fuji Provia 100F"
# LUT size
LUT_3D_SIZE 5
# Data domain
# LUT data points
DOMAIN_MIN 0.000000 0.000000 0.000000
DOMAIN_MAX 0.903226 0.903226 0.903226
0.0062469481490552425 0.0082424692809581757 0.0083512747660279274
0.21399921178817749 0.1204860657453537 0.096177317202091217
0.45733910799026489 0.20545525848865509 0.19442234933376312
0.73503094911575317 0.24731926620006561 0.25495418906211853
0.87697714567184448 0.23379190266132355 0.2399425208568573
0.15770736336708069 0.23278059065341949 0.14041520655155182
0.2742571234703064 0.27623268961906433 0.18150225281715393
0.53056496381759644 0.36091640591621399 0.26843276619911194
0.7829633355140686 0.38747972249984741 0.30694270133972168
0.88974124193191528 0.3948918879032135 0.28690695762634277
0.26538753509521484 0.46891337633132935 0.23470999300479889
0.42577841877937317 0.54277694225311279 0.301319420337677
0.64246064424514771 0.6429024338722229 0.38381704688072205
0.82435816526412964 0.62900590896606445 0.38077816367149353
0.94194382429122925 0.63530480861663818 0.35963577032089233
0.31978648900985718 0.65575569868087769 0.2588144838809967
0.497285395860672 0.6991269588470459 0.32825860381126404
0.68365377187728882 0.77402585744857788 0.40893867611885071
0.84599578380584717 0.77755522727966309 0.40828356146812439
0.9568907618522644 0.77660155296325684 0.39398011565208435
0.31452366709709167 0.81470465660095215 0.24769601225852966
0.49587342143058777 0.83511471748352051 0.30864590406417847
0.65968877077102661 0.85936415195465088 0.3695824146270752
0.82308453321456909 0.87437522411346436 0.38913264870643616
0.95207405090332031 0.88770502805709839 0.39293968677520752
0.01221828069537878 0.024054734036326408 0.17874725162982941
0.21257217228412628 0.11684073507785797 0.21996277570724487
0.51540660858154297 0.24033305048942566 0.32310304045677185
0.7792554497718811 0.29251033067703247 0.38301286101341248
0.88244456052780151 0.27196106314659119 0.37376496195793152
0.13882973790168762 0.23790954053401947 0.25445488095283508
0.26537474989891052 0.26730567216873169 0.26903912425041199
0.60909068584442139 0.3520028293132782 0.36133089661598206
0.83846026659011841 0.42045918107032776 0.42579802870750427
0.90483123064041138 0.43598821759223938 0.42672911286354065
0.29012766480445862 0.49927514791488647 0.36641982197761536
0.43888744711875916 0.60438638925552368 0.44589382410049438
0.71973687410354614 0.70480644702911377 0.49251171946525574
0.89527899026870728 0.67113423347473145 0.51357275247573853
0.96411103010177612 0.65797728300094604 0.50482684373855591
0.3651885986328125 0.68552196025848389 0.41318368911743164
0.55392652750015259 0.73655015230178833 0.46566596627235413
0.74166244268417358 0.8236045241355896 0.54863256216049194
0.89526468515396118 0.8194279670715332 0.56358706951141357
0.9755173921585083 0.81580394506454468 0.55906373262405396
0.36578965187072754 0.84071463346481323 0.40776553750038147
0.54840648174285889 0.85183221101760864 0.45108819007873535
0.70175480842590332 0.87509721517562866 0.51969438791275024
0.85559719800949097 0.89188313484191895 0.56261438131332397
0.96570074558258057 0.89922088384628296 0.56820839643478394
0.018264850601553917 0.049539156258106232 0.39435377717018127
0.11954803764820099 0.087085291743278503 0.41577988862991333
0.47271943092346191 0.23338396847248077 0.47762218117713928
0.77192246913909912 0.31590074300765991 0.50231552124023438
0.89474987983703613 0.30867597460746765 0.50476610660552979
0.091324262320995331 0.20916202664375305 0.45053988695144653
0.16817480325698853 0.19852606952190399 0.45578950643539429
0.56208425760269165 0.3655276894569397 0.51996469497680664
0.84811335802078247 0.46724271774291992 0.53754347562789917
0.92759561538696289 0.48389890789985657 0.53946423530578613
0.23877298831939697 0.45863112807273865 0.54625940322875977
0.40663847327232361 0.55231398344039917 0.61450207233428955
0.67572891712188721 0.67507475614547729 0.67684537172317505
0.98879581689834595 0.64650291204452515 0.63517802953720093
0.97577172517776489 0.65329205989837646 0.60022062063217163
0.3630373477935791 0.68734347820281982 0.59424048662185669
0.54472929239273071 0.73756152391433716 0.64496076107025146
0.72347038984298706 0.83664363622665405 0.70707422494888306
0.91811734437942505 0.88346266746520996 0.71080154180526733
0.99235254526138306 0.87078404426574707 0.68258869647979736
0.36425021290779114 0.83670169115066528 0.58806461095809937
0.55348420143127441 0.85382920503616333 0.62492787837982178
0.73673361539840698 0.89773905277252197 0.6667482852935791
0.88433873653411865 0.94271057844161987 0.71954160928726196
0.9768378734588623 0.93434083461761475 0.71190172433853149
0.11678424477577209 0.11467813700437546 0.57327008247375488
0.20026573538780212 0.13560491800308228 0.59528988599777222
0.39179790019989014 0.20288878679275513 0.66089820861816406
0.64590352773666382 0.2947249710559845 0.70026701688766479
0.84416049718856812 0.31202894449234009 0.69264388084411621
0.17357863485813141 0.23567835986614227 0.62075710296630859
0.24171486496925354 0.22237035632133484 0.62066638469696045
0.4613969624042511 0.34357991814613342 0.69675832986831665
0.6953587532043457 0.46947035193443298 0.73412090539932251
0.85173916816711426 0.48982766270637512 0.72651141881942749
0.25542464852333069 0.50904816389083862 0.73550945520401001
0.36390960216522217 0.5548134446144104 0.77951586246490479
0.60556674003601074 0.61115843057632446 0.81946760416030884
0.78468799591064453 0.66969794034957886 0.80507200956344604
0.88925987482070923 0.68032503128051758 0.77868974208831787
0.33293512463569641 0.68007862567901611 0.77518659830093384
0.47906193137168884 0.7087370753288269 0.81348854303359985
0.67313599586486816 0.79060101509094238 0.84826743602752686
0.86655795574188232 0.86781072616577148 0.86841017007827759
0.95967203378677368 0.85905218124389648 0.82177948951721191
0.32480627298355103 0.80959212779998779 0.7649153470993042
0.49940821528434753 0.81938141584396362 0.78682321310043335
0.703083336353302 0.87860798835754395 0.82031005620956421
0.86647284030914307 0.94393622875213623 0.85337138175964355
0.97970986366271973 0.97092068195343018 0.85514628887176514
0.17124411463737488 0.15114636719226837 0.74451601505279541
0.296611487865448 0.17937773466110229 0.74689400196075439
0.46747595071792603 0.25054943561553955 0.81318438053131104
0.64526540040969849 0.30963587760925293 0.87910455465316772
0.79178547859191895 0.29444348812103271 0.89458304643630981
0.22555887699127197 0.28692588210105896 0.76651096343994141
0.35221847891807556 0.29628092050552368 0.75833368301391602
0.50556772947311401 0.38586217164993286 0.82347989082336426
0.66695100069046021 0.4741637110710144 0.89468538761138916
0.78972500562667847 0.47154501080513 0.9052048921585083
0.26817384362220764 0.53212732076644897 0.8447079062461853
0.41204392910003662 0.56066441535949707 0.85318660736083984
0.58884686231613159 0.53920817375183105 0.88625282049179077
0.72761380672454834 0.64229708909988403 0.92599296569824219
0.82969444990158081 0.66665607690811157 0.92499470710754395
0.31397178769111633 0.67412906885147095 0.8782045841217041
0.47249925136566162 0.69925510883331299 0.88940852880477905
0.67107367515563965 0.74672305583953857 0.92698323726654053
0.81733191013336182 0.81755024194717407 0.97162097692489624
0.90907531976699829 0.8385690450668335 0.94791924953460693
0.32041862607002258 0.81196492910385132 0.8913305401802063
0.49893191456794739 0.82234382629394531 0.90395253896713257
0.69829517602920532 0.86579746007919312 0.92942339181900024
0.84223073720932007 0.91565299034118652 0.95240068435668945
0.95744407176971436 0.95820099115371704 0.95861858129501343
