LUTs/Fuji Superia 400 4 ++.cube
# Created by: G'MIC (https://gmic.eu)
TITLE "Fuji Superia 400 4 ++"
# LUT size
LUT_3D_SIZE 32
# Data domain
DOMAIN_MIN 0.0 0.0 0.0
DOMAIN_MAX 1.0 1.0 1.0
# LUT data points
0.020242601633071899 0.07467101514339447 0.065913178026676178
0.026716476306319237 0.075645230710506439 0.0658588707447052
0.040512803941965103 0.076821424067020416 0.066142469644546509
0.06139041855931282 0.078250899910926819 0.0659007728099823
0.085280038416385651 0.080056868493556976 0.065986774861812592
0.10962805896997452 0.081756442785263062 0.066000260412693024
0.13669358193874359 0.083486519753932953 0.065850444138050079
0.16468216478824615 0.084712080657482147 0.065360799431800842
0.19636708498001099 0.085505172610282898 0.064729169011116028
0.22958956658840179 0.085432074964046478 0.064035683870315552
0.26942196488380432 0.084488674998283386 0.063216432929039001
0.31391802430152893 0.08159281313419342 0.06174083799123764
0.35739567875862122 0.07644372433423996 0.060106620192527771
0.40874841809272766 0.068377450108528137 0.058013986796140671
0.45753735303878784 0.05676492303609848 0.05532367154955864
0.51155352592468262 0.038849383592605591 0.051549986004829407
0.56374579668045044 0.017698295414447784 0.047407150268554688
0.6175307035446167 0.0020902578253298998 0.041551355272531509
0.67127507925033569 2.0556590243359096e-05 0.034054897725582123
0.72653651237487793 0 0.024731840938329697
0.7712286114692688 0 0.016446789726614952
0.81514108180999756 0 0.0076063810847699642
0.85520142316818237 0 0.0017769664991647005
0.8904765248298645 0 6.3215135014615953e-05
0.92634040117263794 3.2161260605789721e-06 0
0.95841449499130249 0.0013244840083643794 0
0.98871886730194092 0.025251530110836029 0
0.99982887506484985 0.067778095602989197 0
0.99998360872268677 0.10664611309766769 0
0.99993103742599487 0.14137311279773712 0
0.99998176097869873 0.17506444454193115 0
0.99998986721038818 0.20552404224872589 0
0.019655896350741386 0.080266468226909637 0.067581869661808014
0.025437498465180397 0.081844203174114227 0.066938102245330811
0.041330497711896896 0.084347017109394073 0.066075839102268219
0.063541904091835022 0.085970394313335419 0.065568029880523682
0.087543666362762451 0.087554931640625 0.06551070511341095
0.11107724905014038 0.088772185146808624 0.065060339868068695
0.13777713477611542 0.090384267270565033 0.064928561449050903
0.16579224169254303 0.0915999636054039 0.064579419791698456
0.19807316362857819 0.092561446130275726 0.06417711079120636
0.2315620481967926 0.092666909098625183 0.063399620354175568
0.2711951732635498 0.091877289116382599 0.062195524573326111
0.31573709845542908 0.089586570858955383 0.061064217239618301
0.35893884301185608 0.085505552589893341 0.059164818376302719
0.41004770994186401 0.078620046377182007 0.056866258382797241
0.45813062787055969 0.069309771060943604 0.05426604300737381
0.51119363307952881 0.055566322058439255 0.050691477954387665
0.56287211179733276 0.037567012012004852 0.046086188405752182
0.6176026463508606 0.016160309314727783 0.039963126182556152
0.67124766111373901 0.0031451170798391104 0.031955327838659286
0.72610306739807129 0.00036317869671620429 0.022806013002991676
0.77046388387680054 1.0890842531807721e-05 0.014249281026422977
0.814095139503479 0 0.0055938600562512875
0.85405051708221436 1.017801650959882e-06 0.00092804880114272237
0.88998734951019287 0.00020017687347717583 1.628005520615261e-05
0.92561930418014526 0.00251923524774611 0
0.95755970478057861 0.016118602827191353 0
0.98782068490982056 0.051996324211359024 0
0.99978131055831909 0.087821438908576965 0
0.99999642372131348 0.12091359496116638 0
0.99999791383743286 0.15235938131809235 0
0.9999803900718689 0.18388500809669495 0
0.9999890923500061 0.21288418769836426 0
0.018402686342597008 0.090580478310585022 0.070227287709712982
0.023240739479660988 0.092103511095046997 0.069820418953895569
0.036801550537347794 0.096315950155258179 0.067796841263771057
0.062739267945289612 0.10008308291435242 0.065579921007156372
0.089533597230911255 0.10059273988008499 0.064181186258792877
0.11487797647714615 0.10051765292882919 0.064015783369541168
0.14252638816833496 0.10123000293970108 0.06367223709821701
0.17052468657493591 0.1022028923034668 0.063378304243087769
0.20250798761844635 0.10295272618532181 0.062654085457324982
0.23568208515644073 0.10341328382492065 0.062298230826854706
0.27532252669334412 0.10301610827445984 0.061139408499002457
0.31955671310424805 0.10103966295719147 0.059370297938585281
0.36299073696136475 0.098321326076984406 0.057764772325754166
0.41353091597557068 0.093175552785396576 0.055632051080465317
0.46107470989227295 0.086478367447853088 0.052778113633394241
0.51405692100524902 0.076181456446647644 0.048499714583158493
0.5656934380531311 0.063556671142578125 0.043656833469867706
0.62254124879837036 0.047233752906322479 0.036472097039222717
0.67561197280883789 0.031088352203369141 0.028320839628577232
0.72885036468505859 0.018004527315497398 0.018667597323656082
0.77224916219711304 0.011961956508457661 0.010157577693462372
0.81578856706619263 0.0097746280953288078 0.0029506743885576725
0.85587483644485474 0.012241394259035587 0.00031110228155739605
0.89123237133026123 0.019355624914169312 1.1505340324902136e-07
0.92687505483627319 0.035792272537946701 0
0.95873451232910156 0.059413719922304153 0
0.98859578371047974 0.087452925741672516 0
0.99980366230010986 0.11436105519533157 0
0.99999219179153442 0.14177064597606659 0
0.99993586540222168 0.16960422694683075 0
0.99999356269836426 0.19806045293807983 0
0.99999642372131348 0.22528287768363953 0
0.015705978497862816 0.10464489459991455 0.073452375829219818
0.02145739272236824 0.10587327927350998 0.073559083044528961
0.031880050897598267 0.10926023870706558 0.071510776877403259
0.05518929660320282 0.1145734041929245 0.068238392472267151
0.087949097156524658 0.11963231861591339 0.064628958702087402
0.11795254796743393 0.12005966156721115 0.063163071870803833
0.14693669974803925 0.11823630332946777 0.062493219971656799
0.17508378624916077 0.11690422892570496 0.061815209686756134
0.20741651952266693 0.11689771711826324 0.061078045517206192
0.24128857254981995 0.11749247461557388 0.060520157217979431
0.28143706917762756 0.11740117520093918 0.059380948543548584
0.32572939991950989 0.11649581044912338 0.05758361890912056
0.36900952458381653 0.11473874002695084 0.055946487933397293
0.41977551579475403 0.1109883040189743 0.053044598549604416
0.46753227710723877 0.10614472627639771 0.049809474498033524
0.52021247148513794 0.099017702043056488 0.04512348398566246
0.57324838638305664 0.090839430689811707 0.039184410125017166
0.63266587257385254 0.081680536270141602 0.031019415706396103
0.68407171964645386 0.072871111333370209 0.022091466933488846
0.73551654815673828 0.064978271722793579 0.0125062121078372
0.77789199352264404 0.060650274157524109 0.0049940701574087143
0.82024973630905151 0.059649895876646042 0.00071849708911031485
0.85916662216186523 0.063608773052692413 2.3181364667834714e-05
0.89433413743972778 0.072302050888538361 0
0.92979109287261963 0.086705811321735382 0
0.96119135618209839 0.10315393656492233 0
0.99045020341873169 0.12363678961992264 0
0.99998819828033447 0.14512082934379578 0
0.99998998641967773 0.16851575672626495 0
0.99999392032623291 0.19222079217433929 0
0.99997442960739136 0.21786217391490936 0
1 0.24340683221817017 0
0.013676309026777744 0.11958993971347809 0.077295459806919098
0.020062493160367012 0.12001755833625793 0.077981345355510712
0.029087865725159645 0.12268960475921631 0.076984524726867676
0.045872695744037628 0.12784415483474731 0.073800601065158844
0.074470296502113342 0.13402320444583893 0.069011315703392029
0.1119755357503891 0.14126904308795929 0.064101316034793854
0.14853866398334503 0.14313168823719025 0.061363961547613144
0.17904104292392731 0.14006194472312927 0.060022458434104919
0.21186336874961853 0.13669700920581818 0.059074927121400833
0.24556428194046021 0.13550037145614624 0.05853402242064476
0.28641951084136963 0.13566277921199799 0.057134021073579788
0.33072143793106079 0.13531355559825897 0.05473564937710762
0.37400561571121216 0.13440516591072083 0.052682604640722275
0.42391222715377808 0.13245303928852081 0.049736049026250839
0.47056710720062256 0.129450723528862 0.045965537428855896
0.52293676137924194 0.12517914175987244 0.040607422590255737
0.57886552810668945 0.12090412527322769 0.03308655321598053
0.63699924945831299 0.11651074141263962 0.024125263094902039
0.68637067079544067 0.11255213618278503 0.015276915393769741
0.73619365692138672 0.10957986861467361 0.0065470077097415924
0.77723431587219238 0.10791830718517303 0.0013365746708586812
0.81906050443649292 0.1086195632815361 5.4850523156346753e-05
0.85804742574691772 0.11182588338851929 1.4113216195710265e-07
0.89308583736419678 0.11793507635593414 0
0.92812037467956543 0.12800610065460205 0
0.95991367101669312 0.1401951014995575 0
0.98935306072235107 0.15617872774600983 0
0.99991822242736816 0.17353838682174683 0
0.99999535083770752 0.1932189017534256 0
0.99999779462814331 0.21369343996047974 0
0.99999940395355225 0.23715192079544067 0
1 0.26046422123908997 0
0.012535096146166325 0.13856829702854156 0.083513788878917694
0.019588956609368324 0.13859531283378601 0.083990097045898438
0.029087137430906296 0.13958582282066345 0.083714768290519714
0.042906370013952255 0.14406484365463257 0.080945700407028198
0.066099159419536591 0.1505548357963562 0.076486967504024506
0.099282756447792053 0.15861019492149353 0.070802129805088043
0.1441960334777832 0.16846059262752533 0.063222214579582214
0.18392571806907654 0.17160806059837341 0.058700844645500183
0.22009657323360443 0.16809558868408203 0.056409455835819244
0.2537197470664978 0.16340318322181702 0.055011902004480362
0.29222053289413452 0.15918831527233124 0.05350176990032196
0.33600631356239319 0.15726359188556671 0.05113523080945015
0.37922376394271851 0.15703140199184418 0.048431809991598129
0.42913663387298584 0.15632791817188263 0.044160276651382446
0.4769444465637207 0.15532262623310089 0.039391458034515381
0.53376287221908569 0.1540360152721405 0.03207043930888176
0.58998274803161621 0.15275681018829346 0.023722454905509949
0.6449093222618103 0.15128384530544281 0.014396670274436474
0.69210487604141235 0.14969544112682343 0.0065722824074327946
0.74047082662582397 0.14870075881481171 0.0013618229422718287
0.78078955411911011 0.14887303113937378 0.00016037859313655645
0.82182997465133667 0.1499989926815033 2.4161212763829099e-07
0.86012786626815796 0.15300433337688446 0
0.8944588303565979 0.15814557671546936 0
0.92967045307159424 0.16636104881763458 0
0.96108418703079224 0.17659957706928253 0
0.99005323648452759 0.18982429802417755 0
0.99994558095932007 0.20457708835601807 0
0.99997794628143311 0.22174714505672455 0
0.99999481439590454 0.24008870124816895 0
1 0.26068881154060364 0
0.99997460842132568 0.28228750824928284 0
0.010661660693585873 0.15894898772239685 0.089866861701011658
0.01813761331140995 0.15950210392475128 0.090765818953514099
0.029344154521822929 0.15939308702945709 0.090848803520202637
0.042351435869932175 0.16239272058010101 0.088924936950206757
0.061082929372787476 0.16877619922161102 0.084702052175998688
0.088143229484558105 0.1767614334821701 0.079618602991104126
0.12636825442314148 0.18652673065662384 0.072104662656784058
0.17520004510879517 0.19934366643428802 0.061967875808477402
0.22593650221824646 0.2069835364818573 0.053017232567071915
0.26403030753135681 0.20354194939136505 0.049622159451246262
0.30508112907409668 0.19798451662063599 0.046651300042867661
0.34602570533752441 0.19107727706432343 0.044198408722877502
0.38540798425674438 0.18623998761177063 0.041772902011871338
0.43705430626869202 0.18552577495574951 0.035941533744335175
0.48982283473014832 0.18709512054920197 0.02848297543823719
0.54723763465881348 0.18856270611286163 0.019584622234106064
0.60035735368728638 0.18884614109992981 0.010829431936144829
0.65224260091781616 0.1886412650346756 0.00354198575951159
0.697468101978302 0.18833565711975098 0.00068392744287848473
0.74367880821228027 0.18854540586471558 2.349476380913984e-05
0.78270983695983887 0.18930406868457794 9.0508677885736688e-08
0.82276409864425659 0.19042839109897614 0
0.86075907945632935 0.19344508647918701 0
0.89505302906036377 0.19798398017883301 0
0.92976409196853638 0.20510862767696381 0
0.96076393127441406 0.21326464414596558 0
0.9898565411567688 0.22479361295700073 0
0.99995392560958862 0.23757494986057281 0
0.9999699592590332 0.25262188911437988 0
1 0.2685968279838562 0
1 0.2868354320526123 0
0.99999904632568359 0.30682367086410522 0
0.0079972231760621071 0.18069502711296082 0.096610113978385925
0.015670118853449821 0.18155427277088165 0.097228437662124634
0.027721645310521126 0.1807478666305542 0.09748532623052597
0.042203620076179504 0.182246133685112 0.096958190202713013
0.058609969913959503 0.18810033798217773 0.093504868447780609
0.081483542919158936 0.19625923037528992 0.088491462171077728
0.11460483074188232 0.20657418668270111 0.08120322972536087
0.15666988492012024 0.21899108588695526 0.071839019656181335
0.21423713862895966 0.23583193123340607 0.056520406156778336
0.26943549513816833 0.24647431075572968 0.042191572487354279
0.31749051809310913 0.24525415897369385 0.034649409353733063
0.36373832821846008 0.23954226076602936 0.029120577499270439
0.40679588913917542 0.23373377323150635 0.024820780381560326
0.45438411831855774 0.22689265012741089 0.020644526928663254
0.50042587518692017 0.22293755412101746 0.015107573010027409
0.55389773845672607 0.22280201315879822 0.0069704554043710232
0.60547792911529541 0.22365650534629822 0.0017778822220861912
0.65569615364074707 0.22431169450283051 0.00016157286881934851
0.69896048307418823 0.22451470792293549 3.1651193239667919e-06
0.74407166242599487 0.22522938251495361 0
0.78217786550521851 0.22579385340213776 0
0.82188773155212402 0.22745810449123383 0
0.85952651500701904 0.22999003529548645 0
0.89345335960388184 0.23390690982341766 0
0.92804700136184692 0.24004559218883514 0
0.95885670185089111 0.24727129936218262 0
0.98847699165344238 0.2571740448474884 0
0.99988126754760742 0.26803475618362427 0
0.99997353553771973 0.28100419044494629 0
0.99998539686203003 0.29521703720092773 0
1 0.31178119778633118 0
0.99997496604919434 0.3294140100479126 0
0.0024564818013459444 0.20946761965751648 0.10443517565727234
0.0097630834206938744 0.21072934567928314 0.10525276511907578
0.023250682279467583 0.20984137058258057 0.10558822005987167
0.040948938578367233 0.20970652997493744 0.10596948117017746
0.058078885078430176 0.21371880173683167 0.10379034280776978
0.078071825206279755 0.22196349501609802 0.098678156733512878
0.10672257095575333 0.23232869803905487 0.09148484468460083
0.14344464242458344 0.24468596279621124 0.082581132650375366
0.19293934106826782 0.26036018133163452 0.069177418947219849
0.25589409470558167 0.28164768218994141 0.046622965484857559
0.33153751492500305 0.30366063117980957 0.016818655654788017
0.38704097270965576 0.30317875742912292 0.0073902886360883713
0.43275177478790283 0.29784560203552246 0.0039323787204921246
0.48120680451393127 0.28941002488136292 0.0018259221687912941
0.52255052328109741 0.27954950928688049 0.0011692361440509558
0.56556874513626099 0.26862707734107971 0.00037492968840524554
0.61046642065048218 0.26378867030143738 1.3611245776701253e-05
0.65991145372390747 0.26401284337043762 2.5635600309215079e-07
0.70335328578948975 0.26487186551094055 0
0.74755299091339111 0.26573023200035095 0
0.78515505790710449 0.26639607548713684 0
0.82415580749511719 0.26779553294181824 0
0.86117494106292725 0.27008333802223206 0
0.89462125301361084 0.27338454127311707 0
0.92899185419082642 0.27891802787780762 0
0.95952117443084717 0.28535285592079163 0
0.98857927322387695 0.29387599229812622 0
0.99988514184951782 0.30353820323944092 0
0.99999785423278809 0.31516805291175842 0
0.99993604421615601 0.32772836089134216 0
0.99999147653579712 0.34218737483024597 0
0.99999874830245972 0.35912838578224182 0
0.00022527750115841627 0.23711122572422028 0.11167521774768829
0.0029526525177061558 0.23915849626064301 0.1127791553735733
0.014557002112269402 0.23850664496421814 0.11329396069049835
0.034121178090572357 0.23800000548362732 0.11370366811752319
0.055337503552436829 0.23979149758815765 0.11305439472198486
0.074256375432014465 0.24816296994686127 0.10857384651899338
0.10071602463722229 0.26013711094856262 0.10207314044237137
0.13544197380542755 0.27482551336288452 0.09305834025144577
0.18269051611423492 0.29341542720794678 0.079959690570831299
0.23938916623592377 0.31355467438697815 0.060018539428710938
0.31705978512763977 0.34062883257865906 0.02418341301381588
0.40077430009841919 0.36465150117874146 0.0013206291478127241
0.4557901918888092 0.36554202437400818 2.0585326637956314e-05
0.50475394725799561 0.35649681091308594 1.7580160829311353e-06
0.54644906520843506 0.3458067774772644 0
0.58785158395767212 0.33179432153701782 0
0.62387210130691528 0.31678476929664612 0
0.66247183084487915 0.30543267726898193 0
0.70148575305938721 0.30173149704933167 0
0.74531978368759155 0.30176445841789246 0
0.78284895420074463 0.30207926034927368 0
0.82189595699310303 0.30327212810516357 0
0.8591386079788208 0.30547645688056946 0
0.89258533716201782 0.30837148427963257 0
0.92661887407302856 0.3132111132144928 0
0.95674091577529907 0.31891289353370667 0
0.98640376329421997 0.32647201418876648 0
0.99965918064117432 0.33472719788551331 0
0.99996328353881836 0.34478554129600525 0
0.99996572732925415 0.35593360662460327 0
0.99999773502349854 0.36927011609077454 0
1 0.38477605581283569 0
6.2895861674405751e-07 0.27586826682090759 0.12107222527265549
5.3877607570029795e-05 0.27853062748908997 0.12238764762878418
0.0025362959131598473 0.27856999635696411 0.1226600781083107
0.019052879884839058 0.2785584032535553 0.12370944768190384
0.047406170517206192 0.27886614203453064 0.12469617277383804
0.070276536047458649 0.28559377789497375 0.12154159694910049
0.096049048006534576 0.29856905341148376 0.11497457325458527
0.12928999960422516 0.31352949142456055 0.1059543713927269
0.17335008084774017 0.33136403560638428 0.093189023435115814
0.22509567439556122 0.35021674633026123 0.074702590703964233
0.29257047176361084 0.37339699268341064 0.043538179248571396
0.3766530454158783 0.4011608362197876 0.0069180275313556194
0.46263334155082703 0.42943960428237915 2.5056358936126344e-05
0.52450239658355713 0.43013310432434082 0
0.56654608249664307 0.41894170641899109 0
0.60802626609802246 0.40410742163658142 0
0.6454121470451355 0.38849541544914246 0
0.68020814657211304 0.37123677134513855 0
0.70906120538711548 0.35516712069511414 0
0.74334293603897095 0.34359467029571533 0
0.77910745143890381 0.34117195010185242 0
0.81891477108001709 0.34155359864234924 0
0.85664397478103638 0.34342348575592041 0
0.89020794630050659 0.34622284770011902 0
0.92388010025024414 0.35001543164253235 0
0.95415335893630981 0.35494297742843628 0
0.98392802476882935 0.36157560348510742 0
0.99938082695007324 0.36872291564941406 0
0.99999076128005981 0.37728214263916016 0
0.99993294477462769 0.38755929470062256 0
0.99995476007461548 0.39924648404121399 0
0.99995768070220947 0.41283857822418213 0
0 0.32033011317253113 0.13204273581504822
0 0.32564476132392883 0.13384449481964111
3.4601922379806638e-05 0.32553848624229431 0.13430510461330414
0.0038869697600603104 0.32469919323921204 0.13502195477485657
0.027743818238377571 0.32376539707183838 0.135942742228508
0.061610180884599686 0.32589423656463623 0.1349359005689621
0.089546598494052887 0.33596733212471008 0.12901899218559265
0.12128822505474091 0.34987428784370422 0.12033232301473618
0.16307705640792847 0.36681601405143738 0.10820785164833069
0.21126945316791534 0.38510087132453918 0.091773934662342072
0.27253687381744385 0.40678825974464417 0.065375559031963348
0.34581288695335388 0.43042585253715515 0.023371214047074318
0.42328774929046631 0.45469483733177185 0.00097019766690209508
0.51999390125274658 0.4857143759727478 3.5072110904366127e-07
0.58416992425918579 0.49266862869262695 0
0.62735545635223389 0.47880828380584717 0
0.66457474231719971 0.46239537000656128 0
0.70001047849655151 0.44491815567016602 0
0.72988277673721313 0.42829614877700806 0
0.75939679145812988 0.40949386358261108 0
0.78484290838241577 0.39346721768379211 0
0.81702589988708496 0.38311505317687988 0
0.85346716642379761 0.38239434361457825 0
0.88802802562713623 0.3848508894443512 0
0.92263871431350708 0.38856911659240723 0
0.95277255773544312 0.39261889457702637 0
0.98219281435012817 0.39815413951873779 0
0.99907302856445312 0.40439504384994507 0
0.99996590614318848 0.41235080361366272 0
0.999988853931427 0.42144465446472168 0
0.9999929666519165 0.43203791975975037 0
0.99999457597732544 0.44466462731361389 0
0 0.36071234941482544 0.14217814803123474
0 0.36683037877082825 0.14440023899078369
0 0.36627846956253052 0.14495085179805756
0.00011437005014158785 0.36553388833999634 0.14535349607467651
0.0087680220603942871 0.36442196369171143 0.14639954268932343
0.047063201665878296 0.36361855268478394 0.14667767286300659
0.083779662847518921 0.37043666839599609 0.14327117800712585
0.11537638306617737 0.3840157687664032 0.13492973148822784
0.15595415234565735 0.40080595016479492 0.12356124818325043
0.20188517868518829 0.41826906800270081 0.10893816500902176
0.25980466604232788 0.43893179297447205 0.086697392165660858
0.32762542366981506 0.46133089065551758 0.049888335168361664
0.39686894416809082 0.48253807425498962 0.010262986645102501
0.48319396376609802 0.50777614116668701 0.00022152735618874431
0.57338905334472656 0.53688156604766846 0
0.64026647806167603 0.54246020317077637 0
0.67931008338928223 0.52781057357788086 0
0.7142493724822998 0.50978440046310425 0
0.74342167377471924 0.49250993132591248 0
0.77373045682907104 0.4734686017036438 0
0.79887604713439941 0.45594388246536255 0
0.82515102624893188 0.43708795309066772 0
0.85292524099349976 0.42276498675346375 0
0.88355851173400879 0.41872194409370422 0
0.91753470897674561 0.42078933119773865 0
0.94827401638031006 0.42433279752731323 0
0.97850877046585083 0.42940595746040344 0
0.99823737144470215 0.43509218096733093 0
0.99992072582244873 0.4419894814491272 0
0.99998146295547485 0.4506746232509613 0
0.99994194507598877 0.46026062965393066 0
0.99994724988937378 0.47162503004074097 0
0 0.40458497405052185 0.15459908545017242
0 0.41035512089729309 0.15694959461688995
0 0.4103732705116272 0.1575738936662674
0 0.40968161821365356 0.1584240049123764
0.00092966936063021421 0.40844002366065979 0.15903247892856598
0.027485890313982964 0.40747097134590149 0.16004137694835663
0.077076025307178497 0.40932103991508484 0.15964435040950775
0.11057617515325546 0.42019155621528625 0.152901291847229
0.1493031233549118 0.43522343039512634 0.14236748218536377
0.19276893138885498 0.45121455192565918 0.12960182130336761
0.24665161967277527 0.47042882442474365 0.11128708720207214
0.3089776337146759 0.49097681045532227 0.083653286099433899
0.37239965796470642 0.51062417030334473 0.046068690717220306
0.44917407631874084 0.53250378370285034 0.0070611936971545219
0.52570754289627075 0.55320984125137329 5.2503004553727806e-05
0.61923706531524658 0.58145618438720703 0
0.68962001800537109 0.59271419048309326 0
0.7283971905708313 0.57841551303863525 0
0.75764453411102295 0.5616142749786377 0
0.78773397207260132 0.54261350631713867 0
0.81342601776123047 0.52529019117355347 0
0.84074091911315918 0.50653344392776489 0
0.86595284938812256 0.48869851231575012 0
0.88875406980514526 0.47289004921913147 0
0.91561001539230347 0.46246674656867981 0
0.94393450021743774 0.46045279502868652 0
0.97430676221847534 0.46435898542404175 0
0.996826171875 0.46937143802642822 0
0.99999547004699707 0.47602427005767822 0
0.99999815225601196 0.48372852802276611 0
0.9999963641166687 0.49243548512458801 0
0.99999594688415527 0.50271981954574585 0
0 0.44258776307106018 0.16689716279506683
0 0.44944164156913757 0.17009355127811432
0 0.44956609606742859 0.17083123326301575
0 0.44871640205383301 0.17173722386360168
9.0103649199591018e-06 0.4474017322063446 0.17216160893440247
