LUTs/Fuji Superia HG 1600.cube
# Created by: G'MIC (https://gmic.eu)
TITLE "Fuji Superia HG 1600"
# LUT size
LUT_3D_SIZE 32
# Data domain
DOMAIN_MIN 0.0 0.0 0.0
DOMAIN_MAX 1.0 1.0 1.0
# LUT data points
0.05687997117638588 0.051682271063327789 0.049482259899377823
0.10004715621471405 0.051837369799613953 0.050817407667636871
0.13077941536903381 0.051078915596008301 0.051241721957921982
0.15629854798316956 0.049221348017454147 0.051765043288469315
0.17978298664093018 0.047358609735965729 0.053244221955537796
0.19933520257472992 0.045485839247703552 0.053864791989326477
0.21978197991847992 0.043079476803541183 0.054992560297250748
0.24036297202110291 0.039268050342798233 0.055208351463079453
0.26145115494728088 0.034724440425634384 0.05490516871213913
0.28202304244041443 0.030441205948591232 0.054999209940433502
0.30540797114372253 0.027243791148066521 0.055492743849754333
0.33098989725112915 0.024269385263323784 0.055683329701423645
0.35624551773071289 0.023064650595188141 0.055884372442960739
0.38512533903121948 0.022358587011694908 0.055716291069984436
0.41269561648368835 0.023946575820446014 0.055628884583711624
0.44444912672042847 0.028594236820936203 0.055974531918764114
0.47667214274406433 0.034058030694723129 0.056103475391864777
0.51135396957397461 0.040296215564012527 0.055083122104406357
0.54303282499313354 0.046418216079473495 0.054044041782617569
0.57682669162750244 0.052979025989770889 0.052965294569730759
0.60699385404586792 0.059439405798912048 0.050935670733451843
0.63828694820404053 0.065977416932582855 0.049212273210287094
0.66779130697250366 0.071983411908149719 0.04742644727230072
0.69492584466934204 0.077863931655883789 0.044198788702487946
0.72218626737594604 0.083594165742397308 0.041899465024471283
0.74805009365081787 0.089399248361587524 0.038413025438785553
0.77480113506317139 0.095711201429367065 0.035020411014556885
0.80048394203186035 0.10132264345884323 0.031095666810870171
0.82843667268753052 0.10739591717720032 0.025362219661474228
0.85639309883117676 0.11355423182249069 0.020180249586701393
0.88628274202346802 0.12062449008226395 0.01369803212583065
0.91255474090576172 0.12700790166854858 0.009105222299695015
0.084982551634311676 0.10037917643785477 0.071123883128166199
0.11395016312599182 0.10107540339231491 0.071631848812103271
0.14155122637748718 0.10015258193016052 0.07212897390127182
0.16627386212348938 0.099345535039901733 0.072692573070526123
0.18949957191944122 0.098684273660182953 0.073523290455341339
0.20912404358386993 0.096765130758285522 0.074665732681751251
0.22972813248634338 0.094772174954414368 0.075450673699378967
0.25036180019378662 0.092064924538135529 0.075545445084571838
0.27167746424674988 0.088796146214008331 0.075551904737949371
0.29289320111274719 0.085109211504459381 0.075749941170215607
0.31644946336746216 0.080858193337917328 0.075967535376548767
0.34151741862297058 0.074282653629779816 0.076234392821788788
0.36406594514846802 0.065461531281471252 0.076513282954692841
0.38925296068191528 0.054849430918693542 0.076065182685852051
0.41300392150878906 0.045257337391376495 0.075228840112686157
0.44049757719039917 0.037354115396738052 0.074814200401306152
0.46991580724716187 0.03478444367647171 0.074758343398571014
0.50324589014053345 0.037024196237325668 0.073661282658576965
0.53470969200134277 0.042004216462373734 0.072908513247966766
0.56838589906692505 0.048322871327400208 0.071901410818099976
0.59840041399002075 0.054549854248762131 0.070008330047130585
0.62973666191101074 0.061154905706644058 0.068138368427753448
0.65907657146453857 0.06716630607843399 0.066420473158359528
0.68588632345199585 0.072951853275299072 0.063334748148918152
0.7133946418762207 0.078811608254909515 0.060571886599063873
0.73950409889221191 0.084777452051639557 0.056326247751712799
0.7666667103767395 0.091294780373573303 0.052522286772727966
0.79278922080993652 0.097198069095611572 0.047813896089792252
0.82070630788803101 0.10315272957086563 0.042073346674442291
0.84865349531173706 0.10943582653999329 0.035924043506383896
0.87873381376266479 0.11643916368484497 0.028119267895817757
0.90580010414123535 0.12314343452453613 0.020228296518325806
0.10725944489240646 0.13099981844425201 0.088014319539070129
0.12648971378803253 0.13184946775436401 0.088431842625141144
0.14864465594291687 0.13197414577007294 0.088665716350078583
0.17186412215232849 0.13162867724895477 0.08933798223733902
0.19433672726154327 0.13068948686122894 0.090482234954833984
0.21364583075046539 0.1298963874578476 0.091171689331531525
0.23499850928783417 0.12959332764148712 0.091730184853076935
0.25603178143501282 0.1284860372543335 0.092162393033504486
0.27811563014984131 0.12683083117008209 0.092294104397296906
0.30001369118690491 0.12518177926540375 0.092521563172340393
0.32479289174079895 0.12349976599216461 0.093161396682262421
0.35115218162536621 0.12019820511341095 0.093537166714668274
0.37561964988708496 0.11592704802751541 0.093823455274105072
0.40254941582679749 0.11042033135890961 0.093573868274688721
0.42662355303764343 0.10353329032659531 0.092975392937660217
0.45390522480010986 0.093217521905899048 0.09229009598493576
0.48028942942619324 0.080104902386665344 0.091648086905479431
0.50767642259597778 0.063845120370388031 0.090359561145305634
0.53344374895095825 0.052299626171588898 0.088649250566959381
0.5636933445930481 0.047908574342727661 0.087592624127864838
0.59256309270858765 0.051387187093496323 0.085870586335659027
0.62369638681411743 0.057826269418001175 0.084247738122940063
0.65289181470870972 0.063696585595607758 0.082849644124507904
0.67925721406936646 0.069129973649978638 0.080021433532238007
0.70644015073776245 0.075025252997875214 0.077137142419815063
0.73246544599533081 0.080796785652637482 0.073422819375991821
0.75930309295654297 0.087144374847412109 0.069388426840305328
0.78513705730438232 0.093141928315162659 0.064506515860557556
0.81343650817871094 0.099135696887969971 0.058208275586366653
0.84208828210830688 0.10567181557416916 0.050801653414964676
0.87261968851089478 0.11313650012016296 0.042630281299352646
0.89932948350906372 0.11966349184513092 0.034601286053657532
0.12628896534442902 0.15612985193729401 0.10374419391155243
0.14048904180526733 0.15668247640132904 0.10417724400758743
0.15743005275726318 0.15702560544013977 0.10426784306764603
0.17744328081607819 0.15701305866241455 0.10475046187639236
0.19867339730262756 0.15668289363384247 0.1054643839597702
0.21761123836040497 0.15637174248695374 0.10601978003978729
0.2391098290681839 0.15630777180194855 0.10680986940860748
0.26002556085586548 0.15562728047370911 0.10729080438613892
0.28222489356994629 0.15474161505699158 0.10755648463964462
0.30438083410263062 0.15403087437152863 0.10811680555343628
0.3297957181930542 0.15274421870708466 0.10889363288879395
0.35681629180908203 0.15140326321125031 0.10910110175609589
0.38179793953895569 0.14902424812316895 0.10930659621953964
0.40944477915763855 0.14615406095981598 0.10935144126415253
0.43502825498580933 0.14263713359832764 0.10930247604846954
0.4638984203338623 0.13705699145793915 0.10855336487293243
0.49233528971672058 0.1296011358499527 0.10765036195516586
0.52113676071166992 0.11876431107521057 0.10654261708259583
0.54624128341674805 0.10428662598133087 0.10508286207914352
0.57127940654754639 0.083208911120891571 0.10297590494155884
0.59361791610717773 0.066777601838111877 0.10113266855478287
0.62017238140106201 0.058937478810548782 0.099108152091503143
0.64787495136260986 0.06100376695394516 0.097777053713798523
0.67402571439743042 0.06590164452791214 0.095583543181419373
0.70112687349319458 0.071722723543643951 0.092971652746200562
0.72651565074920654 0.077375486493110657 0.089904554188251495
0.75317192077636719 0.083429329097270966 0.08611857146024704
0.77865242958068848 0.089366130530834198 0.081779100000858307
0.80637240409851074 0.095172777771949768 0.07597622275352478
0.83466631174087524 0.10138873010873795 0.068878702819347382
0.86500430107116699 0.10866604745388031 0.060056172311306
0.89213031530380249 0.11561458557844162 0.051076952368021011
0.14462384581565857 0.17910704016685486 0.11855126172304153
0.1555485874414444 0.1794864684343338 0.11912999302148819
0.16867586970329285 0.17977875471115112 0.11946714669466019
0.18438261747360229 0.17977988719940186 0.11952630430459976
0.20319218933582306 0.17977988719940186 0.11960598826408386
0.22175256907939911 0.17977988719940186 0.12020428478717804
0.24341647326946259 0.17974062263965607 0.12112282961606979
0.26358127593994141 0.17926286160945892 0.12158588320016861
0.28609779477119446 0.17875640094280243 0.12203474342823029
0.30837458372116089 0.17811888456344604 0.12238484621047974
0.33400753140449524 0.17740662395954132 0.12369666993618011
0.361258864402771 0.17655399441719055 0.1235569566488266
0.38668116927146912 0.17537355422973633 0.12340260297060013
0.41464504599571228 0.17347951233386993 0.1237693727016449
0.44076204299926758 0.1712164431810379 0.1240215077996254
0.47012871503829956 0.1676008552312851 0.123409703373909
0.49956685304641724 0.16311022639274597 0.12228876352310181
0.52988487482070923 0.15696880221366882 0.12190393358469009
0.5569005012512207 0.14877593517303467 0.12065516412258148
0.58468723297119141 0.13570022583007812 0.11868800967931747
0.60675114393234253 0.11844094842672348 0.11700943857431412
0.62756085395812988 0.092616945505142212 0.11404719203710556
0.64744645357131958 0.070271022617816925 0.11184859275817871
0.66972678899765015 0.064314179122447968 0.11003923416137695
0.69628405570983887 0.068784184753894806 0.10738825052976608
0.72154515981674194 0.074240252375602722 0.1049325168132782
0.74807637929916382 0.080214880406856537 0.10153986513614655
0.77324771881103516 0.086090557277202606 0.097808986902236938
0.80056071281433105 0.091881245374679565 0.092684291303157806
0.82844644784927368 0.097608707845211029 0.086406953632831573
0.85802406072616577 0.10466203093528748 0.078852951526641846
0.88463222980499268 0.11122290790081024 0.070747517049312592
0.15807957947254181 0.19969065487384796 0.13200715184211731
0.1669413149356842 0.19990088045597076 0.13228167593479156
0.17821650207042694 0.20011909306049347 0.13253198564052582
0.19155065715312958 0.20035913586616516 0.13266152143478394
0.20794862508773804 0.20053516328334808 0.13265854120254517
0.22664514183998108 0.2005363255739212 0.13284042477607727
0.24806328117847443 0.2005363255739212 0.13341246545314789
0.26777946949005127 0.20043468475341797 0.13406172394752502
0.29008451104164124 0.19997583329677582 0.13456337153911591
0.31251803040504456 0.19973327219486237 0.13518771529197693
0.33828666806221008 0.19947135448455811 0.13602669537067413
0.36576452851295471 0.19844622910022736 0.13617381453514099
0.39118883013725281 0.19759848713874817 0.13593706488609314
0.41926753520965576 0.19643403589725494 0.13648372888565063
0.44559848308563232 0.19476978480815887 0.13665604591369629
0.47532305121421814 0.19195789098739624 0.1363757848739624
0.50531965494155884 0.18856607377529144 0.13551665842533112
0.53609997034072876 0.18427993357181549 0.13523173332214355
0.56373447179794312 0.1786150187253952 0.13431344926357269
0.59267950057983398 0.16964797675609589 0.13248409330844879
0.61666733026504517 0.15855975449085236 0.13109700381755829
0.64054757356643677 0.14254160225391388 0.12852486968040466
0.66014266014099121 0.11859122663736343 0.12589941918849945
0.67563331127166748 0.091278605163097382 0.12340833246707916
0.69528573751449585 0.074434630572795868 0.12027358263731003
0.7178223729133606 0.072385765612125397 0.11784340441226959
0.74395984411239624 0.07744501531124115 0.11461745947599411
0.76897889375686646 0.08318813145160675 0.1114431768655777
0.79600828886032104 0.089090824127197266 0.10689759254455566
0.82354152202606201 0.094720296561717987 0.10131287574768066
0.85284775495529175 0.10133635252714157 0.094691351056098938
0.87899285554885864 0.10769136250019073 0.087491728365421295
0.16564619541168213 0.222885861992836 0.14394587278366089
0.17328251898288727 0.22328768670558929 0.14416785538196564
0.18408295512199402 0.223476842045784 0.14455068111419678
0.19763085246086121 0.22355341911315918 0.1446819007396698
0.21419994533061981 0.22363431751728058 0.14495307207107544
0.23297201097011566 0.22368490695953369 0.14510452747344971
0.25351673364639282 0.22371901571750641 0.1454596072435379
0.27291685342788696 0.22371134161949158 0.14598532021045685
0.29519963264465332 0.22360074520111084 0.14654290676116943
0.3177323043346405 0.22314248979091644 0.14696431159973145
0.34365689754486084 0.22273971140384674 0.14762444794178009
0.37114566564559937 0.22247755527496338 0.14801304042339325
0.39647021889686584 0.22185461223125458 0.14785468578338623
0.42481997609138489 0.22089727222919464 0.1482376903295517
0.45118612051010132 0.21943403780460358 0.14851731061935425
0.48123067617416382 0.21730694174766541 0.14845089614391327
0.51130998134613037 0.21449394524097443 0.14768481254577637
0.54231053590774536 0.21128754317760468 0.14745625853538513
0.5702979564666748 0.20686830580234528 0.14700111746788025
0.5998266339302063 0.20016337931156158 0.1458953469991684
0.62475359439849854 0.19257842004299164 0.14487473666667938
0.65038782358169556 0.18186201155185699 0.1427977979183197
0.67301046848297119 0.16756929457187653 0.1404646635055542
0.69102936983108521 0.14844968914985657 0.13807955384254456
0.70654571056365967 0.11839804798364639 0.13445505499839783
0.72001588344573975 0.088241912424564362 0.13108983635902405
0.74089056253433228 0.076879166066646576 0.12737433612346649
0.76507586240768433 0.080591060221195221 0.12461249530315399
0.79196834564208984 0.086328037083148956 0.12036170810461044
0.81925857067108154 0.091920442879199982 0.11555612832307816
0.84817147254943848 0.098366722464561462 0.1095462366938591
0.87398236989974976 0.10450012981891632 0.10311742871999741
0.17271004617214203 0.24451331794261932 0.15495952963829041
0.18063099682331085 0.24458929896354675 0.15516151487827301
0.19158980250358582 0.24485258758068085 0.15544790029525757
0.20507226884365082 0.24527399241924286 0.1555047482252121
0.22160173952579498 0.24565106630325317 0.15567904710769653
0.2400137186050415 0.24588468670845032 0.15601648390293121
0.25908482074737549 0.24602268636226654 0.15624788403511047
0.27869734168052673 0.24602508544921875 0.15653179585933685
0.30079039931297302 0.24586103856563568 0.15719395875930786
0.32352191209793091 0.2453712522983551 0.15780363976955414
0.34943723678588867 0.24471354484558105 0.15828326344490051
0.37684094905853271 0.24444545805454254 0.15882629156112671
0.40208700299263 0.24399295449256897 0.15881399810314178
0.43043982982635498 0.24314205348491669 0.15917830169200897
0.45706763863563538 0.24219231307506561 0.15931101143360138
0.48719093203544617 0.24023647606372833 0.1592775285243988
0.51718449592590332 0.23798137903213501 0.15862080454826355
0.5482979416847229 0.23487140238285065 0.15812233090400696
0.57645177841186523 0.23106884956359863 0.15765635669231415
0.60596472024917603 0.2257368415594101 0.15658916532993317
0.63114529848098755 0.21927244961261749 0.15592324733734131
0.65727221965789795 0.21075308322906494 0.15450906753540039
0.6808968186378479 0.19991616904735565 0.15273810923099518
0.7007906436920166 0.18710964918136597 0.15088005363941193
0.71973401308059692 0.1679086834192276 0.14784704148769379
0.73472744226455688 0.14165832102298737 0.14439405500888824
0.74774658679962158 0.10569535195827484 0.13990573585033417
0.7642022967338562 0.084938712418079376 0.13626226782798767
0.78875845670700073 0.084328591823577881 0.13225442171096802
0.81576621532440186 0.089640535414218903 0.12773999571800232
0.84461003541946411 0.095977343618869781 0.12198848277330399
0.87010699510574341 0.10192535072565079 0.11633774638175964
0.1837945282459259 0.26879885792732239 0.16619211435317993
0.19104892015457153 0.26881378889083862 0.16632361710071564
0.20137493312358856 0.26889446377754211 0.16679111123085022
0.2147027999162674 0.26910433173179626 0.16703291237354279
0.23112060129642487 0.26927226781845093 0.1672806590795517
0.24801589548587799 0.26935163140296936 0.16748233139514923
0.2662971019744873 0.26952230930328369 0.16795098781585693
0.28588658571243286 0.26962769031524658 0.16852162778377533
0.30783328413963318 0.26969987154006958 0.16900390386581421
0.33061137795448303 0.26946946978569031 0.16962549090385437
0.35642069578170776 0.26899552345275879 0.16972097754478455
0.38363653421401978 0.26875191926956177 0.16991567611694336
0.40881487727165222 0.26871800422668457 0.17005731165409088
0.43718662858009338 0.26822727918624878 0.17033204436302185
0.4638441801071167 0.26696133613586426 0.17028108239173889
0.49404829740524292 0.26532742381095886 0.16998745501041412
0.52404266595840454 0.26369652152061462 0.16988365352153778
0.55510586500167847 0.26043343544006348 0.16952306032180786
0.58343607187271118 0.25699877738952637 0.16883760690689087
0.61272817850112915 0.25209638476371765 0.16811096668243408
0.63797843456268311 0.24666011333465576 0.16701000928878784
0.66427218914031982 0.23908808827400208 0.16573536396026611
0.68824672698974609 0.23059259355068207 0.16443316638469696
0.70914065837860107 0.22072741389274597 0.16295349597930908
0.72974944114685059 0.20693002641201019 0.16090844571590424
0.74776118993759155 0.1898176372051239 0.15808314085006714
0.76399749517440796 0.16413120925426483 0.15407243371009827
0.77559632062911987 0.127444788813591 0.14948710799217224
0.78936856985092163 0.093046769499778748 0.14471502602100372
0.8128315806388855 0.087760135531425476 0.1400410532951355
0.84135258197784424 0.093651719391345978 0.13472123444080353
0.8665696382522583 0.099303141236305237 0.12962146103382111
0.1947191059589386 0.29414936900138855 0.17728833854198456
0.20186172425746918 0.29414936900138855 0.17742118239402771
0.21218624711036682 0.29414936900138855 0.17771109938621521
0.22531783580780029 0.29416239261627197 0.17789456248283386
0.2405315488576889 0.29418197274208069 0.17843486368656158
0.25596702098846436 0.29420849680900574 0.17867462337017059
0.27439093589782715 0.29429358243942261 0.17883826792240143
0.29355692863464355 0.2945081889629364 0.17933195829391479
0.31561890244483948 0.29471847414970398 0.17972157895565033
0.33819535374641418 0.29471093416213989 0.18030942976474762
0.36386322975158691 0.29443046450614929 0.18041995167732239
0.39078211784362793 0.29430460929870605 0.18065853416919708
0.41585934162139893 0.29416638612747192 0.18093264102935791
0.4442887008190155 0.29329326748847961 0.18101766705513
0.4710385799407959 0.29201316833496094 0.1811058521270752
0.50128120183944702 0.29069870710372925 0.18086440861225128
0.53120249509811401 0.28900620341300964 0.18072608113288879
0.56237220764160156 0.28583052754402161 0.18028417229652405
0.59037512540817261 0.28247779607772827 0.17953987419605255
0.61960810422897339 0.27805140614509583 0.17870664596557617
0.64475095272064209 0.27279546856880188 0.1778365820646286
0.67102962732315063 0.26623231172561646 0.17644681036472321
0.69517868757247925 0.25829789042472839 0.17515513300895691
0.71619725227355957 0.24972538650035858 0.17371517419815063
0.73750430345535278 0.23805321753025055 0.17190496623516083
0.75669509172439575 0.22438377141952515 0.16949467360973358
0.77541673183441162 0.20638655126094818 0.16664984822273254
0.79116350412368774 0.18281033635139465 0.16275618970394135
0.80353260040283203 0.14371258020401001 0.15765541791915894
0.81629312038421631 0.10450806468725204 0.15195883810520172
0.83903646469116211 0.092919148504734039 0.14625579118728638
0.86374348402023315 0.097229279577732086 0.14119741320610046
0.20787879824638367 0.32205536961555481 0.18915580213069916
0.21498966217041016 0.32218053936958313 0.18929392099380493
0.22499783337116241 0.32228603959083557 0.18948556482791901
0.23674869537353516 0.32244262099266052 0.18956290185451508
0.25012674927711487 0.32259577512741089 0.18990570306777954
0.26543617248535156 0.32270854711532593 0.19036424160003662
0.28377488255500793 0.32300290465354919 0.19062730669975281
0.30280816555023193 0.32333296537399292 0.19068586826324463
0.32503142952919006 0.32345578074455261 0.19074197113513947
0.34739887714385986 0.3235633373260498 0.19115851819515228
0.37268441915512085 0.32354503870010376 0.1916603296995163
0.39950644969940186 0.32324230670928955 0.19198009371757507
0.4243779182434082 0.32269316911697388 0.19210308790206909
0.45285215973854065 0.32182833552360535 0.19210036098957062
0.47970721125602722 0.32108885049819946 0.19208946824073792
0.50985699892044067 0.3194732666015625 0.19204196333885193
0.53974020481109619 0.31750082969665527 0.19180725514888763
0.57084184885025024 0.31466862559318542 0.19118894636631012
0.59844517707824707 0.31141018867492676 0.19069315493106842
0.62752795219421387 0.30701035261154175 0.19007432460784912
0.6524500846862793 0.30240467190742493 0.1891380101442337
0.67841887474060059 0.29614719748497009 0.18808089196681976
0.70274150371551514 0.28856402635574341 0.18677736818790436
0.72391843795776367 0.28060397505760193 0.18542663753032684
0.74542981386184692 0.27003023028373718 0.18355539441108704
0.76507216691970825 0.2586650550365448 0.18120275437831879
0.78507071733474731 0.24334912002086639 0.1786293238401413
0.8031233549118042 0.22577981650829315 0.17561972141265869
0.82016390562057495 0.20183542370796204 0.17161081731319427
0.83329731225967407 0.16380156576633453 0.16609491407871246
0.84373670816421509 0.11383633315563202 0.15922436118125916
0.86179471015930176 0.097233980894088745 0.15333065390586853
0.22248242795467377 0.35216322541236877 0.201273113489151
0.2285069078207016 0.35218068957328796 0.20130164921283722
0.2366950511932373 0.35218819975852966 0.20141448080539703
0.2472710907459259 0.35219565033912659 0.20156359672546387
0.26081198453903198 0.352213054895401 0.2018725574016571
0.27608314156532288 0.35254845023155212 0.20213024318218231
0.29382926225662231 0.35327258706092834 0.20257841050624847
0.31304419040679932 0.3536342978477478 0.20293629169464111
0.33495414257049561 0.35366037487983704 0.20304866135120392
0.35729086399078369 0.35368776321411133 0.20316840708255768
0.3825204074382782 0.35375499725341797 0.20352733135223389
0.40901991724967957 0.35374677181243896 0.20377114415168762
0.43374159932136536 0.35367387533187866 0.2039000540971756
0.4621371328830719 0.35310143232345581 0.20388378202915192
0.48903200030326843 0.35179984569549561 0.20379507541656494
0.5192645788192749 0.35031816363334656 0.20376838743686676
0.54921972751617432 0.34849566221237183 0.20360463857650757
0.58006495237350464 0.34587320685386658 0.20304220914840698
0.60747712850570679 0.34247925877571106 0.20249146223068237
0.63606095314025879 0.33810833096504211 0.20161333680152893
0.66075694561004639 0.33352181315422058 0.20092704892158508
0.68650692701339722 0.32751423120498657 0.20000597834587097
0.71077805757522583 0.31998255848884583 0.19856458902359009
0.73196321725845337 0.31221821904182434 0.19712746143341064
0.75359594821929932 0.30232498049736023 0.19531384110450745
0.77356332540512085 0.29180338978767395 0.19313378632068634
0.79402947425842285 0.2786138653755188 0.19054202735424042
0.81279414892196655 0.26267498731613159 0.18755315244197845
0.83169859647750854 0.24414466321468353 0.18391509354114532
0.84897512197494507 0.21943803131580353 0.17960873246192932
0.86278665065765381 0.17916837334632874 0.17361927032470703
0.87083876132965088 0.1303800642490387 0.16681356728076935
0.23391444981098175 0.37970426678657532 0.2121444046497345
0.23940420150756836 0.379749596118927 0.2121444046497345
0.24732989072799683 0.37980538606643677 0.21220062673091888
0.25796505808830261 0.37984785437583923 0.21246279776096344
0.2712026834487915 0.38005340099334717 0.21277245879173279
0.28557643294334412 0.38069435954093933 0.21317842602729797
0.30348601937294006 0.3809339702129364 0.2133118063211441
0.32248827815055847 0.38123980164527893 0.21367570757865906
0.34434616565704346 0.38180413842201233 0.21378618478775024
0.36654970049858093 0.38195255398750305 0.2140764594078064
0.39163196086883545 0.38227108120918274 0.21427333354949951
