LUTs/Fuji Superia 400 2.cube
# Created by: G'MIC (https://gmic.eu)
TITLE "Fuji Superia 400 2"
# LUT size
LUT_3D_SIZE 5
# Data domain
# LUT data points
DOMAIN_MIN 0.000000 0.000000 0.000000
DOMAIN_MAX 0.903226 0.903226 0.903226
0.0039611472748219967 0.043624661862850189 0.039593875408172607
0.14247643947601318 0.058214001357555389 0.03829624131321907
0.44958105683326721 0.0084260115399956703 0.02322988398373127
0.79453778266906738 0 0
0.99834150075912476 0.11122662574052811 0
0 0.16148543357849121 0.072040356695652008
0.13531199097633362 0.20283690094947815 0.040786474943161011
0.49405968189239502 0.20465543866157532 4.8362694542447571e-06
0.79883033037185669 0.21523377299308777 0
0.99749678373336792 0.28137698769569397 0
0 0.43520310521125793 0.14687024056911469
0.06608254462480545 0.44414600729942322 0.15050674974918365
0.48760643601417542 0.56284528970718384 0.00061938061844557524
0.81866598129272461 0.55532687902450562 0
0.98667252063751221 0.49825519323348999 0
0.14542658627033234 0.67771947383880615 0.32487684488296509
0.25401812791824341 0.6751856803894043 0.33021959662437439
0.44515654444694519 0.70957702398300171 0.31700810790061951
0.75241303443908691 0.78288102149963379 0.24704836308956146
0.99122524261474609 0.80003750324249268 0.036770183593034744
0.55113619565963745 0.86776673793792725 0.59870970249176025
0.5760379433631897 0.8668704628944397 0.60158497095108032
0.63878947496414185 0.86597281694412231 0.60974085330963135
0.75891804695129395 0.89837771654129028 0.60501319169998169
0.91125237941741943 0.92777389287948608 0.58685564994812012
0.0044241305440664291 0.051616460084915161 0.15882718563079834
0.14425131678581238 0.070645429193973541 0.15721450746059418
0.45254901051521301 0.0031903164926916361 0.17083948850631714
0.79859322309494019 3.4182787203462794e-05 0.17730529606342316
0.99812805652618408 0.1654355525970459 0.1671106219291687
0.0002986742474604398 0.19228936731815338 0.17878378927707672
0.1773538738489151 0.21143260598182678 0.1941179633140564
0.52023065090179443 0.2248084545135498 0.19149856269359589
0.80427378416061401 0.23681667447090149 0.16902218759059906
0.9974600076675415 0.30229386687278748 0.14499013125896454
0.068220220506191254 0.48049774765968323 0.29112571477890015
0.21275496482849121 0.48137274384498596 0.29153835773468018
0.50972288846969604 0.56167232990264893 0.25321266055107117
0.80569702386856079 0.52659320831298828 0.10715785622596741
0.98939597606658936 0.50506365299224854 0.032314307987689972
0.27395689487457275 0.69371289014816284 0.42071551084518433
0.34105032682418823 0.691669762134552 0.4249451756477356
0.48098784685134888 0.70729994773864746 0.42416003346443176
0.75726491212844849 0.78230983018875122 0.39730840921401978
0.98425930738449097 0.79362714290618896 0.29179868102073669
0.5788390040397644 0.87096089124679565 0.63411766290664673
0.60158872604370117 0.86994361877441406 0.63675618171691895
0.65751081705093384 0.86722749471664429 0.64309382438659668
0.7665780782699585 0.89689630270004272 0.64511358737945557
0.91214126348495483 0.92764246463775635 0.63688439130783081
0 0.065093405544757843 0.46495312452316284
0.18377204239368439 0.073176823556423187 0.4674321711063385
0.4860815703868866 0.08816228061914444 0.47641485929489136
0.76637852191925049 0.090552866458892822 0.47804543375968933
0.99534457921981812 0.15555714070796967 0.46633270382881165
0 0.19818930327892303 0.49925422668457031
0.21170687675476074 0.23093569278717041 0.5110626220703125
0.52218520641326904 0.28087052702903748 0.50916057825088501
0.78134644031524658 0.30383646488189697 0.50283432006835938
0.99480825662612915 0.32175552845001221 0.47465863823890686
0.0017567673930898309 0.51822304725646973 0.51240766048431396
0.25131809711456299 0.53410422801971436 0.52816307544708252
0.54309827089309692 0.55369222164154053 0.54667019844055176
0.78657633066177368 0.54667150974273682 0.51970195770263672
0.97552549839019775 0.55863362550735474 0.49926513433456421
0.44474592804908752 0.72494280338287354 0.59583455324172974
0.50605028867721558 0.7277827262878418 0.60668683052062988
0.57701981067657471 0.72120416164398193 0.59833711385726929
0.76969575881958008 0.78090149164199829 0.60630500316619873
0.96553581953048706 0.76814812421798706 0.52321863174438477
0.64131605625152588 0.88029462099075317 0.7138410210609436
0.65488934516906738 0.87958204746246338 0.7126731276512146
0.70017188787460327 0.87653172016143799 0.71510982513427734
0.78239667415618896 0.89144659042358398 0.72269392013549805
0.91565173864364624 0.92764532566070557 0.73140591382980347
0.026326097548007965 0.076650217175483704 0.73723065853118896
0.29319426417350769 0.080724991858005524 0.74122822284698486
0.56325924396514893 0.13827884197235107 0.73697739839553833
0.78323215246200562 0.25673431158065796 0.73232877254486084
0.95394158363342285 0.35544836521148682 0.72468501329421997
0.10225397348403931 0.23826701939105988 0.74978178739547729
0.32123994827270508 0.2542397677898407 0.75077569484710693
0.57788646221160889 0.31014996767044067 0.74493640661239624
0.78576666116714478 0.4005885124206543 0.74024194478988647
0.94854974746704102 0.46281656622886658 0.73368167877197266
0 0.4682449996471405 0.74051159620285034
0.18424925208091736 0.48276948928833008 0.74628674983978271
0.56819087266921997 0.54205572605133057 0.74805057048797607
0.77939724922180176 0.60262429714202881 0.74899303913116455
0.93877154588699341 0.63336330652236938 0.75269490480422974
0.37169945240020752 0.74361979961395264 0.73818641901016235
0.4525425136089325 0.74716204404830933 0.74239712953567505
0.60828250646591187 0.7544025182723999 0.75106334686279297
0.78568130731582642 0.77356040477752686 0.77009028196334839
0.93982106447219849 0.76830703020095825 0.75194978713989258
0.69531095027923584 0.89260941743850708 0.80809235572814941
0.7162548303604126 0.89304655790328979 0.81069731712341309
0.76733857393264771 0.89355456829071045 0.81770920753479004
0.81725424528121948 0.89161688089370728 0.815227210521698
0.9239768385887146 0.92803621292114258 0.83483970165252686
0.42082089185714722 0.19311198592185974 0.9195939302444458
0.50330895185470581 0.21575580537319183 0.91807800531387329
0.66784775257110596 0.29271969199180603 0.91287481784820557
0.83693391084671021 0.43701827526092529 0.90484774112701416
0.96070241928100586 0.5419500470161438 0.9006505012512207
0.43015044927597046 0.32744431495666504 0.91900253295898438
0.51171553134918213 0.34835013747215271 0.91800928115844727
0.66985118389129639 0.40579038858413696 0.91237425804138184
0.83458757400512695 0.51432877779006958 0.9046165943145752
0.95415389537811279 0.59891259670257568 0.90051215887069702
0.35258358716964722 0.5111391544342041 0.91272473335266113
0.47292482852935791 0.535392165184021 0.91204220056533813
0.65278679132461548 0.57362335920333862 0.90862131118774414
0.82509076595306396 0.64370512962341309 0.90385353565216064
0.94163131713867188 0.70490777492523193 0.90178513526916504
0.27855914831161499 0.71857714653015137 0.90258431434631348
0.36271342635154724 0.71608340740203857 0.90335226058959961
0.5342828631401062 0.70953422784805298 0.90416401624679565
0.79831385612487793 0.76477104425430298 0.90399974584579468
0.93072861433029175 0.8197096586227417 0.90671294927597046
0.64362305402755737 0.90457576513290405 0.90267843008041382
0.66984552145004272 0.90488040447235107 0.90328091382980347
0.73739039897918701 0.90659624338150024 0.90584367513656616
0.83305937051773071 0.91131538152694702 0.91117149591445923
0.93280917406082153 0.92491441965103149 0.92385441064834595
