LUTs/Fuji 800Z 1 -.cube
# Created by: G'MIC (https://gmic.eu)
TITLE "Fuji 800Z 1 -"
# LUT size
LUT_3D_SIZE 5
# Data domain
# LUT data points
DOMAIN_MIN 0.000000 0.000000 0.000000
DOMAIN_MAX 0.903226 0.903226 0.903226
0.014097020030021667 0.014087729156017303 0.011282917112112045
0.20018747448921204 0.0097536602988839149 0.010973528027534485
0.49866881966590881 0 0.0029356474988162518
0.75734871625900269 0 0
0.93841993808746338 0 0
0.0037822709418833256 0.17029747366905212 0.033489197492599487
0.16945315897464752 0.20307943224906921 0.008226301521062851
0.48481115698814392 0.21317654848098755 0
0.73782742023468018 0.19557014107704163 0
0.92403781414031982 0.22055238485336304 0
0.00070304406108334661 0.38398405909538269 0.094128027558326721
0.14903324842453003 0.37198784947395325 0.098684996366500854
0.41016426682472229 0.45265135169029236 0.019365936517715454
0.69955140352249146 0.48444885015487671 0
0.88411551713943481 0.46831703186035156 0
0.1543477326631546 0.55428010225296021 0.19387134909629822
0.21652601659297943 0.54086267948150635 0.19326469302177429
0.36218076944351196 0.56253969669342041 0.18896840512752533
0.61947464942932129 0.63868933916091919 0.17155066132545471
0.86496496200561523 0.69257485866546631 0.11687827110290527
0.37115943431854248 0.73930597305297852 0.35709899663925171
0.39804711937904358 0.73340356349945068 0.35559788346290588
0.46254709362983704 0.71921694278717041 0.35228955745697021
0.6246567964553833 0.76980191469192505 0.36991158127784729
0.81936818361282349 0.83321768045425415 0.38301646709442139
0.048047523945569992 0.027437517419457436 0.1694180816411972
0.22469383478164673 0.015881028026342392 0.18296326696872711
0.54071319103240967 0 0.18140344321727753
0.76955711841583252 0 0.19899214804172516
0.94010818004608154 0.0075165769085288048 0.20145490765571594
0.0019654708448797464 0.2240876704454422 0.18892437219619751
0.23265011608600616 0.23291893303394318 0.199793741106987
0.51541221141815186 0.23138460516929626 0.19920355081558228
0.749278724193573 0.22688229382038116 0.19428904354572296
0.92651623487472534 0.25447779893875122 0.19417561590671539
0.16405537724494934 0.44141131639480591 0.23590351641178131
0.24525944888591766 0.42117774486541748 0.23284558951854706
0.44384628534317017 0.4673389196395874 0.22609594464302063
0.70130431652069092 0.48223674297332764 0.18023905158042908
0.88804066181182861 0.47755184769630432 0.16892161965370178
0.23988637328147888 0.58513337373733521 0.28539898991584778
0.2851177453994751 0.57180345058441162 0.28165158629417419
0.39118561148643494 0.56717264652252197 0.27591556310653687
0.63085126876831055 0.64331954717636108 0.2871953547000885
0.86449539661407471 0.69125407934188843 0.2641298770904541
0.3950754702091217 0.75000828504562378 0.40540876984596252
0.41978931427001953 0.74385780096054077 0.40268790721893311
0.47681465744972229 0.72585195302963257 0.3937009871006012
0.62735831737518311 0.76886391639709473 0.41413512825965881
0.82112318277359009 0.83472913503646851 0.43873941898345947
0.088911011815071106 0.053235806524753571 0.41870030760765076
0.26434612274169922 0.060394257307052612 0.42818716168403625
0.53019660711288452 0.053922884166240692 0.45941376686096191
0.81196975708007812 0 0.4612700343132019
0.96398293972015381 0.12680992484092712 0.44826266169548035
0.10168605297803879 0.22329819202423096 0.4274914562702179
0.28626266121864319 0.25029325485229492 0.43979305028915405
0.53104996681213379 0.27624255418777466 0.46626502275466919
0.79536956548690796 0.26994732022285461 0.46956813335418701
0.94329148530960083 0.3081662654876709 0.46127671003341675
0.13117961585521698 0.49564948678016663 0.45677492022514343
0.29623612761497498 0.49982452392578125 0.46321868896484375
0.51142865419387817 0.50346976518630981 0.47331005334854126
0.72213530540466309 0.49893328547477722 0.46542716026306152
0.89998775720596313 0.50030136108398438 0.45790946483612061
0.36948391795158386 0.65525424480438232 0.48107805848121643
0.42392253875732422 0.64857661724090576 0.48548170924186707
0.48556271195411682 0.61339318752288818 0.45874205231666565
0.65809738636016846 0.65761148929595947 0.48016640543937683
0.86396509408950806 0.68321788311004639 0.45581421256065369
0.45732942223548889 0.78442943096160889 0.52998894453048706
0.47772520780563354 0.77731102705001831 0.52430522441864014
0.52538257837295532 0.75680643320083618 0.50712710618972778
0.63088983297348022 0.76430505514144897 0.50764858722686768
0.82671648263931274 0.83894222974777222 0.54986953735351562
0.23919335007667542 0.12015992403030396 0.63799965381622314
0.34967237710952759 0.13328666985034943 0.64384287595748901
0.5501062273979187 0.17349062860012054 0.65467661619186401
0.75891762971878052 0.22278431057929993 0.67992675304412842
0.95094668865203857 0.24225512146949768 0.68511813879013062
0.26805278658866882 0.26777690649032593 0.63932830095291138
0.36562621593475342 0.27781012654304504 0.64406883716583252
0.55147647857666016 0.30858764052391052 0.65532863140106201
0.75119376182556152 0.351767897605896 0.68113434314727783
0.94436955451965332 0.37063536047935486 0.69041866064071655
0.18226434290409088 0.43896973133087158 0.62491422891616821
0.30536735057830811 0.44850790500640869 0.63231503963470459
0.53134095668792725 0.49318403005599976 0.65197128057479858
0.72929859161376953 0.53650468587875366 0.68058681488037109
0.93496447801589966 0.55442267656326294 0.70244067907333374
0.34937828779220581 0.68491274118423462 0.66721636056900024
0.41790279746055603 0.68559426069259644 0.66964209079742432
0.55116146802902222 0.68599569797515869 0.67397224903106689
0.70827317237854004 0.68902438879013062 0.68339157104492188
0.88489276170730591 0.6851237416267395 0.67610710859298706
0.52322322130203247 0.84825742244720459 0.70311474800109863
0.54873675107955933 0.84488552808761597 0.70197290182113647
0.61002451181411743 0.83222448825836182 0.69457650184631348
0.66694319248199463 0.78824228048324585 0.65344315767288208
0.83952313661575317 0.84860903024673462 0.69037026166915894
0.45745527744293213 0.25671654939651489 0.83424121141433716
0.51367717981338501 0.26686537265777588 0.83515053987503052
0.63806110620498657 0.29824739694595337 0.83736723661422729
0.78960788249969482 0.3631947934627533 0.84235471487045288
0.93819063901901245 0.41046327352523804 0.85851448774337769
0.45624238252639771 0.34995359182357788 0.83200985193252563
0.51136547327041626 0.35809755325317383 0.8335081934928894
0.63346379995346069 0.38243305683135986 0.83602654933929443
0.78407543897628784 0.4343579113483429 0.8418695330619812
0.93139314651489258 0.47621089220046997 0.85808241367340088
0.39128756523132324 0.48483529686927795 0.82407969236373901
0.4671751856803894 0.49871328473091125 0.82643753290176392
0.60513263940811157 0.51826214790344238 0.83110165596008301
0.76696568727493286 0.55697894096374512 0.84008288383483887
0.91928482055664062 0.58997863531112671 0.85943508148193359
0.30542716383934021 0.65267789363861084 0.81965106725692749
0.36264702677726746 0.64855033159255981 0.81913518905639648
0.48962610960006714 0.63538181781768799 0.81757843494415283
0.72072821855545044 0.67287707328796387 0.83613133430480957
0.90463858842849731 0.72241455316543579 0.86363273859024048
0.46781811118125916 0.87258267402648926 0.85405981540679932
0.50325393676757812 0.87247782945632935 0.85462749004364014
0.59340941905975342 0.87299662828445435 0.85688894987106323
0.7271161675453186 0.87451004981994629 0.86160057783126831
0.8836403489112854 0.88008743524551392 0.87036269903182983
