LUTs/Fuji Superia HG 1600.cube
# Created by: G'MIC (https://gmic.eu)
TITLE "Fuji Superia HG 1600"
# LUT size
LUT_3D_SIZE 5
# Data domain
# LUT data points
DOMAIN_MIN 0.000000 0.000000 0.000000
DOMAIN_MAX 0.903226 0.903226 0.903226
0.05687997117638588 0.051682271063327789 0.049482259899377823
0.24036297202110291 0.039268050342798233 0.055208351463079453
0.41269561648368835 0.023946575820446014 0.055628884583711624
0.63828694820404053 0.065977416932582855 0.049212273210287094
0.82843667268753052 0.10739591717720032 0.025362219661474228
0.17271004617214203 0.24451331794261932 0.15495952963829041
0.27869734168052673 0.24602508544921875 0.15653179585933685
0.45706763863563538 0.24219231307506561 0.15931101143360138
0.65727221965789795 0.21075308322906494 0.15450906753540039
0.78875845670700073 0.084328591823577881 0.13225442171096802
0.25886738300323486 0.44104489684104919 0.23630328476428986
0.34499618411064148 0.44398069381713867 0.23785872757434845
0.51859366893768311 0.44786068797111511 0.23857469856739044
0.71267694234848022 0.42916849255561829 0.23458786308765411
0.86097294092178345 0.35726338624954224 0.21939204633235931
0.36597523093223572 0.64739996194839478 0.33975422382354736
0.43657031655311584 0.65270489454269409 0.34021440148353577
0.59555774927139282 0.66407155990600586 0.34022161364555359
0.76671874523162842 0.66885566711425781 0.33620917797088623
0.92713689804077148 0.65097856521606445 0.32146754860877991
0.49067142605781555 0.81994414329528809 0.46941947937011719
0.54460263252258301 0.82533586025238037 0.47000190615653992
0.66182833909988403 0.83612591028213501 0.47005394101142883
0.80301684141159058 0.84724181890487671 0.46731525659561157
0.96394556760787964 0.85323357582092285 0.45555359125137329
0.034799139946699142 0.067087702453136444 0.18819276988506317
0.20314241945743561 0.058256123214960098 0.19119112193584442
0.37574207782745361 0.027557356283068657 0.19208377599716187
0.59020578861236572 0.035941272974014282 0.18963153660297394
0.77463620901107788 0.074735857546329498 0.17663243412971497
0.14476306736469269 0.24909213185310364 0.24721211194992065
0.24986159801483154 0.24963659048080444 0.24936603009700775
0.43352785706520081 0.24682460725307465 0.25187915563583374
0.63461297750473022 0.21698784828186035 0.24845784902572632
0.758655846118927 0.069434560835361481 0.22939848899841309
0.22273813188076019 0.44285804033279419 0.31868651509284973
0.31600329279899597 0.44594687223434448 0.32027828693389893
0.49550026655197144 0.44853609800338745 0.32271003723144531
0.68994402885437012 0.43274909257888794 0.32001027464866638
0.83857250213623047 0.3614291250705719 0.30670639872550964
0.33541268110275269 0.64273166656494141 0.41243842244148254
0.40919169783592224 0.64823448657989502 0.4134153425693512
0.57196903228759766 0.6595224142074585 0.41461247205734253
0.7428247332572937 0.66492891311645508 0.41332021355628967
0.90332531929016113 0.64755702018737793 0.4025762677192688
0.46841534972190857 0.81593090295791626 0.52607101202011108
0.52351891994476318 0.82067334651947021 0.52678090333938599
0.64148032665252686 0.83145833015441895 0.52785325050354004
0.78269290924072266 0.84220808744430542 0.52729451656341553
0.94361698627471924 0.84746772050857544 0.51984190940856934
0.019068503752350807 0.083261534571647644 0.30505576729774475
0.17501434683799744 0.080284908413887024 0.31064504384994507
0.35130757093429565 0.058475710451602936 0.31323853135108948
0.54807943105697632 0.014516197144985199 0.3107125461101532
0.73059237003326416 0.047121517360210419 0.30218067765235901
0.1073007807135582 0.25632679462432861 0.37159517407417297
0.20351299643516541 0.25712659955024719 0.37525841593742371
0.39797449111938477 0.25390169024467468 0.38002079725265503
0.59928756952285767 0.22491203248500824 0.37995412945747375
0.72597086429595947 0.089337870478630066 0.36593124270439148
0.15511591732501984 0.44584006071090698 0.44656354188919067
0.26246744394302368 0.44949638843536377 0.44953349232673645
0.45428001880645752 0.45407792925834656 0.45403629541397095
0.65001106262207031 0.43964883685112 0.45603853464126587
0.79926198720932007 0.37050262093544006 0.44888845086097717
0.27574598789215088 0.63636952638626099 0.53383320569992065
0.3586975634098053 0.6414787769317627 0.53532761335372925
0.5285000205039978 0.65312469005584717 0.53889065980911255
0.69997960329055786 0.65899747610092163 0.54132860898971558
0.86102604866027832 0.64321029186248779 0.53745812177658081
0.42981791496276855 0.80970257520675659 0.62114787101745605
0.48627033829689026 0.81439709663391113 0.62229889631271362
0.60626876354217529 0.82477641105651855 0.62443625926971436
0.74869054555892944 0.8355974555015564 0.62615501880645752
0.91030114889144897 0.84082800149917603 0.62390869855880737
0.0045904573053121567 0.1045970693230629 0.45398494601249695
0.12768416106700897 0.10595812648534775 0.46187540888786316
0.31974935531616211 0.095860898494720459 0.4689173698425293
0.50600230693817139 0.033128034323453903 0.47032836079597473
0.66833728551864624 0.013808109797537327 0.46689748764038086
0.075592845678329468 0.27491486072540283 0.52067601680755615
0.14252851903438568 0.27657672762870789 0.52540379762649536
0.35337525606155396 0.27472919225692749 0.53220891952514648
0.55733954906463623 0.24599958956241608 0.53586018085479736
0.69584411382675171 0.14794078469276428 0.53071874380111694
0.083225540816783905 0.45735055208206177 0.58531653881072998
0.19062107801437378 0.46201181411743164 0.58777308464050293
0.40814980864524841 0.46890076994895935 0.59325158596038818
0.60796636343002319 0.45848557353019714 0.59776657819747925
0.76065200567245483 0.39689019322395325 0.59668099880218506
0.20854102075099945 0.63570988178253174 0.64960628747940063
0.30659270286560059 0.64125514030456543 0.65158182382583618
0.48716333508491516 0.6532968282699585 0.65585917234420776
0.66011530160903931 0.66014736890792847 0.660136878490448
0.82307964563369751 0.64784377813339233 0.66105729341506958
0.38856455683708191 0.80715769529342651 0.71795201301574707
0.44759237766265869 0.81198298931121826 0.71940302848815918
0.56986874341964722 0.82169753313064575 0.72254455089569092
0.7142830491065979 0.8328782320022583 0.72585546970367432
0.87778019905090332 0.8384016752243042 0.72734594345092773
0.00051708222599700093 0.14720903337001801 0.59477609395980835
0.099882237613201141 0.15016789734363556 0.60244077444076538
0.29198050498962402 0.14867371320724487 0.61030995845794678
0.49000862240791321 0.10794326663017273 0.6148066520690918
0.61267369985580444 0.00049276161007583141 0.61004006862640381
0.022461706772446632 0.31464821100234985 0.6474718451499939
0.082247987389564514 0.31882408261299133 0.65212869644165039
0.31947946548461914 0.32115253806114197 0.65952008962631226
0.53102010488510132 0.29681721329689026 0.66519796848297119
0.67517876625061035 0.20948830246925354 0.6645621657371521
0.020554795861244202 0.48284110426902771 0.70118671655654907
0.10638418793678284 0.48888084292411804 0.7043645977973938
0.36947137117385864 0.49906545877456665 0.71084785461425781
0.57597219944000244 0.49521329998970032 0.71756643056869507
0.73516595363616943 0.44746845960617065 0.71983182430267334
0.13108031451702118 0.64392179250717163 0.76022440195083618
0.24959386885166168 0.64982110261917114 0.76230406761169434
0.44645771384239197 0.66251832246780396 0.76776301860809326
0.6226116418838501 0.67074757814407349 0.77380460500717163
0.78864455223083496 0.66303962469100952 0.77792298793792725
0.33734101057052612 0.80807673931121826 0.82490724325180054
0.40113970637321472 0.81262236833572388 0.82663029432296753
0.52727705240249634 0.82295137643814087 0.83065831661224365
0.67480409145355225 0.83413410186767578 0.83593904972076416
0.84106826782226562 0.84088540077209473 0.84093368053436279
