LUTs/Fuji 160C 1-.cube
# Created by: G'MIC (https://gmic.eu)
TITLE "Fuji 160C 1-"
# LUT size
LUT_3D_SIZE 32
# Data domain
DOMAIN_MIN 0.0 0.0 0.0
DOMAIN_MAX 1.0 1.0 1.0
# LUT data points
0.010284588672220707 0.010500198230147362 0.011091652326285839
0.031913001090288162 0.01986578106880188 0.012144005857408047
0.06214049831032753 0.034659430384635925 0.013548503629863262
0.10149956494569778 0.056467644870281219 0.020431499928236008
0.14085890352725983 0.078335046768188477 0.029211485758423805
0.1769893616437912 0.10284304618835449 0.044875342398881912
0.21207559108734131 0.12811504304409027 0.06600663810968399
0.24786126613616943 0.15204940736293793 0.089026980102062225
0.28369709849357605 0.17430649697780609 0.11265704780817032
0.31903868913650513 0.19436870515346527 0.13650882244110107
0.35480532050132751 0.21278974413871765 0.15930947661399841
0.39141625165939331 0.23005574941635132 0.18091593682765961
0.42883503437042236 0.24620631337165833 0.20134446024894714
0.4667448103427887 0.26091447472572327 0.22039406001567841
0.50485676527023315 0.27385291457176208 0.23793187737464905
0.54301184415817261 0.28522002696990967 0.25431835651397705
0.58054006099700928 0.29491105675697327 0.26982444524765015
0.61768203973770142 0.30283579230308533 0.28442814946174622
0.65554356575012207 0.31017282605171204 0.298958420753479
0.69284611940383911 0.31824710965156555 0.31348514556884766
0.72580605745315552 0.32388728857040405 0.32330679893493652
0.75543642044067383 0.32694277167320251 0.32895258069038391
0.78232157230377197 0.32900160551071167 0.33247312903404236
0.80422532558441162 0.32919502258300781 0.33309251070022583
0.82203429937362671 0.32662868499755859 0.33041772246360779
0.83790159225463867 0.32228472828865051 0.32579138875007629
0.85306411981582642 0.31681889295578003 0.31999585032463074
0.86824029684066772 0.31067219376564026 0.31350702047348022
0.88378852605819702 0.30438178777694702 0.30687975883483887
0.89988166093826294 0.2980598509311676 0.30024293065071106
0.9166330099105835 0.29196545481681824 0.29388922452926636
0.93412983417510986 0.28587749600410461 0.28764188289642334
0.0096340542659163475 0.031133310869336128 0.0099763022735714912
0.028709214180707932 0.030379949137568474 0.008915177546441555
0.062648124992847443 0.037572178989648819 0.00985720194876194
0.10329075902700424 0.058289855718612671 0.014999605715274811
0.14266344904899597 0.082574374973773956 0.024286579340696335
0.17864221334457397 0.10925727337598801 0.042416457086801529
0.21474947035312653 0.13622680306434631 0.065167583525180817
0.25121203064918518 0.16190016269683838 0.089518032968044281
0.28659307956695557 0.18499098718166351 0.11534436792135239
0.32194390892982483 0.20604510605335236 0.14039897918701172
0.35815268754959106 0.22590792179107666 0.16406702995300293
0.39535018801689148 0.2447693943977356 0.18644720315933228
0.43328994512557983 0.26233062148094177 0.20736299455165863
0.47163265943527222 0.27812746167182922 0.22659760713577271
0.51015597581863403 0.29225575923919678 0.24452376365661621
0.54788738489151001 0.30436629056930542 0.26135280728340149
0.58469307422637939 0.31395962834358215 0.27683728933334351
0.62200087308883667 0.32225885987281799 0.29183885455131531
0.66051352024078369 0.33079656958580017 0.3076469898223877
0.69735932350158691 0.33939763903617859 0.32232320308685303
0.7297976016998291 0.34489518404006958 0.33156412839889526
0.75948053598403931 0.34835311770439148 0.33727005124092102
0.78584921360015869 0.35112461447715759 0.34114083647727966
0.80665546655654907 0.35102146863937378 0.34111160039901733
0.82373905181884766 0.3482738733291626 0.33793929219245911
0.8390389084815979 0.34383559226989746 0.33288037776947021
0.85374677181243896 0.33835119009017944 0.32669037580490112
0.86854678392410278 0.33235937356948853 0.31994420289993286
0.88373607397079468 0.32634827494621277 0.31317678093910217
0.8994792103767395 0.32042333483695984 0.30652457475662231
0.9159015417098999 0.31465151906013489 0.30012461543083191
0.93313294649124146 0.30874848365783691 0.29365229606628418
0.014938556589186192 0.060325548052787781 0.012480183504521847
0.018418263643980026 0.064131535589694977 0.007240640465170145
0.060203857719898224 0.062622509896755219 0.0076251835562288761
0.1074654832482338 0.068913966417312622 0.00797320157289505
0.14670385420322418 0.090722784399986267 0.01941169798374176
0.183815598487854 0.11794007569551468 0.03956657275557518
0.22121478617191315 0.14653989672660828 0.064014457166194916
0.25712278485298157 0.17323970794677734 0.092495612800121307
0.29254308342933655 0.19787624478340149 0.12099990993738174
0.32871329784393311 0.22112454473972321 0.14760231971740723
0.36582672595977783 0.2431190013885498 0.17235265672206879
0.40373608469963074 0.2636355459690094 0.19522762298583984
0.44216519594192505 0.28227809071540833 0.21614250540733337
0.48082759976387024 0.29894295334815979 0.23545470833778381
0.518562912940979 0.31320869922637939 0.25347051024436951
0.55496186017990112 0.32452809810638428 0.26995226740837097
0.59161770343780518 0.33423388004302979 0.28574779629707336
0.62945461273193359 0.34335577487945557 0.30176258087158203
0.6680673360824585 0.35269275307655334 0.3184787929058075
0.70380252599716187 0.36081328988075256 0.33214065432548523
0.73573911190032959 0.36609998345375061 0.34067821502685547
0.76516371965408325 0.37012472748756409 0.34655910730361938
0.78999334573745728 0.37274712324142456 0.34984853863716125
0.80940121412277222 0.37211203575134277 0.34891083836555481
0.82559037208557129 0.36910375952720642 0.34512552618980408
0.84026622772216797 0.36457818746566772 0.33958572149276733
0.85452687740325928 0.35916781425476074 0.33300948143005371
0.86895811557769775 0.35354039072990417 0.3261401355266571
0.88378846645355225 0.34793499112129211 0.31928369402885437
0.89918297529220581 0.34253436326980591 0.3127322793006897
0.91534292697906494 0.33698362112045288 0.30607113242149353
0.93227839469909668 0.33191230893135071 0.29993161559104919
0.031837537884712219 0.098167382180690765 0.022789807990193367
0.033459611237049103 0.10188156366348267 0.017331244423985481
0.058367140591144562 0.1021416187286377 0.013662341050803661
0.11059501767158508 0.10369275510311127 0.017911892384290695
0.15665601193904877 0.11244098842144012 0.025852147489786148
0.19433645904064178 0.13346171379089355 0.04195784404873848
0.23149070143699646 0.1614786684513092 0.069881036877632141
0.26758790016174316 0.18986906111240387 0.1019834578037262
0.30377262830734253 0.21661540865898132 0.13194587826728821
0.34059011936187744 0.24163070321083069 0.15918886661529541
0.37820997834205627 0.26500639319419861 0.18403162062168121
0.4165043830871582 0.28650787472724915 0.20659486949443817
0.45507127046585083 0.305654376745224 0.22718995809555054
0.49265697598457336 0.32172399759292603 0.2461744099855423
0.52863854169845581 0.33465296030044556 0.26360780000686646
0.56458514928817749 0.34593954682350159 0.2803615927696228
0.60146933794021606 0.3564220666885376 0.29708945751190186
0.63939136266708374 0.36603179574012756 0.3138522207736969
0.67729157209396362 0.37493744492530823 0.33010315895080566
0.71188360452651978 0.38231196999549866 0.34244856238365173
0.7431609034538269 0.38737007975578308 0.35022491216659546
0.77146816253662109 0.39173731207847595 0.35605856776237488
0.79419898986816406 0.39355435967445374 0.35808813571929932
0.81217437982559204 0.3923637866973877 0.3562157154083252
0.82744413614273071 0.38911893963813782 0.35178518295288086
0.84152477979660034 0.38460251688957214 0.34576129913330078
0.85538417100906372 0.37949171662330627 0.33891642093658447
0.86945849657058716 0.37437951564788818 0.33198311924934387
0.88393706083297729 0.3694358766078949 0.32528448104858398
0.89904063940048218 0.36439406871795654 0.31856727600097656
0.9150233268737793 0.35947391390800476 0.31187206506729126
0.93160450458526611 0.35559865832328796 0.3065650463104248
0.059474948793649673 0.13936690986156464 0.038552869111299515
0.059315040707588196 0.14056393504142761 0.030869815498590469
0.067289009690284729 0.14370617270469666 0.02716343104839325
0.1120184063911438 0.1490120142698288 0.039871241897344589
0.16674397885799408 0.15359754860401154 0.050835870206356049
0.20721893012523651 0.16569653153419495 0.060648959130048752
0.2453499436378479 0.1879885196685791 0.086661219596862793
0.28253751993179321 0.2141631692647934 0.11764544248580933
0.31921860575675964 0.24070994555950165 0.14684873819351196
0.35644689202308655 0.26653817296028137 0.17350445687770844
0.39444321393966675 0.29089900851249695 0.19759625196456909
0.4328988790512085 0.31279593706130981 0.21962094306945801
0.47027489542961121 0.330767422914505 0.23982292413711548
0.50576168298721313 0.3450005054473877 0.25808951258659363
0.54091101884841919 0.35764279961585999 0.27561435103416443
0.57674288749694824 0.36946466565132141 0.29307818412780762
0.61340469121932983 0.38011828064918518 0.3101256787776947
0.65077477693557739 0.38910964131355286 0.32645082473754883
0.68768692016601562 0.39710345864295959 0.34168869256973267
0.72099101543426514 0.40364524722099304 0.35258999466896057
0.75121903419494629 0.40858662128448486 0.35977077484130859
0.77753424644470215 0.41258400678634644 0.36486732959747314
0.79816478490829468 0.4134775698184967 0.36555463075637817
0.81478714942932129 0.41180968284606934 0.36278384923934937
0.82921403646469116 0.40845832228660583 0.35772734880447388
0.84279084205627441 0.4041462242603302 0.35126575827598572
0.85631006956100464 0.39963153004646301 0.34433817863464355
0.87005054950714111 0.39528033137321472 0.33754605054855347
0.88421535491943359 0.39091402292251587 0.33086273074150085
0.89917147159576416 0.38639286160469055 0.323905348777771
0.91497725248336792 0.38279509544372559 0.31797799468040466
0.93121260404586792 0.3794497549533844 0.31300988793373108
0.088426403701305389 0.17976301908493042 0.057540528476238251
0.091453798115253448 0.18127933144569397 0.054693859070539474
0.10252387821674347 0.18650606274604797 0.058930862694978714
0.13241325318813324 0.19463005661964417 0.071489773690700531
0.17623434960842133 0.20107942819595337 0.082559533417224884
0.21776863932609558 0.20996087789535522 0.090210840106010437
0.25754258036613464 0.22594806551933289 0.10965497046709061
0.29763561487197876 0.24706028401851654 0.13613101840019226
0.33631303906440735 0.27152153849601746 0.16303430497646332
0.37464174628257751 0.29714962840080261 0.18832452595233917
0.41325736045837402 0.32109466195106506 0.21205116808414459
0.45064392685890198 0.34052896499633789 0.23379801213741302
0.48580968379974365 0.35596579313278198 0.25318807363510132
0.52016568183898926 0.36973974108695984 0.27135539054870605
0.55483543872833252 0.38273754715919495 0.28923985362052917
0.59014463424682617 0.39449241757392883 0.30656257271766663
0.62615513801574707 0.40459877252578735 0.32306769490242004
0.66266834735870361 0.41222408413887024 0.33832719922065735
0.69842630624771118 0.41901737451553345 0.35240507125854492
0.73026871681213379 0.42461121082305908 0.36183717846870422
0.75906521081924438 0.42951887845993042 0.368763267993927
0.78294724225997925 0.43251907825469971 0.37250226736068726
0.80169421434402466 0.43262121081352234 0.37197327613830566
0.81712549924850464 0.43066605925559998 0.36837238073348999
0.83086389303207397 0.42744076251983643 0.36274421215057373
0.84407931566238403 0.4236680269241333 0.35601994395256042
0.85732114315032959 0.42004609107971191 0.34923267364501953
0.87076020240783691 0.41653278470039368 0.34265989065170288
0.88475430011749268 0.41271170973777771 0.3357313871383667
0.89970481395721436 0.40932941436767578 0.32913801074028015
0.91526669263839722 0.40682521462440491 0.32409954071044922
0.93118762969970703 0.40349599719047546 0.31892621517181396
0.12158559262752533 0.21985337138175964 0.084280021488666534
0.12977850437164307 0.22215202450752258 0.086923927068710327
0.14389410614967346 0.22836010158061981 0.093615099787712097
0.16659641265869141 0.23748737573623657 0.10366784781217575
0.193360835313797 0.24716608226299286 0.11105562746524811
0.22547532618045807 0.25785404443740845 0.11753247678279877
0.26519644260406494 0.27149677276611328 0.13207177817821503
0.30911967158317566 0.28852877020835876 0.15362314879894257
0.35231059789657593 0.30993488430976868 0.17839641869068146
0.3930058479309082 0.33263963460922241 0.20329481363296509
0.43099665641784668 0.35206583142280579 0.22655956447124481
0.46638411283493042 0.36851781606674194 0.24750776588916779
0.50039196014404297 0.38344576954841614 0.26667457818984985
0.53419685363769531 0.39739683270454407 0.28488007187843323
0.56835484504699707 0.41005021333694458 0.30238306522369385
0.60299861431121826 0.42097723484039307 0.31883856654167175
0.63806509971618652 0.42957943677902222 0.33407634496688843
0.67348194122314453 0.43571966886520386 0.34799569845199585
0.7079777717590332 0.44123828411102295 0.36091175675392151
0.73882651329040527 0.44563847780227661 0.36975610256195068
0.76596486568450928 0.44980204105377197 0.37637165188789368
0.78749930858612061 0.4517238438129425 0.37864413857460022
0.80464679002761841 0.45131513476371765 0.37704336643218994
0.81913560628890991 0.44938290119171143 0.37271332740783691
0.83242183923721313 0.44661548733711243 0.36663529276847839
0.84544181823730469 0.44380044937133789 0.35997951030731201
0.8584558367729187 0.44127541780471802 0.35359340906143188
0.87170028686523438 0.43842265009880066 0.34690690040588379
0.88576787710189819 0.43548917770385742 0.33995595574378967
0.90069293975830078 0.43358397483825684 0.33454626798629761
0.91595762968063354 0.4313216507434845 0.32961153984069824
0.93158537149429321 0.42798468470573425 0.32415780425071716
0.15437124669551849 0.25933706760406494 0.11200673878192902
0.16487866640090942 0.26226192712783813 0.11619756370782852
0.18020394444465637 0.26921930909156799 0.12330832332372665
0.19936880469322205 0.2789287269115448 0.13058768212795258
0.21663738787174225 0.29056084156036377 0.1342913955450058
0.2379583865404129 0.30399966239929199 0.13932877779006958
0.27283906936645508 0.31882649660110474 0.15109288692474365
0.3167622983455658 0.33437591791152954 0.16917906701564789
0.36432191729545593 0.35094234347343445 0.19175538420677185
0.40562617778778076 0.36854219436645508 0.21584205329418182
0.44171395897865295 0.38559237122535706 0.23841071128845215
0.47628679871559143 0.40139657258987427 0.25905773043632507
0.51030570268630981 0.41566565632820129 0.27792733907699585
0.54438996315002441 0.42833259701728821 0.29554563760757446
0.57862454652786255 0.43942734599113464 0.31214934587478638
0.61298376321792603 0.44857430458068848 0.32759690284729004
0.64751416444778442 0.45550331473350525 0.34182468056678772
0.68250811100006104 0.46142631769180298 0.35613268613815308
0.71574443578720093 0.46581140160560608 0.36836960911750793
0.74556028842926025 0.4678642749786377 0.3764045238494873
0.77124947309494019 0.4696083664894104 0.38183099031448364
0.79103279113769531 0.47068428993225098 0.38294199109077454
0.80694305896759033 0.47018763422966003 0.38042464852333069
0.82084637880325317 0.46867233514785767 0.37553244829177856
0.83398211002349854 0.46677869558334351 0.36931946873664856
0.84693366289138794 0.46525874733924866 0.36320120096206665
0.85977709293365479 0.46359843015670776 0.35697612166404724
0.87309300899505615 0.46146604418754578 0.35011851787567139
0.88737225532531738 0.45991900563240051 0.34412172436714172
0.90210819244384766 0.45873346924781799 0.33944898843765259
0.91707175970077515 0.45643627643585205 0.33426108956336975
0.93241530656814575 0.4530913233757019 0.32855254411697388
0.18328556418418884 0.29814979434013367 0.13618266582489014
0.19546101987361908 0.30182617902755737 0.14122538268566132
0.21120971441268921 0.30968171358108521 0.14799834787845612
0.22732259333133698 0.3200690746307373 0.15226313471794128
0.24182596802711487 0.33189022541046143 0.15437336266040802
0.26083818078041077 0.34594371914863586 0.15913735330104828
0.28997623920440674 0.36168098449707031 0.16862913966178894
0.32808017730712891 0.37675580382347107 0.18282477557659149
0.37095117568969727 0.39211538434028625 0.20222203433513641
0.40898683667182922 0.40916702151298523 0.22439101338386536
0.44364026188850403 0.42550086975097656 0.24581353366374969
0.47795933485031128 0.44006550312042236 0.26563793420791626
0.51316648721694946 0.45179498195648193 0.28346511721611023
0.54898887872695923 0.46202293038368225 0.30046403408050537
0.58433228731155396 0.47136977314949036 0.31734636425971985
0.61952006816864014 0.47829371690750122 0.33328551054000854
0.65531718730926514 0.48320081830024719 0.34878960251808167
0.69059848785400391 0.48777711391448975 0.36398804187774658
0.72240018844604492 0.49043148756027222 0.37501409649848938
0.75017863512039185 0.49074932932853699 0.381400465965271
0.77416211366653442 0.4900115430355072 0.3845382034778595
0.7933468222618103 0.4902593195438385 0.38492605090141296
0.80858302116394043 0.49014002084732056 0.38178524374961853
0.82233297824859619 0.48940137028694153 0.37661930918693542
0.8355984091758728 0.48877701163291931 0.37091121077537537
0.84851843118667603 0.48838415741920471 0.36538073420524597
0.86141782999038696 0.487344890832901 0.35904648900032043
0.87509047985076904 0.48617073893547058 0.35265457630157471
0.88944476842880249 0.48580506443977356 0.34806311130523682
0.90388935804367065 0.48463883996009827 0.34331247210502625
0.91858041286468506 0.48230260610580444 0.33789032697677612
0.93365621566772461 0.47893929481506348 0.3319648802280426
0.20850324630737305 0.33652624487876892 0.15700414776802063
0.22218726575374603 0.34117987751960754 0.16250862181186676
0.2375093400478363 0.34955605864524841 0.16747896373271942
0.25208172202110291 0.35958400368690491 0.17000232636928558
0.2671172022819519 0.37060216069221497 0.17245833575725555
0.28645879030227661 0.38454815745353699 0.17747494578361511
0.31239360570907593 0.40087911486625671 0.18568237125873566
0.34349709749221802 0.4176519513130188 0.19691699743270874
0.3765348494052887 0.43526139855384827 0.21267630159854889
0.41012513637542725 0.45159518718719482 0.23169881105422974
0.44509732723236084 0.4653019905090332 0.25092920660972595
0.48125460743904114 0.47648149728775024 0.26889118552207947
0.5182463526725769 0.48662784695625305 0.28670164942741394
0.5551336407661438 0.49603471159934998 0.30547139048576355
0.59098511934280396 0.50312083959579468 0.32329264283180237
0.62621688842773438 0.50747019052505493 0.33922368288040161
0.66166222095489502 0.51027131080627441 0.35422757267951965
0.69622457027435303 0.51329958438873291 0.36871302127838135
0.72660690546035767 0.51467603445053101 0.37859869003295898
0.7524755597114563 0.51415258646011353 0.38357061147689819
0.77459454536437988 0.51244246959686279 0.38458853960037231
0.79383641481399536 0.51168417930603027 0.38394260406494141
0.8093879222869873 0.51205796003341675 0.38081452250480652
0.82341295480728149 0.51230281591415405 0.37595364451408386
0.8369680643081665 0.51297014951705933 0.37130612134933472
0.85003316402435303 0.51314479112625122 0.3659270703792572
0.86340540647506714 0.5126146674156189 0.35977467894554138
0.87755966186523438 0.51264667510986328 0.35503089427947998
0.89175522327423096 0.51258134841918945 0.35089647769927979
0.90595906972885132 0.51134556531906128 0.3459477424621582
0.92041999101638794 0.50897747278213501 0.34035316109657288
0.93526208400726318 0.50561273097991943 0.33425143361091614
0.23039662837982178 0.37451955676078796 0.17473240196704865
0.24477885663509369 0.37961217761039734 0.17932412028312683
0.25970205664634705 0.38713803887367249 0.18256425857543945
0.27432143688201904 0.3953700065612793 0.18474435806274414
0.29056382179260254 0.40589916706085205 0.18775106966495514
0.31105166673660278 0.42065814137458801 0.1934959888458252
0.33593064546585083 0.43833273649215698 0.20183129608631134
0.36096292734146118 0.45628607273101807 0.21119736135005951
0.38602566719055176 0.47262895107269287 0.22191677987575531
0.41715764999389648 0.48640263080596924 0.23651875555515289
0.4528147280216217 0.49813124537467957 0.25355005264282227
0.48998266458511353 0.50946944952011108 0.27221676707267761
0.52685254812240601 0.51972359418869019 0.29203927516937256
0.56264793872833252 0.52733129262924194 0.3108966052532196
0.5973014235496521 0.5321614146232605 0.32759213447570801
0.63114237785339355 0.53486847877502441 0.34213435649871826
0.66528773307800293 0.53668504953384399 0.35602760314941406
0.69862461090087891 0.53890001773834229 0.36958411335945129
0.72745263576507568 0.53965288400650024 0.37827178835868835
0.75184857845306396 0.53899377584457397 0.38212907314300537
0.77271848917007446 0.53755062818527222 0.38206195831298828
0.79161864519119263 0.53661602735519409 0.38043573498725891
0.80805480480194092 0.53690254688262939 0.37754449248313904
0.82311636209487915 0.53761273622512817 0.3735712468624115
0.83734065294265747 0.53877323865890503 0.3696025013923645
0.85114067792892456 0.53914755582809448 0.36447736620903015
0.86554592847824097 0.53934544324874878 0.35976985096931458
0.88006812334060669 0.5401308536529541 0.35646927356719971
0.89413142204284668 0.54002785682678223 0.35227960348129272
0.90818899869918823 0.53876286745071411 0.34722328186035156
0.92246806621551514 0.53639805316925049 0.3415093719959259
0.93711024522781372 0.53304797410964966 0.33527421951293945
0.24841766059398651 0.41060933470726013 0.18812836706638336
0.26320475339889526 0.41480433940887451 0.19144523143768311
0.27818134427070618 0.42028781771659851 0.19389550387859344
0.29377630352973938 0.42777752876281738 0.19634981453418732
0.3120303750038147 0.43932455778121948 0.20051020383834839
0.33391031622886658 0.45523861050605774 0.20724442601203918
0.35635003447532654 0.47194239497184753 0.21462784707546234
0.37759280204772949 0.48704135417938232 0.22135967016220093
0.40096074342727661 0.50191694498062134 0.229461669921875
0.42924958467483521 0.51642411947250366 0.24066273868083954
0.46309816837310791 0.52999866008758545 0.25715011358261108
0.49894705414772034 0.54167443513870239 0.27697345614433289
0.53417009115219116 0.55038285255432129 0.2961999773979187
0.56830769777297974 0.55622053146362305 0.31348070502281189
0.6013520359992981 0.55978852510452271 0.32857447862625122
0.63369619846343994 0.56177902221679688 0.34180203080177307
0.66639971733093262 0.56319266557693481 0.35460609197616577
0.6980438232421875 0.56509536504745483 0.36700281500816345
0.72513031959533691 0.56578236818313599 0.37444359064102173
0.74859964847564697 0.56534171104431152 0.37761649489402771
0.76972371339797974 0.56449931859970093 0.37812653183937073
0.78888601064682007 0.56461310386657715 0.37775197625160217
0.80549103021621704 0.56483751535415649 0.37476825714111328
0.8211403489112854 0.56478250026702881 0.37004333734512329
0.83639425039291382 0.56543058156967163 0.36574333906173706
0.85154247283935547 0.56592756509780884 0.36144062876701355
0.86739051342010498 0.56700187921524048 0.35904920101165771
0.8822447657585144 0.56793886423110962 0.35626813769340515
0.89637184143066406 0.56781178712844849 0.35211926698684692
0.91034561395645142 0.56654995679855347 0.3470306396484375
0.92447090148925781 0.56420046091079712 0.34124836325645447
0.93893945217132568 0.56086444854736328 0.33493098616600037
0.26270902156829834 0.44251379370689392 0.19668969511985779
0.27800282835960388 0.44548872113227844 0.19963887333869934
0.29370769858360291 0.45037609338760376 0.2022460401058197
0.31118351221084595 0.4588242769241333 0.20573347806930542
0.33157360553741455 0.47157838940620422 0.21117769181728363
0.3528914749622345 0.48567166924476624 0.21729627251625061
0.37315255403518677 0.49878481030464172 0.22251881659030914
0.39448440074920654 0.51263529062271118 0.22855368256568909
0.41842293739318848 0.52809900045394897 0.23665638267993927
0.44483295083045959 0.54444777965545654 0.24800486862659454
0.47383126616477966 0.55921822786331177 0.2630736231803894
0.50657922029495239 0.57045227289199829 0.2808297872543335
0.53981757164001465 0.57830142974853516 0.29804104566574097
0.57247143983840942 0.58349466323852539 0.31377154588699341
