LUTs/Fuji 400H 2.cube
# Created by: G'MIC (https://gmic.eu)
TITLE "Fuji 400H 2"
# LUT size
LUT_3D_SIZE 5
# Data domain
# LUT data points
DOMAIN_MIN 0.000000 0.000000 0.000000
DOMAIN_MAX 0.903226 0.903226 0.903226
0.023400481790304184 0.025573756545782089 0.017632912844419479
0.19385859370231628 0.031639773398637772 0.017342682927846909
0.52508687973022461 0 0.0035296846181154251
0.8222200870513916 0 0
0.99095594882965088 0.1481788158416748 0
0 0.19610245525836945 0.016074217855930328
0.16936251521110535 0.20444445312023163 0.0040118074975907803
0.52791088819503784 0.2199377715587616 0
0.80706250667572021 0.2412651926279068 0
0.97868907451629639 0.31217795610427856 0
0 0.47344902157783508 0
0.010497252456843853 0.46334803104400635 1.3138245549271232e-06
0.46343967318534851 0.48288255929946899 0
0.75950372219085693 0.50591522455215454 0
0.94640469551086426 0.51591742038726807 0
0 0.68803703784942627 0.077859975397586823
0.037248913198709488 0.68023806810379028 0.10148555040359497
0.43145531415939331 0.67561930418014526 0.088477954268455505
0.69329655170440674 0.68605011701583862 0.00029491860186681151
0.90624821186065674 0.70606374740600586 0
0.26616793870925903 0.85843265056610107 0.33068287372589111
0.3463798463344574 0.85485285520553589 0.33967244625091553
0.48947539925575256 0.84685617685317993 0.36297962069511414
0.66687804460525513 0.85473960638046265 0.34141054749488831
0.85608929395675659 0.86595457792282104 0.30152207612991333
0.058116909116506577 0.038838766515254974 0.18226572871208191
0.22145092487335205 0.034421343356370926 0.19102835655212402
0.55364811420440674 0 0.19608981907367706
0.83300447463989258 5.0316689339524601e-06 0.22101470828056335
0.99014973640441895 0.1968521922826767 0.24099838733673096
0 0.22564016282558441 0.20349334180355072
0.22872655093669891 0.23398733139038086 0.20910601317882538
0.56360906362533569 0.23538365960121155 0.21210972964763641
0.81744003295898438 0.2579701840877533 0.20999996364116669
0.9790576696395874 0.33085036277770996 0.21999372541904449
0 0.5125887393951416 0.22786584496498108
0.15771420300006866 0.49916872382164001 0.2234390527009964
0.49978786706924438 0.50035268068313599 0.20232124626636505
0.77100777626037598 0.50838607549667358 0.14054436981678009
0.94891482591629028 0.52027028799057007 0.14108350872993469
0 0.70143759250640869 0.26618152856826782
0.19921940565109253 0.69347178936004639 0.27335837483406067
0.45671433210372925 0.6808168888092041 0.27654632925987244
0.69990313053131104 0.69133961200714111 0.23894880712032318
0.90780729055404663 0.70660942792892456 0.18728262186050415
0.30137664079666138 0.86182522773742676 0.40863037109375
0.37163189053535461 0.85847318172454834 0.41489887237548828
0.50269234180450439 0.84939581155776978 0.43202298879623413
0.66888219118118286 0.85516899824142456 0.4215206503868103
0.8563772439956665 0.86652755737304688 0.39308136701583862
0.088404737412929535 0.054382931441068649 0.47986361384391785
0.29692769050598145 0.037300251424312592 0.49091100692749023
0.59051740169525146 3.7563338992185891e-05 0.51625955104827881
0.83311837911605835 0 0.50018864870071411
0.99106073379516602 0.15974809229373932 0.49652546644210815
0.01432210486382246 0.22343650460243225 0.48811143636703491
0.30100062489509583 0.247136190533638 0.50282436609268188
0.59484052658081055 0.26384976506233215 0.52523344755172729
0.82593715190887451 0.24778835475444794 0.50809186697006226
0.97591179609298706 0.35640588402748108 0.51346784830093384
0 0.53076726198196411 0.5177990198135376
0.24934189021587372 0.53636080026626587 0.52392679452896118
0.57269638776779175 0.54350125789642334 0.53286075592041016
0.7802891731262207 0.54686993360519409 0.52767682075500488
0.94106096029281616 0.56049376726150513 0.52743399143218994
0.28868785500526428 0.73081213235855103 0.53690558671951294
0.40776604413986206 0.72572922706604004 0.54251253604888916
0.53323835134506226 0.70627093315124512 0.52407956123352051
0.71613603830337524 0.70653438568115234 0.51130205392837524
0.91042989492416382 0.70708775520324707 0.47691094875335693
0.39096593856811523 0.872353196144104 0.56340038776397705
0.43066918849945068 0.86961078643798828 0.5599096417427063
0.5403713583946228 0.86006301641464233 0.5653570294380188
0.67811495065689087 0.85613512992858887 0.56735646724700928
0.85989612340927124 0.86871957778930664 0.55241209268569946
0.31888121366500854 0.081906422972679138 0.71080517768859863
0.43838313221931458 0.078415922820568085 0.71587353944778442
0.64668369293212891 0.11160155385732651 0.72480559349060059
0.82934504747390747 0.19247367978096008 0.7367662787437439
0.97163218259811401 0.22121840715408325 0.71209007501602173
0.31877967715263367 0.26383966207504272 0.71020591259002686
0.43607684969902039 0.27110248804092407 0.71428978443145752
0.6384236216545105 0.30458331108093262 0.72311621904373169
0.81693828105926514 0.36187803745269775 0.73643845319747925
0.96217727661132812 0.37019923329353333 0.71319478750228882
0.15083669126033783 0.47175729274749756 0.69107562303543091
0.33576104044914246 0.48119071125984192 0.69785910844802856
0.60083675384521484 0.53125929832458496 0.71434241533279419
0.78556805849075317 0.57756310701370239 0.73319435119628906
0.94395196437835693 0.57081407308578491 0.71804273128509521
0.28656083345413208 0.72637093067169189 0.71873599290847778
0.39505147933959961 0.72726839780807495 0.72075057029724121
0.57716077566146851 0.73005121946334839 0.72442889213562012
0.76019012928009033 0.74072390794754028 0.73458337783813477
0.9163699746131897 0.73964720964431763 0.73056727647781372
0.45201551914215088 0.89393854141235352 0.72906136512756348
0.50424432754516602 0.8916163444519043 0.73051613569259644
0.61731159687042236 0.88412415981292725 0.73482668399810791
0.71829706430435181 0.86834633350372314 0.72242170572280884
0.87570106983184814 0.87380653619766235 0.71727800369262695
0.55047023296356201 0.25581198930740356 0.88033050298690796
0.60082602500915527 0.26923254132270813 0.88069742918014526
0.7083551287651062 0.31372767686843872 0.88072037696838379
0.83476531505584717 0.40197128057479858 0.8822401762008667
0.96795684099197388 0.45540899038314819 0.88672059774398804
0.54193991422653198 0.37127050757408142 0.87689739465713501
0.59153157472610474 0.38229617476463318 0.87749600410461426
0.69765478372573853 0.41587135195732117 0.87818706035614014
0.8254668116569519 0.48273232579231262 0.88017791509628296
0.95947104692459106 0.52416694164276123 0.88517904281616211
0.47833088040351868 0.528728187084198 0.86704033613204956
0.54721361398696899 0.5448535680770874 0.86800068616867065
0.66648977994918823 0.5681113600730896 0.87032949924468994
0.80490958690643311 0.61251997947692871 0.87570822238922119
0.9449579119682312 0.64221304655075073 0.88360869884490967
0.37148928642272949 0.68340235948562622 0.85900330543518066
0.43390032649040222 0.68225866556167603 0.85838663578033447
0.56645280122756958 0.68070465326309204 0.8564460277557373
0.76888459920883179 0.72693127393722534 0.86860305070877075
0.93148034811019897 0.76705610752105713 0.88478553295135498
0.43510353565216064 0.88315314054489136 0.87859749794006348
0.48372611403465271 0.88349950313568115 0.87872087955474854
0.59701460599899292 0.88464027643203735 0.87955641746520996
0.75024378299713135 0.88826626539230347 0.88215893507003784
0.92073410749435425 0.89829188585281372 0.89105069637298584
