LUTs/Fuji Superia X-Tra 800.cube
# Created by: G'MIC (https://gmic.eu)
TITLE "Fuji Superia X-Tra 800"
# LUT size
LUT_3D_SIZE 32
# Data domain
DOMAIN_MIN 0.0 0.0 0.0
DOMAIN_MAX 1.0 1.0 1.0
# LUT data points
0.019814666360616684 0.018762281164526939 0.015970993787050247
0.051096286624670029 0.016117596998810768 0.013684884645044804
0.084425397217273712 0.014140208251774311 0.012299241498112679
0.11583749204874039 0.012293089181184769 0.011177975684404373
0.14729282259941101 0.011079414747655392 0.0098964879289269447
0.17557193338871002 0.0096435733139514923 0.0086764972656965256
0.20526885986328125 0.0076953517273068428 0.0075471713207662106
0.23555287718772888 0.0063841450028121471 0.0065739811398088932
0.26531699299812317 0.00568759860470891 0.0059460229240357876
0.29287829995155334 0.0042366641573607922 0.0056603830307722092
0.32154104113578796 0.0030486935283988714 0.0055019482970237732
0.34950998425483704 0.0023360531777143478 0.0054249744862318039
0.37357866764068604 0.00099058542400598526 0.005995510146021843
0.40027889609336853 0.00040369745693169534 0.0066641531884670258
0.42484050989151001 7.7417331340257078e-05 0.0078325299546122551
0.45301181077957153 0 0.0097854556515812874
0.48218435049057007 0 0.011309723369777203
0.51403844356536865 0 0.013313735835254192
0.54358750581741333 0 0.015461228787899017
0.57583260536193848 0 0.018496505916118622
0.60451018810272217 0 0.021600989624857903
0.63478535413742065 0 0.026241624727845192
0.66346001625061035 0 0.032443113625049591
0.6889459490776062 0 0.039116457104682922
0.71396976709365845 0 0.04815993458032608
0.73653745651245117 0 0.058208052068948746
0.75910371541976929 0 0.070149451494216919
0.78042429685592651 0 0.081604205071926117
0.80280143022537231 0 0.094661414623260498
0.82552140951156616 0 0.10752613097429276
0.84993714094161987 0 0.12086479365825653
0.87177950143814087 0 0.13217012584209442
0.033697996288537979 0.053297057747840881 0.025696929544210434
0.060040179640054703 0.049931041896343231 0.023401468992233276
0.091553337872028351 0.046500593423843384 0.021600129082798958
0.12266084551811218 0.043134190142154694 0.019599106162786484
0.15369671583175659 0.039895839989185333 0.017466388642787933
0.18170078098773956 0.037113603204488754 0.015667900443077087
0.21168197691440582 0.034230951219797134 0.013823368586599827
0.24179752171039581 0.030881261453032494 0.012180858291685581
0.27159768342971802 0.027320206165313721 0.010961816646158695
0.29935747385025024 0.024578060954809189 0.0098613332957029343
0.32803323864936829 0.021693574264645576 0.0095357419922947884
0.35599341988563538 0.017581045627593994 0.0094117671251296997
0.38026386499404907 0.013047472573816776 0.0095290206372737885
0.40630891919136047 0.0092585086822509766 0.0097651276737451553
0.43011489510536194 0.0061840452253818512 0.01043175533413887
0.45752587914466858 0.004010466393083334 0.010818824172019958
0.48589646816253662 0.0018047188641503453 0.011051042936742306
0.51683801412582397 0.00054679258028045297 0.011705413460731506
0.54576414823532104 0.00014435808407142758 0.012185347266495228
0.57759654521942139 2.6217210233880905e-06 0.014320469461381435
0.60613000392913818 0 0.017137544229626656
0.63645124435424805 0 0.02129518985748291
0.66501468420028687 0 0.027183538302779198
0.69039690494537354 0 0.033898781985044479
0.71547919511795044 0 0.042965151369571686
0.73798847198486328 0 0.053056664764881134
0.76051092147827148 0 0.065281890332698822
0.78171569108963013 0 0.076946988701820374
0.80403393507003784 0 0.090264700353145599
0.82654917240142822 0 0.1034887358546257
0.85085952281951904 0 0.1172507107257843
0.87261980772018433 0 0.12885470688343048
0.052761077880859375 0.089381381869316101 0.036412868648767471
0.072530373930931091 0.086421109735965729 0.034558188170194626
0.098044969141483307 0.08314235508441925 0.03223680704832077
0.12783913314342499 0.07981313019990921 0.029930057004094124
0.15871523320674896 0.076671190559864044 0.027430828660726547
0.18621858954429626 0.073706492781639099 0.025256700813770294
0.21682937443256378 0.070390015840530396 0.02294735424220562
0.24682898819446564 0.066563896834850311 0.020771903917193413
0.27665075659751892 0.062534056603908539 0.01869766041636467
0.30454155802726746 0.058809429407119751 0.017489003017544746
0.33340400457382202 0.054675441235303879 0.016873603686690331
0.36162945628166199 0.048703595995903015 0.016643546521663666
0.38599109649658203 0.042450010776519775 0.016996350139379501
0.41209954023361206 0.036407310515642166 0.01771923340857029
0.43596029281616211 0.030625350773334503 0.018517641350626945
0.46357399225234985 0.024156155064702034 0.019279016181826591
0.49174991250038147 0.017647381871938705 0.019721779972314835
0.52225059270858765 0.011018821038305759 0.019341122359037399
0.550284743309021 0.0065871039405465126 0.018454141914844513
0.58107191324234009 0.0025030151009559631 0.017588641494512558
0.60846775770187378 0.00068466388620436192 0.017644666135311127
0.63808274269104004 4.3266449210932478e-05 0.019501173868775368
0.66641879081726074 0 0.024449575692415237
0.69161295890808105 0 0.030919363722205162
0.71666502952575684 0 0.039921652525663376
0.73921585083007812 0 0.050266653299331665
0.76163715124130249 0 0.0625261589884758
0.78274893760681152 0 0.074520409107208252
0.80494850873947144 0 0.087866544723510742
0.82744872570037842 0 0.10112667828798294
0.85162317752838135 0 0.11519481241703033
0.87340229749679565 0 0.12697497010231018
0.072760842740535736 0.12323057651519775 0.049681179225444794
0.088366851210594177 0.12074557691812515 0.047869708389043808
0.10823061317205429 0.1178056001663208 0.045618511736392975
0.1335761547088623 0.11471953988075256 0.042985886335372925
0.16311348974704742 0.11188005656003952 0.040138162672519684
0.19032196700572968 0.10899794101715088 0.037728223949670792
0.22162114083766937 0.10557013005018234 0.034866780042648315
0.25125259160995483 0.101693294942379 0.032321583479642868
0.28121781349182129 0.097658038139343262 0.02977164089679718
0.3089805543422699 0.093656979501247406 0.028167227283120155
0.3380531370639801 0.088993564248085022 0.027464607730507851
0.36632815003395081 0.083192765712738037 0.027155652642250061
0.39073669910430908 0.07701447606086731 0.027450310066342354
0.41685578227043152 0.070895567536354065 0.028509309515357018
0.44080102443695068 0.064147017896175385 0.029890416190028191
0.46847862005233765 0.056295204907655716 0.030778247863054276
0.4969298243522644 0.047515269368886948 0.031505841761827469
0.52742898464202881 0.037892196327447891 0.031728692352771759
0.55566352605819702 0.029119960963726044 0.031119082123041153
0.58625108003616333 0.019640570506453514 0.030257381498813629
0.61333221197128296 0.012188450433313847 0.029171504080295563
0.64211618900299072 0.0060142609290778637 0.027543885633349419
0.66913503408432007 0.0020569844637066126 0.028136925771832466
0.69328552484512329 0.00028683061827905476 0.031003866344690323
0.7180289626121521 0 0.03828774020075798
0.7402384877204895 0 0.048388540744781494
0.76258635520935059 0 0.060704637318849564
0.78373837471008301 0 0.07285676896572113
0.80579352378845215 0 0.086326964199542999
0.82828414440155029 0 0.099774710834026337
0.85227513313293457 0 0.11395131051540375
0.87413686513900757 0 0.12592838704586029
0.093077570199966431 0.1548989862203598 0.065259084105491638
0.10613758116960526 0.15311615169048309 0.063366353511810303
0.12263311445713043 0.15063677728176117 0.061295997351408005
0.14249573647975922 0.14795486629009247 0.058309227228164673
0.16762083768844604 0.14520560204982758 0.055096786469221115
0.19481705129146576 0.14251710474491119 0.052638087421655655
0.22667688131332397 0.1390441358089447 0.049322213977575302
0.25548389554023743 0.13542968034744263 0.046860512346029282
0.28555893898010254 0.13125979900360107 0.04418080672621727
0.31317254900932312 0.12731681764125824 0.042349059134721756
0.34226372838020325 0.12240888178348541 0.041401207447052002
0.37053582072257996 0.11651354283094406 0.040936876088380814
0.39499759674072266 0.11089044809341431 0.04112706333398819
0.42108285427093506 0.10444481670856476 0.042652923613786697
0.44520109891891479 0.097732618451118469 0.044230576604604721
0.47305229306221008 0.089662842452526093 0.045302856713533401
0.50179779529571533 0.080581605434417725 0.045929137617349625
0.53216534852981567 0.070988260209560394 0.046695742756128311
0.56038099527359009 0.061017725616693497 0.046344563364982605
0.59133392572402954 0.048998039215803146 0.045170199126005173
0.6182938814163208 0.037609584629535675 0.044396936893463135
0.64719033241271973 0.025781657546758652 0.043125849217176437
0.67404299974441528 0.014871981926262379 0.042814057320356369
0.69732093811035156 0.0063249166123569012 0.042711213231086731
0.7203899621963501 0.0014701861655339599 0.043702438473701477
0.74161535501480103 0.00012405223969835788 0.049078647047281265
0.76371502876281738 0 0.059998739510774612
0.78461754322052002 0 0.072171650826931
0.80677992105484009 0 0.085672058165073395
0.82911223173141479 0 0.099253162741661072
0.85316890478134155 0 0.11332181096076965
0.87485265731811523 0 0.12527108192443848
0.11107241362333298 0.18445380032062531 0.079935207962989807
0.1224048063158989 0.18312755227088928 0.078455530107021332
0.13742347061634064 0.18095722794532776 0.076329447329044342
0.15462827682495117 0.17891541123390198 0.073859944939613342
0.174181267619133 0.17613741755485535 0.071191892027854919
0.20003372430801392 0.17374387383460999 0.068018779158592224
0.2316579669713974 0.17054595053195953 0.064839549362659454
0.25969573855400085 0.16697895526885986 0.062309384346008301
0.28960976004600525 0.16327886283397675 0.060075335204601288
0.31705400347709656 0.15907329320907593 0.058009136468172073
0.3462224006652832 0.15408435463905334 0.057552527636289597
0.37440252304077148 0.14864686131477356 0.057340037077665329
0.39893677830696106 0.14303325116634369 0.057301416993141174
0.42508894205093384 0.13686926662921906 0.058786578476428986
0.44926631450653076 0.13024790585041046 0.06064639613032341
0.47728615999221802 0.12179645150899887 0.061622679233551025
0.50618487596511841 0.11285486817359924 0.062042701989412308
0.53662079572677612 0.10333136469125748 0.063226655125617981
0.5650525689125061 0.093296453356742859 0.063045300543308258
0.59587228298187256 0.081223286688327789 0.061236564069986343
0.62300950288772583 0.069347105920314789 0.060509923845529556
0.65191513299942017 0.056014157831668854 0.059885106980800629
0.67885851860046387 0.0418047234416008 0.060046471655368805
0.70212781429290771 0.027759317308664322 0.060609001666307449
0.72520309686660767 0.015511938370764256 0.060710012912750244
0.74531513452529907 0.0069112731143832207 0.061358656734228134
0.76595258712768555 0.0022527521941810846 0.064751662313938141
0.78590792417526245 0.00021587767696473747 0.072915717959403992
0.80791342258453369 0 0.085286147892475128
0.83021491765975952 0 0.098725065588951111
0.85418379306793213 0 0.11297964304685593
0.8758084774017334 0 0.12507990002632141
0.12015218287706375 0.21626578271389008 0.092487983405590057
0.13128212094306946 0.21523426473140717 0.091330640017986298
0.14584068953990936 0.21341073513031006 0.089805826544761658
0.16212198138237 0.21180559694766998 0.087868198752403259
0.18092827498912811 0.209634929895401 0.08559572696685791
0.20632661879062653 0.20729388296604156 0.082720749080181122
0.23688752949237823 0.20443993806838989 0.079817302525043488
0.26440408825874329 0.20148131251335144 0.077547632157802582
0.29414880275726318 0.19797258079051971 0.075829371809959412
0.32162564992904663 0.19409285485744476 0.074730008840560913
0.35058820247650146 0.1893082857131958 0.074339598417282104
0.37872925400733948 0.18410885334014893 0.074430495500564575
0.40324985980987549 0.17900480329990387 0.07471204549074173
0.42955890297889709 0.1730513870716095 0.076442107558250427
0.45404702425003052 0.16648934781551361 0.078196600079536438
0.4823138415813446 0.15860843658447266 0.07988419383764267
0.51145440340042114 0.1497168093919754 0.080238223075866699
0.54208815097808838 0.14050690829753876 0.08128473162651062
0.57041066884994507 0.13040535151958466 0.081324927508831024
0.60130250453948975 0.11835678666830063 0.079060040414333344
0.62842077016830444 0.10614591091871262 0.078893102705478668
0.65721911191940308 0.092677585780620575 0.078070886433124542
0.68425136804580688 0.078026473522186279 0.077710174024105072
0.70763391256332397 0.062075309455394745 0.078802779316902161
0.73077404499053955 0.046044059097766876 0.079071946442127228
0.75104904174804688 0.0307462178170681 0.080796286463737488
0.77113831043243408 0.015968088060617447 0.082053706049919128
0.7896571159362793 0.0050460807979106903 0.082216136157512665
0.80995553731918335 0.00055448187049478292 0.086602173745632172
0.83171480894088745 0 0.097946137189865112
0.85551196336746216 0 0.11209134757518768
0.87725460529327393 0 0.12422981858253479
0.12270554900169373 0.24372191727161407 0.10274361073970795
0.13317017257213593 0.2428586333990097 0.10188464820384979
0.14648242294788361 0.24184554815292358 0.10070104151964188
0.16281269490718842 0.2402484118938446 0.099069245159626007
0.18517032265663147 0.23851978778839111 0.096847698092460632
0.21328827738761902 0.23628731071949005 0.094246730208396912
0.24218882620334625 0.23397868871688843 0.091762840747833252
0.2698516845703125 0.23160068690776825 0.089804790914058685
0.29896652698516846 0.22854471206665039 0.088419102132320404
0.32628762722015381 0.22494864463806152 0.08763614296913147
0.35515600442886353 0.22058470547199249 0.087465792894363403
0.38296183943748474 0.21568480134010315 0.088242307305335999
0.40727874636650085 0.21131245791912079 0.089267075061798096
0.4338718056678772 0.20579692721366882 0.091339029371738434
0.45865768194198608 0.19984863698482513 0.09339064359664917
0.48707675933837891 0.19239433109760284 0.095554806292057037
0.5162423849105835 0.18417145311832428 0.096851997077465057
0.54716014862060547 0.17507049441337585 0.098264105618000031
0.57565557956695557 0.16541412472724915 0.098265118896961212
0.60647094249725342 0.15377172827720642 0.096397615969181061
0.6335914134979248 0.1418997049331665 0.09603513777256012
0.66244566440582275 0.12819774448871613 0.095589511096477509
0.68947935104370117 0.11381144821643829 0.095285028219223022
0.71296137571334839 0.098804585635662079 0.095566056668758392
0.73608160018920898 0.081608079373836517 0.095886528491973877
0.75630402565002441 0.064816586673259735 0.098009318113327026
0.77660673856735229 0.044702194631099701 0.099501028656959534
0.79528069496154785 0.025923503562808037 0.10020540654659271
0.81460791826248169 0.009875142015516758 0.10014154016971588
0.83443725109100342 0.0017839124193415046 0.10236582159996033
0.85732591152191162 6.697791104670614e-05 0.1115250289440155
0.87865167856216431 0 0.12347465008497238
0.12937341630458832 0.27209752798080444 0.11281233280897141
0.13623769581317902 0.27132508158683777 0.11235184222459793
0.14848840236663818 0.27061456441879272 0.11113426834344864
0.16839727759361267 0.26963412761688232 0.10974473506212234
0.194989874958992 0.26783585548400879 0.10803727060556412
0.22167707979679108 0.2663179337978363 0.10603101551532745
0.24919223785400391 0.26437705755233765 0.10393112897872925
0.27659854292869568 0.26234686374664307 0.1025233119726181
0.30504459142684937 0.25977018475532532 0.10159486532211304
0.33203962445259094 0.25671151280403137 0.10073424875736237
0.36045962572097778 0.25296226143836975 0.1004435196518898
0.3878694474697113 0.24876125156879425 0.10133615136146545
0.41211128234863281 0.2447970062494278 0.10267931967973709
0.43881189823150635 0.2396702915430069 0.10506132245063782
0.46398425102233887 0.23473209142684937 0.10723014920949936
0.4927690327167511 0.22801955044269562 0.10956739634275436
0.52209264039993286 0.22080916166305542 0.11200205981731415
0.55280864238739014 0.21237613260746002 0.1138792559504509
0.58150357007980347 0.20327192544937134 0.11442010849714279
0.612224280834198 0.19257368147373199 0.11473643779754639
0.63937008380889893 0.1814238429069519 0.11457549035549164
0.6684720516204834 0.16818498075008392 0.11421160399913788
0.69535833597183228 0.154210165143013 0.11405488848686218
0.71886086463928223 0.13994763791561127 0.11438387632369995
0.74195468425750732 0.12250766903162003 0.1150275394320488
0.76232171058654785 0.10520204901695251 0.11654415726661682
0.78263920545578003 0.084506615996360779 0.11824331432580948
0.80158895254135132 0.062802873551845551 0.11963681876659393
0.8209916353225708 0.038414865732192993 0.12057062238454819
0.84030783176422119 0.016807084903120995 0.11951038241386414
0.86094862222671509 0.0031580959912389517 0.1178584024310112
0.88104850053787231 7.8236305853351951e-05 0.12327151000499725
0.13193897902965546 0.29877138137817383 0.11982212215662003
0.14173232018947601 0.29829907417297363 0.1190519779920578
0.15840303897857666 0.2975027859210968 0.11811699718236923
0.18104299902915955 0.29650747776031494 0.11697764694690704
0.20617686212062836 0.29524475336074829 0.11566377431154251
0.23033680021762848 0.29385510087013245 0.11426433920860291
0.25768867135047913 0.29234382510185242 0.11266108602285385
0.28394141793251038 0.29039272665977478 0.11128585040569305
0.31211432814598083 0.28824388980865479 0.11065673828125
0.33832526206970215 0.28567442297935486 0.11062571406364441
0.36613073945045471 0.28238332271575928 0.11101116985082626
0.39311715960502625 0.27890530228614807 0.11196442693471909
0.41730549931526184 0.27538424730300903 0.11417722702026367
0.44420212507247925 0.27085620164871216 0.11681748926639557
0.46947228908538818 0.26606425642967224 0.11940615624189377
0.49842086434364319 0.26066559553146362 0.1218169778585434
0.52777266502380371 0.25435838103294373 0.12464839965105057
0.55868101119995117 0.24642841517925262 0.1268356591463089
0.58731645345687866 0.23815456032752991 0.12842966616153717
0.6180499792098999 0.22894571721553802 0.12971046566963196
0.64514261484146118 0.21905884146690369 0.13064606487751007
0.67409980297088623 0.20712615549564362 0.13148052990436554
0.7010616660118103 0.19429001212120056 0.13258254528045654
0.72466778755187988 0.18063536286354065 0.13362409174442291
0.74770379066467285 0.16378100216388702 0.13465484976768494
0.76811027526855469 0.14651581645011902 0.13570144772529602
0.78871464729309082 0.12617127597332001 0.13727881014347076
0.80770194530487061 0.10412333160638809 0.13862515985965729
0.82738280296325684 0.07886100560426712 0.13984644412994385
0.84691113233566284 0.051727660000324249 0.13965621590614319
0.86757808923721313 0.02397659607231617 0.13709272444248199
0.88583576679229736 0.0072836470790207386 0.13391764461994171
0.14419792592525482 0.32742217183113098 0.12586860358715057
0.15767431259155273 0.32709524035453796 0.12531450390815735
0.1756034642457962 0.32619756460189819 0.12467943131923676
0.19562451541423798 0.32541033625602722 0.12381557375192642
0.21755799651145935 0.32477763295173645 0.12245587259531021
0.24126748740673065 0.32335856556892395 0.12132469564676285
0.26755017042160034 0.32173150777816772 0.12009741365909576
0.29297152161598206 0.32043221592903137 0.1185990497469902
0.32050278782844543 0.31813168525695801 0.1173374205827713
0.34598380327224731 0.31625825166702271 0.11746721714735031
0.37301790714263916 0.31346422433853149 0.11873961240053177
0.39957460761070251 0.31039354205131531 0.12042022496461868
0.4235224723815918 0.30727288126945496 0.12273072451353073
0.45071595907211304 0.30301326513290405 0.12555594742298126
0.47613266110420227 0.29878860712051392 0.12888611853122711
0.50510132312774658 0.29386889934539795 0.13268543779850006
0.53441435098648071 0.28827929496765137 0.13636177778244019
0.56555676460266113 0.28168937563896179 0.13944591581821442
0.59394067525863647 0.27439394593238831 0.14213788509368896
0.62449371814727783 0.2662045955657959 0.14404867589473724
0.65162086486816406 0.25795269012451172 0.14547878503799438
0.68023860454559326 0.24753263592720032 0.14723700284957886
0.70725572109222412 0.23628218472003937 0.1495402604341507
0.73074948787689209 0.22402803599834442 0.15198355913162231
0.75397604703903198 0.20890972018241882 0.15476825833320618
0.77470725774765015 0.19278497993946075 0.15716485679149628
0.79535061120986938 0.17341023683547974 0.15909381210803986
0.81457710266113281 0.15192990005016327 0.1605168879032135
0.83450531959533691 0.12702415883541107 0.16154341399669647
0.85413873195648193 0.099379085004329681 0.16150252521038055
0.87512350082397461 0.06717284768819809 0.1598878800868988
0.89356005191802979 0.037531711161136627 0.15623012185096741
0.16670440137386322 0.356690913438797 0.13032102584838867
0.17748174071311951 0.35621470212936401 0.12989522516727448
0.19189058244228363 0.3560258150100708 0.12944598495960236
0.20934996008872986 0.35508131980895996 0.12871637940406799
0.23068869113922119 0.3542124330997467 0.12769320607185364
0.25339540839195251 0.35339337587356567 0.12666058540344238
0.27829208970069885 0.35204651951789856 0.12574544548988342
0.30317598581314087 0.35046681761741638 0.12498341500759125
0.32973748445510864 0.34884762763977051 0.12454167008399963
0.35472458600997925 0.34673261642456055 0.12466830015182495
0.38097864389419556 0.3443865180015564 0.12576259672641754
0.40726140141487122 0.34156200289726257 0.12771528959274292
0.43104970455169678 0.33869275450706482 0.13010282814502716
0.45826756954193115 0.33487114310264587 0.13314004242420197
0.48387211561203003 0.33093276619911194 0.13642434775829315
0.51299941539764404 0.32631981372833252 0.14060415327548981
0.54239869117736816 0.32110124826431274 0.14467483758926392
0.57325661182403564 0.3152766227722168 0.14866757392883301
0.60120528936386108 0.3091074526309967 0.15218980610370636
0.63140290975570679 0.301687091588974 0.15550842881202698
0.65837645530700684 0.29465728998184204 0.15831024944782257
0.68691420555114746 0.28569528460502625 0.16134615242481232
0.71374928951263428 0.27577322721481323 0.16446696221828461
0.73709428310394287 0.26534116268157959 0.16777977347373962
0.76035696268081665 0.25213202834129333 0.17189066112041473
0.78115713596343994 0.23813602328300476 0.17589379847049713
0.80207359790802002 0.22091808915138245 0.17969824373722076
0.82170522212982178 0.20162658393383026 0.18258883059024811
0.84174627065658569 0.17828544974327087 0.18454739451408386
0.86177510023117065 0.15134307742118835 0.18500767648220062
0.88297480344772339 0.11913184821605682 0.1835571825504303
0.9016873836517334 0.087812967598438263 0.18037149310112
0.18568865954875946 0.38382062315940857 0.13261720538139343
0.19423526525497437 0.38374820351600647 0.13215650618076324
0.2069212943315506 0.38348305225372314 0.13162028789520264
0.22397997975349426 0.3828372061252594 0.13090130686759949
0.243848517537117 0.38229450583457947 0.1301075667142868
0.26473543047904968 0.38116472959518433 0.12927132844924927
0.28909817337989807 0.38001325726509094 0.1284668892621994
0.3131406307220459 0.37865239381790161 0.12816663086414337
0.33890566229820251 0.37681776285171509 0.12801748514175415
0.36313802003860474 0.3749966025352478 0.12851174175739288
0.38904979825019836 0.37266647815704346 0.12986129522323608
0.41511070728302002 0.37003087997436523 0.13179412484169006
0.43908438086509705 0.36731120944023132 0.13408249616622925
0.4660639762878418 0.36392462253570557 0.13767336308956146
0.49166890978813171 0.3604520857334137 0.14164505898952484
0.52083432674407959 0.35599571466445923 0.14646364748477936
0.55041241645812988 0.35111668705940247 0.15104097127914429
0.58071953058242798 0.34553274512290955 0.15577287971973419
0.6083645224571228 0.34012854099273682 0.15976248681545258
0.63825243711471558 0.33339580893516541 0.16375027596950531
0.66482090950012207 0.32674217224121094 0.1673678457736969
0.69320285320281982 0.31831681728363037 0.1716434508562088
0.71986925601959229 0.30993461608886719 0.17579971253871918
0.74310582876205444 0.30040153861045837 0.1801857054233551
0.76616752147674561 0.28912815451622009 0.18514154851436615
0.787026047706604 0.27692386507987976 0.19060669839382172
