LUTs/Fuji 160C 2.cube
# Created by: G'MIC (https://gmic.eu)
TITLE "Fuji 160C 2"
# LUT size
LUT_3D_SIZE 5
# Data domain
# LUT data points
DOMAIN_MIN 0.000000 0.000000 0.000000
DOMAIN_MAX 0.903226 0.903226 0.903226
0.018054664134979248 0.018244326114654541 0.013518255203962326
0.20710481703281403 0.010690201073884964 0.016542030498385429
0.52949827909469604 0 0.0062620919197797775
0.80642974376678467 0 0
0.98912912607192993 0.11789356917142868 0
0 0.20642276108264923 0.001338689005933702
0.17949630320072174 0.20972760021686554 0.0001001384443952702
0.52407437562942505 0.19795127213001251 0
0.79043591022491455 0.20932228863239288 0
0.97610968351364136 0.29871240258216858 0
0 0.48069697618484497 0
0.0026072538457810879 0.47092261910438538 0
0.4485689103603363 0.47906535863876343 0
0.74400705099105835 0.49685102701187134 0
0.94264411926269531 0.51000803709030151 0
0 0.69629693031311035 0
0 0.68969476222991943 0
0.4062347412109375 0.68379127979278564 0
0.67508482933044434 0.68806439638137817 0
0.89722388982772827 0.7182166576385498 0
0.00031663771369494498 0.87956005334854126 0.17911416292190552
0.19887833297252655 0.87641286849975586 0.18717530369758606
0.42595782876014709 0.86886501312255859 0.2086799144744873
0.64821732044219971 0.87235462665557861 0.20976483821868896
0.84384936094284058 0.88009476661682129 0.21523395180702209
0.048878185451030731 0.034271702170372009 0.17992664873600006
0.24000352621078491 0.014667738229036331 0.18877233564853668
0.55650633573532104 0 0.18060371279716492
0.81693500280380249 0.0021091424860060215 0.2185172438621521
0.98804622888565063 0.20784831047058105 0.24392667412757874
0.00030218172469176352 0.22712785005569458 0.19929246604442596
0.25238794088363647 0.23506960272789001 0.20392140746116638
0.55372011661529541 0.23546168208122253 0.2065851241350174
0.80028855800628662 0.25836312770843506 0.21096795797348022
0.97605973482131958 0.3341137170791626 0.22567644715309143
0 0.50864070653915405 0.20611299574375153
0.15935276448726654 0.49702751636505127 0.19452497363090515
0.48890182375907898 0.49390408396720886 0.18916726112365723
0.75659704208374023 0.50107568502426147 0.15484146773815155
0.94452232122421265 0.52008795738220215 0.16208970546722412
0 0.70736581087112427 0.21355533599853516
0.11259294301271439 0.700550377368927 0.21685603260993958
0.43491324782371521 0.68834656476974487 0.21981112658977509
0.68465954065322876 0.69287377595901489 0.21069110929965973
0.89943230152130127 0.71819961071014404 0.18084211647510529
0.030664190649986267 0.88256543874740601 0.30549913644790649
0.23494182527065277 0.87954002618789673 0.30919227004051208
0.43691274523735046 0.87095558643341064 0.31935602426528931
0.64889156818389893 0.87310194969177246 0.32428589463233948
0.84454119205474854 0.88084697723388672 0.33111926913261414
0.099080272018909454 0.049333162605762482 0.46485459804534912
0.29901212453842163 0.038898512721061707 0.47516891360282898
0.58254271745681763 0.0022395544219762087 0.49964317679405212
0.82209724187850952 0 0.47392696142196655
0.99105542898178101 0.17402783036231995 0.48392292857170105
0.099917158484458923 0.22486872971057892 0.47044470906257629
0.31509292125701904 0.24759368598461151 0.48207110166549683
0.58280026912689209 0.26726323366165161 0.50602948665618896
0.81369644403457642 0.2571139931678772 0.48633134365081787
0.97711455821990967 0.35315680503845215 0.50367164611816406
4.2058411509060534e-07 0.51672852039337158 0.50148856639862061
0.27744105458259583 0.52116310596466064 0.50614780187606812
0.5637047290802002 0.53201907873153687 0.51832723617553711
0.7723621129989624 0.53964591026306152 0.51862633228302002
0.94230943918228149 0.55683976411819458 0.51993906497955322
0.2469651848077774 0.73280972242355347 0.52555054426193237
0.37211507558822632 0.72868448495864868 0.52855032682418823
0.50591820478439331 0.7112080454826355 0.49883100390434265
0.70485758781433105 0.70752745866775513 0.49443286657333374
0.90550178289413452 0.71499365568161011 0.46782582998275757
0.22513663768768311 0.89171129465103149 0.51799303293228149
0.3001788854598999 0.88927978277206421 0.50969940423965454
0.4666905403137207 0.88028454780578613 0.50850403308868408
0.64953607320785522 0.87468332052230835 0.51059675216674805
0.84733349084854126 0.88242143392562866 0.51854395866394043
0.30617308616638184 0.098649770021438599 0.70668315887451172
0.42224922776222229 0.10182391107082367 0.71113544702529907
0.63187170028686523 0.13896550238132477 0.72437554597854614
0.82148998975753784 0.20796774327754974 0.74222344160079956
0.9700922966003418 0.22572731971740723 0.71581864356994629
0.31825354695320129 0.26706159114837646 0.70389890670776367
0.42647102475166321 0.27476617693901062 0.70881879329681396
0.62495523691177368 0.30813869833946228 0.72242975234985352
0.80976027250289917 0.36051928997039795 0.74181509017944336
0.96237421035766602 0.36425039172172546 0.71784895658493042
0.19337064027786255 0.46523734927177429 0.6884845495223999
0.34130513668060303 0.47421556711196899 0.69574058055877686
0.59052073955535889 0.52307480573654175 0.71751707792282104
0.78157895803451538 0.56863921880722046 0.74212265014648438
0.9474678635597229 0.55910086631774902 0.72280406951904297
0.25895461440086365 0.72498953342437744 0.726509690284729
0.36915072798728943 0.72646874189376831 0.72875297069549561
0.55590856075286865 0.72980660200119019 0.7332768440246582
0.75066971778869629 0.7414976954460144 0.74455994367599487
0.91408121585845947 0.74211406707763672 0.74030876159667969
0.36861991882324219 0.90794652700424194 0.73797065019607544
0.43493854999542236 0.90568691492080688 0.73862826824188232
0.5700143575668335 0.8987005352973938 0.73975878953933716
0.68403321504592896 0.88539093732833862 0.71632099151611328
0.86166846752166748 0.88659471273422241 0.71901959180831909
0.54221373796463013 0.26191392540931702 0.90170621871948242
0.59383916854858398 0.27473479509353638 0.90237009525299072
0.70494288206100464 0.31506451964378357 0.90399402379989624
0.83584338426589966 0.39389720559120178 0.90592408180236816
0.97020125389099121 0.44110262393951416 0.91100901365280151
0.53204560279846191 0.36943072080612183 0.89816904067993164
0.58279216289520264 0.37913647294044495 0.89909917116165161
0.69407188892364502 0.41069766879081726 0.90136784315109253
0.82598030567169189 0.47133460640907288 0.9042898416519165
0.96147483587265015 0.50935757160186768 0.90971243381500244
0.45852735638618469 0.52130639553070068 0.88978868722915649
0.53084737062454224 0.53631967306137085 0.89115309715270996
0.6569516658782959 0.55770480632781982 0.89412695169448853
0.80206912755966187 0.60175114870071411 0.89986032247543335
0.94405645132064819 0.63395261764526367 0.90812057256698608
0.32025301456451416 0.68368607759475708 0.88121688365936279
0.39046230912208557 0.68161708116531372 0.88052892684936523
0.53723859786987305 0.67725157737731934 0.87888312339782715
0.75719618797302246 0.72595858573913574 0.89213043451309204
0.92429041862487793 0.77122914791107178 0.90819138288497925
0.37006908655166626 0.89315760135650635 0.90151041746139526
0.43108412623405457 0.89324933290481567 0.90152835845947266
0.5642319917678833 0.89439857006072998 0.90250521898269653
0.73347592353820801 0.89799833297729492 0.90514999628067017
0.9068254828453064 0.90862512588500977 0.91342175006866455
