LUTs/Fuji Superia 400 1 -.cube
# Created by: G'MIC (https://gmic.eu)
TITLE "Fuji Superia 400 1 -"
# LUT size
LUT_3D_SIZE 32
# Data domain
DOMAIN_MIN 0.0 0.0 0.0
DOMAIN_MAX 1.0 1.0 1.0
# LUT data points
0 0.01996338926255703 0.020762084051966667
0.00057609810028225183 0.021367205306887627 0.020704107359051704
0.010917024686932564 0.02302074059844017 0.021185500547289848
0.032168205827474594 0.0256365817040205 0.021305425092577934
0.057733822613954544 0.030621754005551338 0.021089423447847366
0.085053980350494385 0.035986043512821198 0.020574267953634262
0.11840569227933884 0.040543530136346817 0.020188307389616966
0.15387746691703796 0.043123509734869003 0.019011188298463821
0.19525028765201569 0.043860070407390594 0.017821656540036201
0.23788274824619293 0.041772034019231796 0.016213953495025635
0.28728196024894714 0.034999143332242966 0.014266890473663807
0.33966657519340515 0.022459343075752258 0.011477506719529629
0.38797229528427124 0.0077364076860249043 0.0088623082265257835
0.44166180491447449 0.00037501842598430812 0.0059413174167275429
0.48952066898345947 0 0.0033109588548541069
0.54018712043762207 0 0.0012072857934981585
0.58697199821472168 0 0.0002754832967184484
0.63359397649765015 0 1.2094797057216056e-05
0.67941027879714966 0 0
0.72580438852310181 0 0
0.76371318101882935 0 0
0.80105441808700562 0 0
0.83555638790130615 0 0
0.8666185736656189 0 0
0.89836937189102173 0 0
0.9275212287902832 0.00015168747631832957 0
0.95726627111434937 0.017202993854880333 0
0.98419427871704102 0.066982559859752655 0
0.99889540672302246 0.112916000187397 0
0.99993103742599487 0.15135897696018219 0
0.99998176097869873 0.18720820546150208 0
0.99998986721038818 0.21918265521526337 0
0 0.028764653950929642 0.023090509697794914
0.00058560993056744337 0.031112946569919586 0.022491803392767906
0.011346114799380302 0.034640494734048843 0.021519927307963371
0.033114321529865265 0.038291621953248978 0.020783130079507828
0.059077758342027664 0.043051823973655701 0.020394787192344666
0.086642205715179443 0.047595404088497162 0.01976979523897171
0.11990921944379807 0.051805399358272552 0.018976334482431412
0.15570884943008423 0.054448146373033524 0.017971416935324669
0.19786441326141357 0.055777601897716522 0.016873270273208618
0.24084828794002533 0.053727127611637115 0.014875535853207111
0.28984957933425903 0.048392776399850845 0.012611430138349533
0.34207478165626526 0.037472262978553772 0.01015542633831501
0.38995251059532166 0.022363655269145966 0.0072658099234104156
0.44304150342941284 0.0056060301139950752 0.0045508337207138538
0.49013173580169678 0.00031022855546325445 0.0021118470467627048
0.53985077142715454 1.6219162262132159e-06 0.00073448801413178444
0.58609896898269653 0 0.00011010074376827106
0.63375109434127808 0 4.8066755908848791e-08
0.67923235893249512 0 0
0.72506684064865112 0 0
0.76294350624084473 0 0
0.80007666349411011 0 0
0.83440667390823364 0 0
0.86595267057418823 0 0
0.8976057767868042 3.3884407457662746e-05 0
0.92666387557983398 0.0037170429714024067 0
0.9562644362449646 0.040468022227287292 0
0.98336464166641235 0.087679445743560791 0
0.99874973297119141 0.126925989985466 0
0.99999791383743286 0.16168898344039917 0
0.9999803900718689 0.19549496471881866 0
0.9999890923500061 0.22581510245800018 0
0 0.044125016778707504 0.027283109724521637
0.00019189091108273715 0.046414002776145935 0.026495302096009254
0.008153378963470459 0.052275616675615311 0.023894630372524261
0.031240731477737427 0.058882884681224823 0.020857896655797958
0.060972470790147781 0.062556378543376923 0.01900637149810791
0.091681256890296936 0.064883239567279816 0.018087020143866539
0.12659595906734467 0.067983709275722504 0.017211697995662689
0.16278830170631409 0.070151261985301971 0.015952352434396744
0.20427140593528748 0.071307949721813202 0.014549668878316879
0.24673765897750854 0.070421889424324036 0.012780729681253433
0.29528626799583435 0.066363789141178131 0.0105001050978899
0.34668970108032227 0.058131467550992966 0.0076702511869370937
0.39434534311294556 0.046719163656234741 0.0054313493892550468
0.44647645950317383 0.02842654287815094 0.0029441777151077986
0.49294093251228333 0.011243249289691448 0.0012905175099149346
0.54234951734542847 0.0015431517967954278 0.00030016186065040529
0.58864349126815796 2.556002618803177e-05 3.7863304896745831e-05
0.63784545660018921 0 0
0.68293380737304688 0 0
0.72741472721099854 0 0
0.76406174898147583 0 0
0.80141323804855347 0 0
0.83589571714401245 3.6506164633465232e-06 0
0.86687946319580078 0.00070747261634096503 0
0.89840805530548096 0.0097597343847155571 0
0.92737066745758057 0.037018641829490662 0
0.95689737796783447 0.07938963919878006 0
0.98373913764953613 0.1150142177939415 0
0.99869382381439209 0.14743408560752869 0
0.99993586540222168 0.17855295538902283 0
0.99999356269836426 0.20925073325634003 0
0.99999642372131348 0.23794232308864594 0
0 0.064529478549957275 0.031615711748600006
4.5623775804415345e-05 0.065959423780441284 0.031791280955076218
0.0038241089787334204 0.07107071578502655 0.029007414355874062
0.022806962952017784 0.079130120575428009 0.024423865601420403
0.059042241424322128 0.087955489754676819 0.019346229732036591
0.096513867378234863 0.091289892792701721 0.016423908993601799
0.13349087536334991 0.091140806674957275 0.014592030085623264
0.17009653151035309 0.090727902948856354 0.013150532729923725
0.21182920038700104 0.091093547642230988 0.011464562267065048
0.25440609455108643 0.090625852346420288 0.0095881819725036621
0.3028988242149353 0.088054344058036804 0.0072541232220828533
0.35386249423027039 0.082264095544815063 0.0047959578223526478
0.40091004967689514 0.074461847543716431 0.0030292135197669268
0.45257535576820374 0.061819471418857574 0.0011065740836784244
0.49897092580795288 0.046956155449151993 0.00035614657099358737
0.54772847890853882 0.028241163119673729 2.3030814190860838e-05
0.59501767158508301 0.014593354426324368 3.9578372934556683e-07
0.64607119560241699 0.0072842747904360294 0
0.68946671485900879 0.0045281327329576015 0
0.73285150527954102 0.0038194225635379553 0
0.76867163181304932 0.0046986192464828491 0
0.80490320920944214 0.0078195435926318169 0
0.83844047784805298 0.015615678392350674 0
0.86931633949279785 0.031021511182188988 0
0.900806725025177 0.059901781380176544 0
0.9294390082359314 0.089835688471794128 0
0.95913749933242798 0.11970062553882599 0
0.98566800355911255 0.14709864556789398 0
0.99917912483215332 0.17445938289165497 0
0.99999392032623291 0.2008654773235321 0
0.99997442960739136 0.22864988446235657 0
1 0.2553773820400238 0
0 0.085503727197647095 0.036860711872577667
3.0157087849147501e-07 0.086444169282913208 0.037467315793037415
0.00053960771765559912 0.090235091745853424 0.035689763724803925
0.01095490250736475 0.097804531455039978 0.030912835150957108
0.042352244257926941 0.10740624368190765 0.024059299379587173
0.09089399129152298 0.11903100460767746 0.016550011932849884
0.1378500908613205 0.12378900498151779 0.011673149652779102
0.17711934447288513 0.12149564176797867 0.0092822341248393059
0.21872900426387787 0.11762859672307968 0.0074565242975950241
0.26049050688743591 0.11500471085309982 0.0058531565591692924
0.30951261520385742 0.11307860910892487 0.0035730679519474506
0.35967499017715454 0.10906099528074265 0.0017073355847969651
0.40615180134773254 0.10417322814464569 0.00078198709525167942
0.45681500434875488 0.096816577017307281 0.00017780871712602675
0.50182175636291504 0.088085979223251343 2.1391109839896671e-05
0.5500146746635437 0.077056154608726501 7.9770359207032016e-08
0.59960955381393433 0.066495411098003387 0
0.64914554357528687 0.057377882301807404 0
0.69072109460830688 0.052074186503887177 0
0.73301869630813599 0.05107489600777626 0
0.76778990030288696 0.054285921156406403 0
0.80366712808609009 0.062962040305137634 0
0.83720225095748901 0.076405547559261322 0
0.86796051263809204 0.092278845608234406 0
0.89918404817581177 0.11157552897930145 0
0.92805838584899902 0.13136987388134003 0
0.95730185508728027 0.15349426865577698 0
0.98386406898498535 0.17561952769756317 0
0.99886536598205566 0.19843085110187531 0
0.99999779462814331 0.22155384719371796 0
0.99999940395355225 0.24689561128616333 0
1 0.27161046862602234 0
0 0.11284235119819641 0.044355414807796478
0 0.11311012506484985 0.044669654220342636
2.7762058380176313e-05 0.11464884132146835 0.044246971607208252
0.0038631935603916645 0.12117046862840652 0.039895940572023392
0.027833225205540657 0.13043799996376038 0.032312668859958649
0.07449757307767868 0.14225949347019196 0.023052899166941643
0.13421478867530823 0.1570383608341217 0.010913798585534096
0.18537668883800507 0.16239188611507416 0.0044647804461419582
0.23073965311050415 0.15838070213794708 0.0026288239751011133
0.27137362957000732 0.1514384001493454 0.001766656874679029
0.31685641407966614 0.1439543217420578 0.00095249910373240709
0.36538603901863098 0.1386684775352478 0.00032579692197032273
0.41173836588859558 0.13496015965938568 7.1907728852238506e-05
0.46171104907989502 0.13026975095272064 3.3502915357530583e-06
0.50727337598800659 0.12517596781253815 0
0.55928093194961548 0.11998098343610764 0
0.60857617855072021 0.11577055603265762 0
0.65561479330062866 0.11235484480857849 0
0.69532430171966553 0.11106504499912262 0
0.73609286546707153 0.11212126910686493 0
0.770244300365448 0.11544078588485718 0
0.8052707314491272 0.12126719206571579 0
0.83863085508346558 0.13012546300888062 0
0.86880356073379517 0.1410878449678421 0
0.89993083477020264 0.15514655411243439 0
0.9286382794380188 0.17062833905220032 0
0.95771437883377075 0.18868431448936462 0
0.98415696620941162 0.20695824921131134 0
0.99889892339706421 0.22699998319149017 0
0.99999481439590454 0.24751907587051392 0
1 0.269948810338974 0
0.99997460842132568 0.29272171854972839 0
0 0.14224247634410858 0.052067544311285019
0 0.14311881363391876 0.052889242768287659
0 0.14299103617668152 0.053251903504133224
0.00064557860605418682 0.14736127853393555 0.050262041389942169
0.014218179509043694 0.15630544722080231 0.042801279574632645
0.055433616042137146 0.16748401522636414 0.033148258924484253
0.11117734760046005 0.18126228451728821 0.019841577857732773
0.17516207695007324 0.19856205582618713 0.0057733790017664433
0.23879455029964447 0.20835484564304352 0.00023005141702014953
0.28480884432792664 0.20274582505226135 4.1129711462417617e-05
0.33176383376121521 0.19347509741783142 1.1940673175558913e-05
0.37651318311691284 0.18184593319892883 2.2939091195439687e-06
0.4178943932056427 0.17277644574642181 0
0.46912774443626404 0.16838423907756805 0
0.51873183250427246 0.16678664088249207 0
0.57036489248275757 0.16504758596420288 0
0.6164858341217041 0.16323544085025787 0
0.66093295812606812 0.16189330816268921 0
0.69897723197937012 0.16193550825119019 0
0.73783689737319946 0.16347524523735046 0
0.77103102207183838 0.16609053313732147 0
0.80545765161514282 0.17062722146511078 0
0.8384777307510376 0.17730109393596649 0
0.86857610940933228 0.18591681122779846 0
0.89966309070587158 0.19742275774478912 0
0.92811125516891479 0.20971213281154633 0
0.95688551664352417 0.22461089491844177 0
0.98328489065170288 0.24017800390720367 0
0.99886369705200195 0.25771650671958923 0
1 0.27551579475402832 0
1 0.29534637928009033 0
0.99999904632568359 0.31642699241638184 0
0 0.17269206047058105 0.060269340872764587
0 0.17378304898738861 0.061303507536649704
0 0.17301356792449951 0.061860490590333939
4.3525869841687381e-05 0.17480528354644775 0.060924876481294632
0.0051187253557145596 0.18288625776767731 0.054582033306360245
0.038173563778400421 0.19411672651767731 0.044865984469652176
0.091711036860942841 0.20806697010993958 0.031180119141936302
0.14967720210552216 0.2240879088640213 0.01407809741795063
0.22351290285587311 0.24522928893566132 0.0010872118873521686
0.28996574878692627 0.25655055046081543 3.1869792564975796e-06
0.34459927678108215 0.25146153569221497 0
0.39415305852890015 0.24095715582370758 0
0.43773522973060608 0.23029603064060211 0
0.48418208956718445 0.21800829470157623 0
0.52712154388427734 0.21012304723262787 0
0.57511228322982788 0.20660661160945892 0
0.61983418464660645 0.20548553764820099 0
0.66265499591827393 0.20487652719020844 0
0.69927161931991577 0.20520015060901642 0
0.7373054027557373 0.20637194812297821 0
0.76964086294174194 0.20848825573921204 0
0.80396252870559692 0.21219496428966522 0
0.83675479888916016 0.2176540344953537 0
0.8665582537651062 0.22480176389217377 0
0.89760643243789673 0.23422516882419586 0
0.92607104778289795 0.24458009004592896 0
0.95493775606155396 0.25739613175392151 0
0.98107141256332397 0.2709161639213562 0
0.99819386005401611 0.2857339084148407 0
0.99998539686203003 0.30157080292701721 0
1 0.31935802102088928 0
0.99997496604919434 0.33807575702667236 0
0 0.2117229700088501 0.070497922599315643
0 0.2133287638425827 0.071749255061149597
0 0.21219182014465332 0.072314724326133728
2.1476635936323873e-07 0.21175585687160492 0.072845853865146637
0.00086535140872001648 0.21717074513435364 0.068619370460510254
0.022142264991998672 0.22797054052352905 0.059479869902133942
0.073168225586414337 0.2412688136100769 0.045835305005311966
0.12800365686416626 0.25655713677406311 0.02743016742169857
0.19339615106582642 0.27514740824699402 0.0061701931990683079
0.27061966061592102 0.29839298129081726 0.00014432369789574295
0.35667416453361511 0.31976982951164246 0
0.41478106379508972 0.31435289978981018 0
0.46028897166252136 0.30358198285102844 0
0.50663387775421143 0.28967210650444031 0
0.54468262195587158 0.27516904473304749 0
0.58348149061203003 0.25975531339645386 0
0.62274104356765747 0.2517625093460083 0
0.66486918926239014 0.25047463178634644 0
0.70141488313674927 0.25060465931892395 0
0.73921912908554077 0.25174862146377563 0
0.77138215303421021 0.25382727384567261 0
0.80501842498779297 0.25662511587142944 0
0.8372846245765686 0.26077938079833984 0
0.86674380302429199 0.26683077216148376 0
0.8979300856590271 0.27485883235931396 0
0.92593848705291748 0.28354114294052124 0
0.95478194952011108 0.2945936918258667 0
0.98080962896347046 0.30630144476890564 0
0.99823778867721558 0.31958320736885071 0
0.99993604421615601 0.33364266157150269 0
0.99999147653579712 0.34873825311660767 0
0.99999874830245972 0.36651191115379333 0
0 0.24668356776237488 0.080446958541870117
0 0.24941495060920715 0.081927672028541565
0 0.24879825115203857 0.082751952111721039
0 0.24811375141143799 0.083744168281555176
8.0144098319578916e-05 0.25010272860527039 0.082381084561347961
0.010711404494941235 0.26041409373283386 0.074796847999095917
0.056204572319984436 0.27499216794967651 0.063045427203178406
0.11225702613592148 0.29193538427352905 0.045750286430120468
0.17668922245502472 0.3125673234462738 0.020220903679728508
0.24681328237056732 0.33349782228469849 0.0028287575114518404
0.33600267767906189 0.36040198802947998 1.8652555809239857e-05
0.423990398645401 0.38056108355522156 0
0.47789424657821655 0.37624648213386536 0
0.52416574954986572 0.36196127533912659 0
0.56229066848754883 0.34687021374702454 0
0.59940499067306519 0.32874870300292969 0
0.63128328323364258 0.31025633215904236 0
0.66502100229263306 0.29633396863937378 0
0.69835430383682251 0.29131406545639038 0
0.73592519760131836 0.29115837812423706 0
0.7679864764213562 0.2921881377696991 0
0.80180871486663818 0.29453387856483459 0
0.83459830284118652 0.29841333627700806 0
0.86411786079406738 0.30329424142837524 0
0.8949698805809021 0.31015792489051819 0
0.92286521196365356 0.31728741526603699 0
0.95167922973632812 0.32698076963424683 0
0.97781342267990112 0.33697560429573059 0
0.99714863300323486 0.34840619564056396 0
0.99996572732925415 0.36069479584693909 0
0.99999773502349854 0.3748646080493927 0
1 0.39082422852516174 0
0 0.29314923286437988 0.095145665109157562
0 0.29614102840423584 0.096811495721340179
0 0.29604035615921021 0.09776528924703598
0 0.29610294103622437 0.099028877913951874
7.593524742333102e-07 0.29645454883575439 0.10036797076463699
0.0057845581322908401 0.30410262942314148 0.096022188663482666
0.045723341405391693 0.31839758157730103 0.085637502372264862
0.10210967808961868 0.33430129289627075 0.071187905967235565
0.16327495872974396 0.35278186202049255 0.0483713299036026
0.22710472345352173 0.37156081199645996 0.019119374454021454
0.30416321754455566 0.39305558800697327 0.001324361888691783
0.39406910538673401 0.41812136769294739 1.3065388884569984e-05
0.47898992896080017 0.44155794382095337 0
0.53700906038284302 0.43722373247146606 0
0.5752265453338623 0.42251250147819519 0
0.61250215768814087 0.40429824590682983 0
0.64585453271865845 0.38607111573219299 0
0.67682534456253052 0.36636194586753845 0
0.70243287086486816 0.34865984320640564 0
0.7324339747428894 0.33603104948997498 0
0.76344019174575806 0.33366036415100098 0
0.79786038398742676 0.3346441388130188 0
0.83112961053848267 0.33780950307846069 0
0.86092233657836914 0.34194698929786682 0
0.89155173301696777 0.34731653332710266 0
0.91975009441375732 0.35381761193275452 0
0.94859260320663452 0.3617701530456543 0
0.97444641590118408 0.3702908456325531 0
0.99585211277008057 0.38024517893791199 0
0.99993294477462769 0.39088559150695801 0
0.99995476007461548 0.40341323614120483 0
0.99995768070220947 0.41726776957511902 0
0 0.34171608090400696 0.11356603354215622
0 0.34716299176216125 0.1166556254029274
0 0.34700143337249756 0.1174006313085556
0 0.34612050652503967 0.11845677345991135
0 0.34509503841400146 0.11968734860420227
0.0060220262967050076 0.34720617532730103 0.11866098642349243
0.043906930834054947 0.35782375931739807 0.11037780344486237
0.096719205379486084 0.37148058414459229 0.098755963146686554
0.15370610356330872 0.38820692896842957 0.081665724515914917
0.21155545115470886 0.4050825834274292 0.056838598102331161
0.28056025505065918 0.42466846108436584 0.021875636652112007
0.35838544368743896 0.44552135467529297 0.0021842918358743191
0.43649101257324219 0.46613776683807373 9.8121900009573437e-06
0.52775335311889648 0.49124482274055481 0
0.5858185887336731 0.49407860636711121 0
0.62475526332855225 0.47817036509513855 0
0.65786468982696533 0.46054461598396301 0
0.68974786996841431 0.44178169965744019 0
0.71678584814071655 0.42417201399803162 0
0.74328082799911499 0.4044584333896637 0
0.76633220911026001 0.38813045620918274 0
0.7949022650718689 0.3778703510761261 0
0.82723355293273926 0.3777925968170166 0
0.85812520980834961 0.38107737898826599 0
0.88975268602371216 0.38591852784156799 0
0.9178234338760376 0.39116814732551575 0
0.9464641809463501 0.39777126908302307 0
0.97263443470001221 0.40515357255935669 0
0.99489647150039673 0.41379269957542419 0
0.999988853931427 0.42341235280036926 0
0.9999929666519165 0.43446066975593567 0
0.99999457597732544 0.44748741388320923 0
0 0.38246485590934753 0.13218224048614502
0 0.38841202855110168 0.13574549555778503
0 0.38792604207992554 0.13646653294563293
0 0.38667440414428711 0.13726313412189484
6.9607312980224378e-07 0.38578698039054871 0.13844300806522369
0.009367501363158226 0.3848707377910614 0.13890475034713745
0.053370490670204163 0.39177995920181274 0.13475257158279419
0.10112813860177994 0.40459913015365601 0.12521669268608093
0.15282337367534637 0.41990947723388672 0.11184303462505341
0.20549283921718597 0.43553799390792847 0.094322949647903442
0.26838967204093933 0.45398390293121338 0.066643223166465759
0.33865535259246826 0.47318464517593384 0.02648935467004776
0.4075188934803009 0.49069961905479431 0.0036938441917300224
0.49052664637565613 0.51152509450912476 0.00014548561011906713
0.57300561666488647 0.5356106162071228 0
0.63250380754470825 0.53831249475479126 0
0.66739070415496826 0.52327597141265869 0
0.69901072978973389 0.50506865978240967 0
0.725333571434021 0.48785644769668579 0
0.75299072265625 0.46875292062759399 0
0.77594643831253052 0.4513058066368103 0
0.7997739315032959 0.4323369562625885 0
0.8252214789390564 0.41849172115325928 0
0.85304492712020874 0.41501602530479431 0
0.88418465852737427 0.41796338558197021 0
0.91312891244888306 0.42224660515785217 0
0.94265156984329224 0.42812496423721313 0
0.96908068656921387 0.43432024121284485 0
0.9928584098815918 0.44196400046348572 0
0.99998146295547485 0.45113807916641235 0
0.99994194507598877 0.46092244982719421 0
0.99994724988937378 0.47247618436813354 0
0 0.42390793561935425 0.15428829193115234
0 0.42921987175941467 0.1581653356552124
0 0.42915284633636475 0.158988356590271
0 0.42844238877296448 0.16010347008705139
6.8985013058409095e-05 0.42707279324531555 0.16096596419811249
0.017945867031812668 0.4260515570640564 0.16221508383750916
0.072374574840068817 0.42780366539955139 0.16193854808807373
0.11297851800918579 0.43774062395095825 0.15460553765296936
0.1569383442401886 0.45099756121635437 0.14387963712215424
0.20331567525863647 0.46516138315200806 0.13057507574558258
0.25926774740219116 0.48169577121734619 0.11213001608848572
0.32179480791091919 0.49884939193725586 0.084370501339435577
0.38365671038627625 0.51507103443145752 0.048799894750118256
0.45663601160049438 0.53307855129241943 0.012050031684339046
0.52778893709182739 0.55040627717971802 0.00066568475449457765
0.61124390363693237 0.57415682077407837 3.0512157991324784e-06
0.67372441291809082 0.58323007822036743 0
0.70863044261932373 0.56938189268112183 0
0.73524421453475952 0.55331128835678101 0
0.76258355379104614 0.53525274991989136 0
0.78625541925430298 0.51875358819961548 0
0.81143909692764282 0.50100457668304443 0
0.83491694927215576 0.483521968126297 0
0.85644799470901489 0.46849554777145386 0
0.88166248798370361 0.45869606733322144 0
0.90859800577163696 0.45731532573699951 0
0.9381030797958374 0.46187061071395874 0
0.96518480777740479 0.46712043881416321 0
0.99102336168289185 0.47430449724197388 0
0.99999207258224487 0.48204889893531799 0
0.9999963641166687 0.49118718504905701 0
0.99999594688415527 0.50111526250839233 0
0 0.45801493525505066 0.1751280277967453
0 0.46421560645103455 0.18006600439548492
0 0.4641050398349762 0.18094663321971893
3.7852569221286103e-06 0.46339815855026245 0.18187461793422699
0.0015881538856774569 0.46197998523712158 0.18243211507797241
0.033578477799892426 0.46063318848609924 0.18335257470607758
0.089894644916057587 0.45940098166465759 0.18417948484420776
0.12784850597381592 0.46532899141311646 0.1808706670999527
0.16591943800449371 0.47771474719047546 0.17249149084091187
0.20680291950702667 0.49059203267097473 0.16204650700092316
0.25709119439125061 0.50596457719802856 0.14821471273899078
0.31362435221672058 0.52217638492584229 0.12974199652671814
0.36950030922889709 0.537078857421875 0.10721070319414139
0.43553635478019714 0.55413484573364258 0.069216765463352203
0.49963942170143127 0.56965327262878418 0.026666522026062012
0.57238829135894775 0.5871310830116272 0.0035369095858186483
0.65070474147796631 0.60998964309692383 0.00014495188952423632
0.71410274505615234 0.62074857950210571 0
0.74344855546951294 0.60836261510848999 0
0.77028769254684448 0.59131318330764771 0
0.79419034719467163 0.57591080665588379 0
0.81907188892364502 0.55879068374633789 0
0.84345102310180664 0.54235237836837769 0
0.86621624231338501 0.52761399745941162 0
0.88851666450500488 0.51301026344299316 0
0.90898257493972778 0.49992239475250244 0
0.93405234813690186 0.49409711360931396 0
0.96095532178878784 0.49695479869842529 0
0.98838669061660767 0.50340712070465088 0
0.99987179040908813 0.51026952266693115 0
0.99996435642242432 0.51809245347976685 0
0.99999284744262695 0.52755045890808105 0
0 0.49427765607833862 0.2001585066318512
0 0.50028687715530396 0.20533274114131927
3.6609990274882875e-06 0.5000494122505188 0.20597754418849945
0.0013857318554073572 0.4993208646774292 0.20675988495349884
0.019594227895140648 0.49810293316841125 0.2072584331035614
0.067892111837863922 0.49718391895294189 0.20835037529468536
0.11444693803787231 0.49591690301895142 0.20965564250946045
0.14933142066001892 0.49721431732177734 0.20938494801521301
0.18257831037044525 0.50654298067092896 0.2034241259098053
0.2181473970413208 0.51841545104980469 0.1959424763917923
0.2620680034160614 0.53240573406219482 0.18568506836891174
0.31171411275863647 0.54693102836608887 0.17188346385955811
