LUTs/Fuji 800Z 2.cube
# Created by: G'MIC (https://gmic.eu)
TITLE "Fuji 800Z 2"
# LUT size
LUT_3D_SIZE 32
# Data domain
DOMAIN_MIN 0.0 0.0 0.0
DOMAIN_MAX 1.0 1.0 1.0
# LUT data points
0.04649927094578743 0.048391446471214294 0.03857344388961792
0.056857097893953323 0.048891350626945496 0.038469158113002777
0.074273139238357544 0.049385573714971542 0.038805142045021057
0.097192242741584778 0.049470636993646622 0.038425859063863754
0.12292449176311493 0.048992659896612167 0.038289930671453476
0.15081435441970825 0.047580614686012268 0.038517460227012634
0.18269334733486176 0.044981945306062698 0.038226284086704254
0.21529501676559448 0.04027654230594635 0.037520017474889755
0.25244173407554626 0.032483194023370743 0.036656305193901062
0.29003012180328369 0.022871268913149834 0.035750355571508408
0.33303296566009521 0.0099190855398774147 0.034261491149663925
0.37865269184112549 0.0013586035929620266 0.032400853931903839
0.4213508665561676 1.1835543773486279e-05 0.030179962515830994
0.46998545527458191 0 0.027837270870804787
0.51411968469619751 0 0.025062303990125656
0.56255060434341431 0 0.021031608805060387
0.60869210958480835 0 0.016968708485364914
0.65445446968078613 0 0.011663425713777542
0.69653606414794922 0 0.0068891588598489761
0.74005401134490967 0 0.0025281212292611599
0.77638578414916992 0 0.00060972583014518023
0.81307727098464966 0 3.3876705856528133e-05
0.84580135345458984 0 0
0.87375754117965698 0 0
0.90187531709671021 0 0
0.92690432071685791 0 0
0.95210093259811401 0 0
0.97521775960922241 0 0
0.99519950151443481 5.8953369261871558e-06 0
0.99993103742599487 0.0043469634838402271 0
0.99998176097869873 0.041135717183351517 0
0.99998986721038818 0.084809370338916779 0
0.047399159520864487 0.058151692152023315 0.04029453918337822
0.055976558476686478 0.059792827814817429 0.039875362068414688
0.073632180690765381 0.062469575554132462 0.038862630724906921
0.096633218228816986 0.063637837767601013 0.038059849292039871
0.12251383811235428 0.063669160008430481 0.038039814680814743
0.14995744824409485 0.062682211399078369 0.037477485835552216
0.18168199062347412 0.060751643031835556 0.037149049341678619
0.21456092596054077 0.05715024471282959 0.036496657878160477
0.25194764137268066 0.051406420767307281 0.035881362855434418
0.28967005014419556 0.043194286525249481 0.034540515393018723
0.33252564072608948 0.030904203653335571 0.032809756696224213
0.37815329432487488 0.015158894471824169 0.031276579946279526
0.42066812515258789 0.0040006870403885841 0.029024317860603333
0.46897047758102417 0.00050584331620484591 0.02625139057636261
0.51301521062850952 4.3496734178916086e-06 0.023290716111660004
0.56105619668960571 0 0.019365034997463226
0.60673576593399048 0 0.014864137396216393
0.65316051244735718 0 0.0096379276365041733
0.69507259130477905 0 0.0048923837020993233
0.73839068412780762 0 0.0013888564426451921
0.77510911226272583 0 0.00028879466117359698
0.81163895130157471 0 5.3718431445304304e-06
0.84419846534729004 0 0
0.87256419658660889 0 0
0.90079045295715332 0 0
0.92584764957427979 0 0
0.9509119987487793 0 0
0.97426438331604004 2.856127503036987e-05 0
0.99465382099151611 0.0030490509234368801 0
0.99999791383743286 0.027248810976743698 0
0.9999803900718689 0.072922497987747192 0
0.9999890923500061 0.10677612572908401 0
0.048870876431465149 0.073147207498550415 0.042942803353071213
0.056513909250497818 0.074162684381008148 0.042751871049404144
0.071023181080818176 0.077965304255485535 0.040527183562517166
0.094261467456817627 0.082076422870159149 0.038349606096744537
0.12099384516477585 0.083023771643638611 0.036584801971912384
0.14948749542236328 0.082413628697395325 0.03592207282781601
0.18156833946704865 0.081085681915283203 0.035496436059474945
0.21448856592178345 0.078730978071689606 0.034643325954675674
0.25179865956306458 0.074861884117126465 0.033799365162849426
0.28942370414733887 0.069741964340209961 0.032690804451704025
0.33210238814353943 0.06165950745344162 0.031149819493293762
0.37740358710289001 0.049802690744400024 0.029016505926847458
0.42030626535415649 0.035917479544878006 0.026850908994674683
0.46823927760124207 0.018980572000145912 0.024125600233674049
0.51212811470031738 0.0066093429923057556 0.020830815657973289
0.55990785360336304 0.0011991366045549512 0.01652388833463192
0.60569781064987183 3.1535197194898501e-05 0.011879228986799717
0.6526368260383606 0 0.0066860709339380264
0.69457143545150757 0 0.0028652818873524666
0.73754161596298218 0 0.00064938532887026668
0.77357858419418335 0 6.5345477196387947e-05
0.81026333570480347 0 0
0.84305727481842041 0 0
0.8712925910949707 0 0
0.89952778816223145 0 0
0.92460393905639648 4.9558639148017392e-05 0
0.95003688335418701 0.0024173986166715622 0
0.97301739454269409 0.013028411194682121 0
0.99384939670562744 0.041035585105419159 0
0.99993586540222168 0.07669888436794281 0
0.99999356269836426 0.10901037603616714 0
0.99999642372131348 0.13468706607818604 0
0.050077039748430252 0.091487117111682892 0.045549016445875168
0.057767223566770554 0.091425828635692596 0.046038895845413208
0.069180212914943695 0.094452850520610809 0.044249415397644043
0.088651426136493683 0.099489226937294006 0.04102654755115509
0.11745595186948776 0.1051415428519249 0.037236697971820831
0.14792706072330475 0.10698685050010681 0.03512457013130188
0.18070951104164124 0.10564637929201126 0.03353935107588768
0.21379491686820984 0.10372604429721832 0.032312411814928055
0.25123611092567444 0.10141881555318832 0.031268928200006485
0.28870826959609985 0.098380841314792633 0.030021823942661285
0.33167099952697754 0.093843646347522736 0.028326371684670448
0.37687623500823975 0.087092801928520203 0.0261073037981987
0.41957247257232666 0.079280070960521698 0.023728577420115471
0.46748211979866028 0.067430503666400909 0.020377269014716148
0.51141446828842163 0.053468182682991028 0.016913805156946182
0.55917972326278687 0.036489147692918777 0.012117950245738029
0.60555434226989746 0.023369429633021355 0.0075118956156075001
0.65316319465637207 0.014211804606020451 0.0030475631356239319
0.69441318511962891 0.0093588791787624359 0.0008927182643674314
0.73694741725921631 0.0062686530873179436 6.4157313317991793e-05
0.77294862270355225 0.0053378394804894924 2.0364451813748019e-07
0.80920302867889404 0.0055863461457192898 0
0.84157717227935791 0.0073419841937720776 0
0.86996173858642578 0.010920360684394836 0
0.89819842576980591 0.018137684091925621 0
0.92348963022232056 0.029458172619342804 0
0.94903844594955444 0.049772817641496658 0
0.97204041481018066 0.075017914175987244 0
0.99349135160446167 0.1004900336265564 0
0.99999392032623291 0.12340696156024933 0
0.99997442960739136 0.14595192670822144 0
1 0.16625255346298218 0
0.051040001213550568 0.11094909161329269 0.049041677266359329
0.058675803244113922 0.11029133200645447 0.049868155270814896
0.068942733108997345 0.11214767396450043 0.049046047031879425
0.084028773009777069 0.11703068763017654 0.046157918870449066
0.10793612152338028 0.12306065857410431 0.041414890438318253
0.14136412739753723 0.13108721375465393 0.036085762083530426
0.17801621556282043 0.13477371633052826 0.032401196658611298
0.21179677546024323 0.13358974456787109 0.030002297833561897
0.249611496925354 0.1312384307384491 0.028075944632291794
0.28699049353599548 0.12935175001621246 0.026341874152421951
0.33002564311027527 0.12687142193317413 0.024483174085617065
0.3750019371509552 0.12302412092685699 0.021836590021848679
0.41738292574882507 0.11906854808330536 0.019158203154802322
0.46518930792808533 0.11315132677555084 0.015374333597719669
0.50857192277908325 0.10644406825304031 0.011513777077198029
0.5563167929649353 0.097920514643192291 0.0069563612341880798
0.60357820987701416 0.089156545698642731 0.0030529526993632317
0.65074700117111206 0.080287791788578033 0.00076684198575094342
0.69154757261276245 0.072976656258106232 8.0383688327856362e-05
0.73379182815551758 0.067634612321853638 2.6249222173646558e-07
0.76929730176925659 0.065615184605121613 0
0.80556142330169678 0.067045427858829498 0
0.83828532695770264 0.072021976113319397 0
0.86685431003570557 0.079932674765586853 0
0.89494657516479492 0.091058649122714996 0
0.9203529953956604 0.10327132046222687 0
0.94609916210174561 0.11781823635101318 0
0.96943223476409912 0.13244564831256866 0
0.99146872758865356 0.1480487585067749 0
0.99992698431015015 0.16382589936256409 0
0.99999940395355225 0.18101358413696289 0
1 0.19752684235572815 0
0.051606733351945877 0.13341127336025238 0.053063962608575821
0.059837698936462402 0.13222087919712067 0.053846072405576706
0.069935999810695648 0.13200424611568451 0.053977761417627335
0.0831255242228508 0.13636977970600128 0.051665555685758591
0.10288753360509872 0.14237795770168304 0.047465451061725616
0.13109700381755829 0.15017493069171906 0.041773688048124313
0.17073650658130646 0.16011945903301239 0.034107975661754608
0.20965664088726044 0.16523481905460358 0.028519555926322937
0.24865803122520447 0.16473636031150818 0.02505212090909481
0.28593763709068298 0.16268645226955414 0.022228771820664406
0.32803437113761902 0.16008159518241882 0.019308300688862801
0.37258216738700867 0.15742504596710205 0.015980713069438934
0.41489830613136292 0.15532469749450684 0.012701769359409809
0.46243926882743835 0.15239728987216949 0.0086774742230772972
0.50622439384460449 0.14909373223781586 0.0052875503897666931
0.55532717704772949 0.1452014148235321 0.0021858043037354946
0.60252487659454346 0.14123053848743439 0.0004845988005399704
0.64886194467544556 0.13761036098003387 5.2990868425695226e-05
0.68921828269958496 0.13480788469314575 2.7871685688296566e-06
0.73081964254379272 0.13333062827587128 0
0.76637011766433716 0.13372896611690521 0
0.80237412452697754 0.13534724712371826 0
0.83542889356613159 0.13877272605895996 0
0.86373764276504517 0.14351058006286621 0
0.89232027530670166 0.1504766047000885 0
0.91803961992263794 0.15834741294384003 0
0.94348758459091187 0.16797976195812225 0
0.96689265966415405 0.17834816873073578 0
0.98962593078613281 0.18992963433265686 0
0.99978876113891602 0.20246723294258118 0
1 0.2161821573972702 0
0.99997460842132568 0.22990408539772034 0
0.051193505525588989 0.15801668167114258 0.057068224996328354
0.059998169541358948 0.15712679922580719 0.057988513261079788
0.070947736501693726 0.15545064210891724 0.059031382203102112
0.083557218313217163 0.15778474509716034 0.05780516192317009
0.1005057767033577 0.16372121870517731 0.053973253816366196
0.12394078075885773 0.17097826302051544 0.049049366265535355
0.15698306262493134 0.1801581084728241 0.041787851601839066
0.19944998621940613 0.1921333521604538 0.031573448330163956
0.24645495414733887 0.20109917223453522 0.022068802267313004
0.28544339537620544 0.20118829607963562 0.017566055059432983
0.32806766033172607 0.19951117038726807 0.013031873852014542
0.37154495716094971 0.19659529626369476 0.0088607193902134895
0.4124477207660675 0.19410803914070129 0.0049958368763327599
0.46001258492469788 0.19243122637271881 0.002173661021515727
0.50504940748214722 0.19206488132476807 0.00073147710645571351
0.55413615703582764 0.19073465466499329 0.00014176970580592752
0.60018962621688843 0.18911443650722504 4.6422128434642218e-06
0.64576262235641479 0.18790706992149353 0
0.68541055917739868 0.18732701241970062 0
0.72662591934204102 0.18726789951324463 0
0.76204454898834229 0.18841351568698883 0
0.79779410362243652 0.19015271961688995 0
0.83087342977523804 0.19292455911636353 0
0.85954362154006958 0.19671392440795898 0
0.88826555013656616 0.20194134116172791 0
0.91395574808120728 0.20757006108760834 0
0.9397655725479126 0.21491412818431854 0
0.96330678462982178 0.22274641692638397 0
0.98673409223556519 0.2318904846906662 0
0.99949342012405396 0.24202436208724976 0
1 0.25323161482810974 0
0.99999904632568359 0.26485678553581238 0
0.050303924828767776 0.18318957090377808 0.06170421838760376
0.059881351888179779 0.18229387700557709 0.062569208443164825
0.071634508669376373 0.18020465970039368 0.063374482095241547
0.084623634815216064 0.18002520501613617 0.063537605106830597
0.10012564808130264 0.18526309728622437 0.060554094612598419
0.12084806710481644 0.19230996072292328 0.056047052145004272
0.14967766404151917 0.2014317512512207 0.04929877445101738
0.18535377085208893 0.2116190642118454 0.0400870181620121
0.23388101160526276 0.22560665011405945 0.026218673214316368
0.28224045038223267 0.23619452118873596 0.014080556109547615
0.32791593670845032 0.23868560791015625 0.0069390577264130116
0.37266653776168823 0.2373797744512558 0.0029599794652312994
0.41411405801773071 0.23580525815486908 0.00085860746912658215
0.46012631058692932 0.23314948379993439 0.00015821591659914702
0.50285935401916504 0.23163343966007233 1.0830488463398069e-05
0.55032098293304443 0.23093625903129578 7.4094390356549411e-07
0.59573948383331299 0.23084299266338348 0
0.64054697751998901 0.23089501261711121 0
0.68008041381835938 0.23109482228755951 0
0.72105300426483154 0.23209109902381897 0
0.75607609748840332 0.23359955847263336 0
0.79226076602935791 0.2356446236371994 0
0.82538080215454102 0.23817197978496552 0
0.85429614782333374 0.24117839336395264 0
0.88316553831100464 0.24552023410797119 0
0.90924745798110962 0.25019636750221252 0
0.93531101942062378 0.25589561462402344 0
0.9588274359703064 0.26231065392494202 0
0.98263025283813477 0.26974466443061829 0
0.99870169162750244 0.27792727947235107 0
1 0.28713434934616089 0
0.99997496604919434 0.29693916440010071 0
0.048181343823671341 0.2123962938785553 0.066642172634601593
0.058691881597042084 0.21155133843421936 0.067752078175544739
0.071563638746738434 0.20940990746021271 0.068239159882068634
0.085926763713359833 0.20733983814716339 0.069481015205383301
0.10149342566728592 0.20995086431503296 0.068223282694816589
0.11999484896659851 0.21687537431716919 0.064037397503852844
0.14566753804683685 0.22574439644813538 0.057969853281974792
0.17696793377399445 0.23555469512939453 0.04984404519200325
0.21758753061294556 0.24736416339874268 0.037881594151258469
0.26714861392974854 0.26254874467849731 0.02094687893986702
0.32680508494377136 0.27939394116401672 0.0035595160443335772
0.37522575259208679 0.2825324535369873 0.00030164752388373017
0.41723519563674927 0.28230515122413635 2.6089381208294071e-05
0.46299177408218384 0.28051787614822388 1.2681442740358762e-07
0.50398027896881104 0.27801313996315002 0
0.54796016216278076 0.27480721473693848 0
0.59104281663894653 0.27375423908233643 0
0.63524037599563599 0.27444583177566528 0
0.67415940761566162 0.27534028887748718 0
0.71508133411407471 0.27714142203330994 0
0.75033223628997803 0.27909418940544128 0
0.78646045923233032 0.28103619813919067 0
0.81984096765518188 0.28337723016738892 0
0.84886091947555542 0.28609982132911682 0
0.87822419404983521 0.2895776629447937 0
0.90429961681365967 0.29341071844100952 0
0.93053239583969116 0.2981829047203064 0
0.95455354452133179 0.30335080623626709 0
0.97847378253936768 0.3096085786819458 0
0.9973609447479248 0.31638011336326599 0
0.99999147653579712 0.32410526275634766 0
0.99999874830245972 0.33266723155975342 0
0.045962817966938019 0.23962263762950897 0.071582630276679993
0.057147350162267685 0.23929329216480255 0.072671905159950256
0.071032002568244934 0.23721174895763397 0.073584534227848053
0.08626093715429306 0.2343304306268692 0.074912615120410919
0.10241998732089996 0.2338089793920517 0.075125463306903839
0.12011772394180298 0.24015003442764282 0.071564719080924988
0.14387579262256622 0.24913054704666138 0.066236071288585663
0.17264707386493683 0.25936713814735413 0.059045087546110153
0.21002082526683807 0.27157792448997498 0.048578795045614243
0.25284281373023987 0.28484803438186646 0.033677436411380768
0.3099713921546936 0.30301997065544128 0.012785011902451515
0.37301886081695557 0.32127436995506287 0.00093704054597765207
0.41937205195426941 0.32602095603942871 1.0717224085965427e-06
0.46536192297935486 0.32567942142486572 0
0.50590419769287109 0.32369673252105713 0
0.54873788356781006 0.32061114907264709 0
0.58869737386703491 0.3166317343711853 0
0.62972939014434814 0.31426361203193665 0
0.66703683137893677 0.31416743993759155 0
0.70737183094024658 0.31587842106819153 0
0.74239379167556763 0.31783807277679443 0
0.77930814027786255 0.32024490833282471 0
0.81301665306091309 0.32283097505569458 0
0.84228646755218506 0.32512748241424561 0
0.87197375297546387 0.32810899615287781 0
0.89807069301605225 0.33128714561462402 0
0.92480480670928955 0.33541437983512878 0
0.94902539253234863 0.33990651369094849 0
0.9732477068901062 0.34491926431655884 0
0.99430662393569946 0.3505139946937561 0
0.99998694658279419 0.35713616013526917 0
1 0.36469742655754089 0
0.042784400284290314 0.27188068628311157 0.077679097652435303
0.05497315526008606 0.27133500576019287 0.078724376857280731
0.069966398179531097 0.26931878924369812 0.079550959169864655
0.086797192692756653 0.26672542095184326 0.081165120005607605
0.10428209602832794 0.26415106654167175 0.082558155059814453
0.12192352116107941 0.26756387948989868 0.08058619499206543
0.14385804533958435 0.27628618478775024 0.075878657400608063
0.17037193477153778 0.28630170226097107 0.069578282535076141
0.20457637310028076 0.29837766289710999 0.06065995991230011
0.24290241301059723 0.31079551577568054 0.047868568450212479
0.29165145754814148 0.32591578364372253 0.028807086870074272
0.3513091504573822 0.34481146931648254 0.0072113233618438244
0.41357341408729553 0.36575382947921753 0.00021504356118384749
0.46632948517799377 0.37246307730674744 2.4966590217445628e-07
0.50690799951553345 0.37160056829452515 0
0.54932177066802979 0.36926215887069702 0
0.58906441926956177 0.36621013283729553 0
0.62836945056915283 0.36258560419082642 0
0.66233783960342407 0.3587474524974823 0
0.69971710443496704 0.35702067613601685 0
0.7340502142906189 0.35828784108161926 0
0.77049046754837036 0.36053335666656494 0
0.80462980270385742 0.36294370889663696 0
0.83455651998519897 0.3655427098274231 0
0.86411982774734497 0.36792472004890442 0
0.89103764295578003 0.37089955806732178 0
0.91785663366317749 0.37414085865020752 0
0.94234549999237061 0.37754422426223755 0
0.96709048748016357 0.38190704584121704 0
0.98992860317230225 0.38665544986724854 0
0.99973183870315552 0.39191868901252747 0
0.99995768070220947 0.3981783390045166 0
0.039372097700834274 0.30511912703514099 0.084529086947441101
0.052727039903402328 0.30522212386131287 0.085580162703990936
0.069254174828529358 0.30322176218032837 0.08659294992685318
0.086948886513710022 0.30055463314056396 0.087914712727069855
0.10579855740070343 0.29691356420516968 0.089265063405036926
0.12379037588834763 0.29593187570571899 0.089576289057731628
0.14470198750495911 0.30239158868789673 0.085778005421161652
0.16914038360118866 0.31192702054977417 0.080315098166465759
0.20025724172592163 0.32355138659477234 0.072649143636226654
0.23533007502555847 0.33577975630760193 0.062339123338460922
0.27936181426048279 0.3501037061214447 0.046448133885860443
0.33093106746673584 0.36609524488449097 0.023714927956461906
0.38539168238639832 0.38329607248306274 0.0046775662340223789
0.45470589399337769 0.40711832046508789 0.00010429867688799277
0.50690144300460815 0.41796797513961792 0
0.5501781702041626 0.41730859875679016 0
0.5893704891204834 0.41492226719856262 0
0.62850499153137207 0.41185596585273743 0
0.66209864616394043 0.40834891796112061 0
0.69736379384994507 0.40475818514823914 0
0.72835409641265869 0.40158000588417053 0
0.76269787549972534 0.40055158734321594 0
0.79644918441772461 0.40208467841148376 0
0.82643938064575195 0.40431490540504456 0
0.85679173469543457 0.40673613548278809 0
0.8839525580406189 0.40912073850631714 0
0.91105812788009644 0.41174569725990295 0
0.93594092130661011 0.41474330425262451 0
0.96112746000289917 0.41832152009010315 0
0.98513489961624146 0.42237281799316406 0
0.99916267395019531 0.42694026231765747 0
0.99999457597732544 0.43249416351318359 0
0.036684583872556686 0.3342985212802887 0.091160625219345093
0.051187194883823395 0.33491989970207214 0.092260114848613739
0.068460561335086823 0.33280718326568604 0.093275859951972961
0.087112307548522949 0.33009263873100281 0.094419173896312714
0.1066964715719223 0.32679012417793274 0.095973089337348938
0.12524516880512238 0.323007732629776 0.09687323123216629
0.14588043093681335 0.32605794072151184 0.095373928546905518
0.16900134086608887 0.33502292633056641 0.090336881577968597
0.19810813665390015 0.34635370969772339 0.083682790398597717
0.23047176003456116 0.35804802179336548 0.075217880308628082
0.27139490842819214 0.37248009443283081 0.06251971423625946
0.31873127818107605 0.38791868090629578 0.042986959218978882
0.36738395690917969 0.40270841121673584 0.01981302909553051
0.42796096205711365 0.42188930511474609 0.0023652117233723402
0.49312645196914673 0.44562965631484985 2.0945417418261059e-05
0.54935979843139648 0.45764723420143127 0
0.58973592519760132 0.45717635750770569 0
0.62829422950744629 0.45466598868370056 0
0.66121244430541992 0.45135119557380676 0
0.69631749391555786 0.44805437326431274 0
0.72654271125793457 0.4443148672580719 0
0.75854188203811646 0.44025874137878418 0
0.78969871997833252 0.43741771578788757 0
0.81881475448608398 0.43743622303009033 0
0.84876024723052979 0.43914976716041565 0
0.87614154815673828 0.4412253201007843 0
0.90388256311416626 0.44372960925102234 0
0.92906820774078369 0.44621098041534424 0
0.95446968078613281 0.4491254985332489 0
0.97916674613952637 0.45253816246986389 0
0.99795913696289062 0.45638167858123779 0
0.99994724988937378 0.46140503883361816 0
0.035604514181613922 0.36625975370407104 0.098914094269275665
0.050557110458612442 0.36678066849708557 0.099955514073371887
0.068603791296482086 0.36480116844177246 0.10101722925901413
0.088066190481185913 0.36216405034065247 0.10205467045307159
0.10809733718633652 0.35830864310264587 0.1029689759016037
0.1275239884853363 0.35452702641487122 0.1045200526714325
0.14792242646217346 0.35265260934829712 0.10517077893018723
0.16959671676158905 0.35961118340492249 0.10141497105360031
0.19641636312007904 0.36993119120597839 0.095560945570468903
0.22679761052131653 0.3813508152961731 0.088667243719100952
0.26432099938392639 0.39499124884605408 0.078791826963424683
0.30769026279449463 0.40966376662254333 0.063950903713703156
0.35225856304168701 0.42411980032920837 0.045134685933589935
0.40652275085449219 0.44113790988922119 0.018319135531783104
0.4612676203250885 0.45829850435256958 0.0022226630244404078
0.52991563081741333 0.48276033997535706 3.0081426302785985e-05
0.58753311634063721 0.49877738952636719 0
0.62806934118270874 0.49892917275428772 0
0.66103214025497437 0.49666571617126465 0
0.69566696882247925 0.49328529834747314 0
0.7256125807762146 0.4897724986076355 0
0.75716453790664673 0.48565411567687988 0
0.78692656755447388 0.48158112168312073 0
0.81346017122268677 0.47759327292442322 0
0.84128499031066895 0.47512426972389221 0
0.86817234754562378 0.47554188966751099 0
0.89626139402389526 0.47739174962043762 0
0.92193198204040527 0.47945660352706909 0
0.94781792163848877 0.48222839832305908 0
0.97266334295272827 0.48508492112159729 0
0.99545156955718994 0.48845833539962769 0
0.99999594688415527 0.49279749393463135 0
0.036782629787921906 0.39434486627578735 0.10648813843727112
0.051964804530143738 0.3950258195400238 0.10734523087739944
0.07046286016702652 0.39313024282455444 0.10824702680110931
0.089966721832752228 0.39078173041343689 0.10936112701892853
0.11002299189567566 0.38713514804840088 0.11005660146474838
0.12936951220035553 0.38296464085578918 0.11135347187519073
0.14982850849628448 0.37832960486412048 0.11270364373922348
0.170794278383255 0.38115319609642029 0.11132143437862396
0.19602076709270477 0.39103031158447266 0.10642335563898087
0.22438681125640869 0.40190777182579041 0.10045913606882095
0.25964641571044922 0.41503188014030457 0.092361181974411011
0.30041438341140747 0.42958974838256836 0.081312455236911774
0.34151542186737061 0.44317340850830078 0.067243911325931549
0.39187154173851013 0.45964819192886353 0.044687263667583466
0.4418274462223053 0.47518536448478699 0.018267408013343811
0.50106024742126465 0.49337378144264221 0.0020604273304343224
