LUTs/Fuji Superia 1600 1 -.cube
# Created by: G'MIC (https://gmic.eu)
TITLE "Fuji Superia 1600 1 -"
# LUT size
LUT_3D_SIZE 32
# Data domain
DOMAIN_MIN 0.0 0.0 0.0
DOMAIN_MAX 1.0 1.0 1.0
# LUT data points
0.021279605105519295 0.041979685425758362 0.052824810147285461
0.022812886163592339 0.042162459343671799 0.052737019956111908
0.026388425379991531 0.042394779622554779 0.053186673671007156
0.033376418054103851 0.043013989925384521 0.052893854677677155
0.045599643141031265 0.04382454976439476 0.052658725529909134
0.064752258360385895 0.045701064169406891 0.052499406039714813
0.092412695288658142 0.04823988676071167 0.052126985043287277
0.12170420587062836 0.050640340894460678 0.050774268805980682
0.15682783722877502 0.053503893315792084 0.049118880182504654
0.1937623918056488 0.056181561201810837 0.047361742705106735
0.23724921047687531 0.057691961526870728 0.04443749412894249
0.28527346253395081 0.05709569901227951 0.040636513382196426
0.33151337504386902 0.053998030722141266 0.036310113966464996
0.38404881954193115 0.04723358154296875 0.031211603432893753
0.43143576383590698 0.03738442063331604 0.025604071095585823
0.48130893707275391 0.024551060050725937 0.019251786172389984
0.52697086334228516 0.011968684382736683 0.012974763289093971
0.57098031044006348 0.0027530004736036062 0.0066507873125374317
0.61197692155838013 0.0003650638391263783 0.0019311424111947417
0.65205711126327515 5.4279644245980307e-06 0.00022370298393070698
0.68529969453811646 1.0849536238310975e-06 3.8692460293532349e-06
0.71988087892532349 0.00026031277957372367 0
0.75265061855316162 0.0036978721618652344 0
0.78221863508224487 0.016764853149652481 0
0.81348943710327148 0.042298935353755951 0
0.84230852127075195 0.069069728255271912 0
0.87192147970199585 0.095931783318519592 0
0.89959925413131714 0.12090195715427399 0
0.92757469415664673 0.14658711850643158 0
0.95506560802459717 0.17234916985034943 0
0.98293334245681763 0.19950786232948303 0
0.99879002571105957 0.22479046881198883 0
0.021488899365067482 0.043692018836736679 0.053338687866926193
0.022943630814552307 0.044035006314516068 0.053051315248012543
0.02696511521935463 0.044868383556604385 0.053200628608465195
0.03476199135184288 0.045975226908922195 0.053058363497257233
0.04807204008102417 0.047529865056276321 0.053109440952539444
0.067928522825241089 0.050044789910316467 0.052323225885629654
0.094936586916446686 0.0536910779774189 0.051625519990921021
0.1245022788643837 0.057077996432781219 0.050264216959476471
0.16012677550315857 0.061119180172681808 0.048504386097192764
0.19750861823558807 0.064156703650951385 0.046128164976835251
0.24126793444156647 0.066474854946136475 0.042990081012248993
0.28973802924156189 0.06708034873008728 0.039006087929010391
0.33575522899627686 0.064912669360637665 0.03453599289059639
0.38775542378425598 0.059746835380792618 0.029088063165545464
0.43462857604026794 0.052282676100730896 0.023643705993890762
0.48349645733833313 0.041707683354616165 0.017530482262372971
0.52848517894744873 0.030171342194080353 0.011238615959882736
0.57323223352432251 0.018167451024055481 0.0048449672758579254
0.61334413290023804 0.0099851544946432114 0.00099849631078541279
0.6530689001083374 0.0062059457413852215 4.7061723307706416e-05
0.68655788898468018 0.0066894465126097202 2.2627169471434172e-08
0.72064721584320068 0.011002169921994209 0
0.75315302610397339 0.022992651909589767 0
0.78331267833709717 0.040933579206466675 0
0.8141864538192749 0.063724786043167114 0
0.84253787994384766 0.085728324949741364 0
0.87208366394042969 0.10915171355009079 0
0.89989286661148071 0.13211756944656372 0
0.92763566970825195 0.15597116947174072 0
0.95500475168228149 0.18030397593975067 0
0.98288965225219727 0.20660156011581421 0
0.99880433082580566 0.23115280270576477 0
0.020541101694107056 0.048082679510116577 0.053663704544305801
0.022167813032865524 0.048711638897657394 0.053712327033281326
0.026546839624643326 0.050024684518575668 0.05362238734960556
0.036101538687944412 0.052654355764389038 0.05301334336400032
0.0517534539103508 0.055407829582691193 0.052136536687612534
0.074122615158557892 0.058731339871883392 0.051562666893005371
0.10204903781414032 0.063379727303981781 0.050393782556056976
0.13180993497371674 0.067948110401630402 0.048819679766893387
0.16728313267230988 0.072618424892425537 0.046777892857789993
0.2045445591211319 0.076767988502979279 0.044353026896715164
0.24869294464588165 0.079932048916816711 0.040745209902524948
0.29679366946220398 0.081132449209690094 0.03609369695186615
0.34284186363220215 0.080269239842891693 0.031675059348344803
0.39437764883041382 0.076928071677684784 0.026133175939321518
0.44069242477416992 0.071796692907810211 0.020623479038476944
0.48913088440895081 0.06438077986240387 0.014297627843916416
0.53366893529891968 0.056173473596572876 0.0081413965672254562
0.57907354831695557 0.047235529869794846 0.0027535746339708567
0.61879086494445801 0.040898822247982025 0.00046422510058619082
0.65732288360595703 0.037739641964435577 1.2590252481459174e-05
0.68976026773452759 0.03924969956278801 0
0.72380948066711426 0.045977525413036346 0
0.75654953718185425 0.057850044220685959 0
0.78607362508773804 0.072046510875225067 0
0.81674307584762573 0.089657440781593323 0
0.84509485960006714 0.10791035741567612 0
0.87439948320388794 0.12825071811676025 0
0.90153616666793823 0.14869005978107452 0
0.92901784181594849 0.17044088244438171 0
0.95623117685317993 0.19338396191596985 0
0.98373562097549438 0.21799112856388092 0
0.99895733594894409 0.24183236062526703 0
0.017251841723918915 0.057339362800121307 0.054409924894571304
0.019396919757127762 0.058086127042770386 0.054374605417251587
0.024253681302070618 0.05996076762676239 0.053834099322557449
0.034527137875556946 0.063871197402477264 0.052615240216255188
0.053999867290258408 0.070689871907234192 0.050912588834762573
0.079776182770729065 0.076978422701358795 0.04959443211555481
0.10922319442033768 0.08073241263628006 0.048117965459823608
0.14014071226119995 0.08448193222284317 0.046434227377176285
0.1762804388999939 0.089230328798294067 0.043942514806985855
0.21406243741512299 0.093953117728233337 0.041042696684598923
0.25869119167327881 0.098023571074008942 0.037240315228700638
0.30723512172698975 0.09984869509935379 0.032128933817148209
0.35311222076416016 0.1000884622335434 0.027502259239554405
0.40430611371994019 0.097999632358551025 0.021573126316070557
0.450234055519104 0.094472326338291168 0.015781959518790245
0.49796050786972046 0.089375525712966919 0.0096564432606101036
0.54285871982574463 0.084306329488754272 0.0041616065427660942
0.58932340145111084 0.079254984855651855 0.00077600701479241252
0.62709146738052368 0.076104283332824707 5.6420591135974973e-05
0.66447526216506958 0.075439415872097015 1.265587457055517e-07
0.69647872447967529 0.07802889496088028 0
0.72974497079849243 0.083878651261329651 0
0.76125448942184448 0.092785164713859558 0
0.79048621654510498 0.10398536920547485 0
0.82112306356430054 0.1186155304312706 0
0.84896969795227051 0.13366292417049408 0
0.87804633378982544 0.15171031653881073 0
0.90516084432601929 0.17013745009899139 0
0.93238121271133423 0.19013656675815582 0
0.95885348320007324 0.2108340710401535 0
0.98601710796356201 0.23389378190040588 0
0.99931257963180542 0.25654125213623047 0
0.0088802417740225792 0.074019938707351685 0.054210130125284195
0.011808409355580807 0.074840150773525238 0.054146561771631241
0.017374740913510323 0.077147208154201508 0.053889315575361252
0.028105380013585091 0.081967554986476898 0.052421301603317261
0.047138374298810959 0.088843591511249542 0.049950890243053436
0.076846539974212646 0.10014680773019791 0.046314463019371033
0.11205153912305832 0.109561488032341 0.042919803410768509
0.14581020176410675 0.11252063512802124 0.040970750153064728
0.18485337495803833 0.11407707631587982 0.038874082267284393
0.22417038679122925 0.11685642600059509 0.03599875420331955
0.26950111985206604 0.12079880386590958 0.031922675669193268
0.31807875633239746 0.12309388071298599 0.026491235941648483
0.36381953954696655 0.12403710931539536 0.021422352641820908
0.414223313331604 0.12307976186275482 0.015924543142318726
0.4586607813835144 0.12086883187294006 0.010244328528642654
0.50558263063430786 0.1176552027463913 0.0046082134358584881
0.55189728736877441 0.11462561786174774 0.0010158831719309092
0.59653913974761963 0.11212273687124252 9.6709212812129408e-05
0.63251429796218872 0.11082563549280167 1.5647263751361606e-07
0.66909271478652954 0.11152274906635284 0
0.6998174786567688 0.11375587433576584 0
0.73253351449966431 0.1187041848897934 0
0.76417917013168335 0.12594348192214966 0
0.79303562641143799 0.13508710265159607 0
0.82299619913101196 0.14716359972953796 0
0.85051238536834717 0.16009323298931122 0
0.87932342290878296 0.17575764656066895 0
0.90593189001083374 0.1921469122171402 0
0.93289649486541748 0.2098720520734787 0
0.95903259515762329 0.22888737916946411 0
0.98628979921340942 0.25062289834022522 0
0.99941062927246094 0.2718389630317688 0
0.00070121226599439979 0.10402373969554901 0.053099486976861954
0.0017066679429262877 0.10453957319259644 0.05314280092716217
0.0047014527954161167 0.10520420223474503 0.052872005850076675
0.013108642771840096 0.1099681630730629 0.050922412425279617
0.032434858381748199 0.11672743409872055 0.047896839678287506
0.063649162650108337 0.12581236660480499 0.043830372393131256
0.10613086074590683 0.14093062281608582 0.03650936484336853
0.14930835366249084 0.15116694569587708 0.030359735712409019
0.19214355945587158 0.15329284965991974 0.027658911421895027
0.23384369909763336 0.15208113193511963 0.025748869404196739
0.28116518259048462 0.15079924464225769 0.023045968264341354
0.33082017302513123 0.15047593414783478 0.018585670739412308
0.376344233751297 0.1513105034828186 0.013875179924070835
0.42600080370903015 0.15093685686588287 0.0083003770560026169
0.47065800428390503 0.14976818859577179 0.0037736915983259678
0.51997601985931396 0.14837354421615601 0.00095983321079984307
0.56535935401916504 0.14718316495418549 8.4326740761753172e-05
0.60678744316101074 0.14567512273788452 3.7091938338562613e-06
0.64097100496292114 0.14539919793605804 0
0.6761469841003418 0.14618390798568726 0
0.70650535821914673 0.1488126665353775 0
0.73876100778579712 0.15302985906600952 0
0.76936739683151245 0.15930210053920746 0
0.79773801565170288 0.16713955998420715 0
0.82718276977539062 0.17751999199390411 0
0.85469537973403931 0.18900790810585022 0
0.88279521465301514 0.202762171626091 0
0.90902674198150635 0.21741314232349396 0
0.93569791316986084 0.23374034464359283 0
0.96157360076904297 0.25141811370849609 0
0.9878113865852356 0.27097567915916443 0
0.99951732158660889 0.29103785753250122 0
0 0.1403830498456955 0.05076063796877861
0 0.14133051037788391 0.050979733467102051
1.7435151676181704e-05 0.14083893597126007 0.051281742751598358
0.00059525715187191963 0.14379142224788666 0.049542076885700226
0.0079510314390063286 0.150639608502388 0.045554809272289276
0.037640411406755447 0.15914656221866608 0.040594965219497681
0.08375413715839386 0.16996908187866211 0.033321253955364227
0.13603542745113373 0.18603423237800598 0.022020032629370689
0.19505198299884796 0.20118607580661774 0.010790398344397545
0.24225185811519623 0.20122891664505005 0.0086483899503946304
0.2929055392742157 0.19769687950611115 0.0075205294415354729
0.34465280175209045 0.19164806604385376 0.0061291991733014584
0.39136755466461182 0.18659202754497528 0.0043020257726311684
0.44219717383384705 0.18508300185203552 0.0014375097816810012
0.48930060863494873 0.18540632724761963 0.00025194644695147872
0.53740561008453369 0.1848909854888916 2.318092629138846e-05
0.57907170057296753 0.18371158838272095 1.3192790504490404e-07
0.61747556924819946 0.18276415765285492 0
0.64996719360351562 0.18284988403320312 0
0.68401902914047241 0.18349769711494446 0
0.71340841054916382 0.18544039130210876 0
0.74465459585189819 0.189279705286026 0
0.77472865581512451 0.19448189437389374 0
0.80261296033859253 0.20104704797267914 0
0.83145993947982788 0.21038113534450531 0
0.85830974578857422 0.2203652411699295 0
0.88596141338348389 0.23258495330810547 0
0.91204392910003662 0.24575892090797424 0
0.93831110000610352 0.26060715317726135 0
0.96361815929412842 0.27638435363769531 0
0.98935765027999878 0.29438924789428711 0
0.99971699714660645 0.31331127882003784 0
0 0.17973211407661438 0.049089368432760239
0 0.18058241903781891 0.049330387264490128
0 0.17932303249835968 0.049484416842460632
0 0.18023808300495148 0.048887491226196289
0.00016032946587074548 0.18612010776996613 0.044431742280721664
0.0091123338788747787 0.19449923932552338 0.038124214857816696
0.049836862832307816 0.20510777831077576 0.029479147866368294
0.10835318267345428 0.21679334342479706 0.01877620629966259
0.17596359550952911 0.2347729504108429 0.004374244250357151
0.2428053617477417 0.24942231178283691 0.00027476091054268181
0.30277535319328308 0.25021862983703613 0.0002118152187904343
0.35777419805526733 0.24446630477905273 0.0001525124826002866
0.40798547863960266 0.23778925836086273 0.00011910662578884512
0.46166786551475525 0.22976595163345337 4.6365534217329696e-05
0.50646394491195679 0.22442097961902618 1.1624229045992251e-06
0.55071645975112915 0.22164659202098846 0
0.58970320224761963 0.21999755501747131 0
0.62608534097671509 0.21881778538227081 0
0.65728700160980225 0.21836733818054199 0
0.69004231691360474 0.21899272501468658 0
0.71899539232254028 0.2205900251865387 0
0.74961602687835693 0.22350823879241943 0
0.77914631366729736 0.22806940972805023 0
0.80640864372253418 0.23378273844718933 0
0.83493733406066895 0.24185119569301605 0
0.86123561859130859 0.25077486038208008 0
0.88847857713699341 0.26187729835510254 0
0.91368675231933594 0.27340930700302124 0
0.9395560622215271 0.28658518195152283 0
0.96472084522247314 0.30111607909202576 0
0.99032855033874512 0.31767019629478455 0
0.9997638463973999 0.33483430743217468 0
0 0.22785040736198425 0.048417042940855026
0 0.2289673388004303 0.048857536166906357
0 0.22746062278747559 0.048986684530973434
0 0.22652824223041534 0.049260016530752182
0 0.22972887754440308 0.045745726674795151
0.00010505047248443589 0.23720312118530273 0.038348525762557983
0.0095623396337032318 0.24666142463684082 0.028298977762460709
0.068968154489994049 0.25683438777923584 0.016512986272573471
0.14488230645656586 0.26928398013114929 0.0040130321867763996
0.21951775252819061 0.2864747941493988 0.00011741412163246423
0.30942142009735107 0.30801588296890259 0
0.3755212128162384 0.307760089635849 0
0.42612940073013306 0.3006138801574707 0
0.47788339853286743 0.2905830442905426 0
0.52184492349624634 0.28018391132354736 0
0.56532102823257446 0.26863160729408264 0
0.60226261615753174 0.26172593235969543 0
0.63703525066375732 0.25921839475631714 0
0.66738522052764893 0.25848224759101868 0
0.69984924793243408 0.25873592495918274 0
0.72813642024993896 0.26024988293647766 0
0.75768947601318359 0.26237913966178894 0
0.78640890121459961 0.26624217629432678 0
0.81289517879486084 0.27112966775894165 0
0.84078061580657959 0.27815750241279602 0
0.86647868156433105 0.28609010577201843 0
0.89312165975570679 0.29575484991073608 0
0.91797709465026855 0.30615472793579102 0
0.94359844923019409 0.31820717453956604 0
0.96834027767181396 0.33127555251121521 0
0.99259805679321289 0.34584939479827881 0
0.99998766183853149 0.36249509453773499 0
0 0.27034169435501099 0.049448590725660324
0 0.27244669198989868 0.049908861517906189
0 0.27148318290710449 0.050440043210983276
0 0.26974663138389587 0.051110353320837021
0 0.2704169750213623 0.049578353762626648
0 0.27716100215911865 0.042440161108970642
0.00032772275153547525 0.28690621256828308 0.031652268022298813
0.027735987678170204 0.29818323254585266 0.018668888136744499
0.11533042043447495 0.31143757700920105 0.0047527099959552288
0.19496957957744598 0.32479661703109741 0.00017562636639922857
0.28446167707443237 0.34271496534347534 1.7641522731537407e-07
0.37832322716712952 0.36162564158439636 0
0.44005283713340759 0.36139324307441711 0
0.49103790521621704 0.35076621174812317 0
0.5330241322517395 0.33909916877746582 0
0.57401233911514282 0.32526153326034546 0
0.61033749580383301 0.31141087412834167 0
0.6450466513633728 0.30099672079086304 0
0.67522478103637695 0.29695463180541992 0
0.706656813621521 0.29610946774482727 0
0.73387879133224487 0.29682451486587524 0
0.76273226737976074 0.29831069707870483 0
0.79126495122909546 0.30151626467704773 0
0.81708008050918579 0.30548813939094543 0
0.84445571899414062 0.31173589825630188 0
0.86953467130661011 0.31846576929092407 0
0.89589822292327881 0.32710534334182739 0
0.92025327682495117 0.33616811037063599 0
0.94517827033996582 0.34702843427658081 0
0.9695584774017334 0.35879504680633545 0
0.99344873428344727 0.37255650758743286 0
1 0.38748610019683838 0
0 0.32201021909713745 0.054165374487638474
0 0.32425639033317566 0.054917536675930023
0 0.32364270091056824 0.055320709943771362
0 0.32271000742912292 0.056099355220794678
0 0.32183486223220825 0.056502770632505417
0 0.32630398869514465 0.051623772829771042
0 0.3356010913848877 0.040894772857427597
0.0050995596684515476 0.34528622031211853 0.027297718450427055
0.073491290211677551 0.35641568899154663 0.010725219734013081
0.16849163174629211 0.36723017692565918 0.001569210784509778
0.25538012385368347 0.37907931208610535 2.5488865503575653e-05
0.34486013650894165 0.39360508322715759 0
0.43274664878845215 0.41231498122215271 0
0.49933025240898132 0.41244113445281982 0
0.54075068235397339 0.4007161557674408 0
0.58037769794464111 0.3865068256855011 0
0.61636483669281006 0.37299555540084839 0
0.65171205997467041 0.35941043496131897 0
0.68221074342727661 0.34765148162841797 0
0.71413493156433105 0.33969241380691528 0
0.74060845375061035 0.33758854866027832 0
0.76883167028427124 0.3379967212677002 0
0.79653042554855347 0.34028881788253784 0
0.82203525304794312 0.34379842877388 0
0.84849816560745239 0.34865236282348633 0
0.87313246726989746 0.35456672310829163 0
0.89868706464767456 0.36187732219696045 0
0.92246955633163452 0.36984047293663025 0
0.94702929258346558 0.37932130694389343 0
0.97138500213623047 0.38990345597267151 0
0.99436694383621216 0.40216019749641418 0
0.99995768070220947 0.41554409265518188 0
0 0.37327444553375244 0.065669827163219452
0 0.37747779488563538 0.067581340670585632
0 0.37642678618431091 0.06789233535528183
0 0.37498769164085388 0.068305306136608124
0 0.37308794260025024 0.06873292475938797
0 0.37311622500419617 0.066880717873573303
0 0.37906831502914429 0.058335375040769577
0.00027765217237174511 0.38671645522117615 0.046085886657238007
0.032331235706806183 0.39600068330764771 0.029588429257273674
0.1386907547712326 0.40543237328529358 0.012571005150675774
0.23037989437580109 0.41553294658660889 0.0016643272247165442
0.31391429901123047 0.42597788572311401 5.0161896069766954e-05
0.39043104648590088 0.43684816360473633 0
0.47995659708976746 0.45415827631950378 0
0.54351925849914551 0.45897641777992249 0
0.58633041381835938 0.44737297296524048 0
0.62200188636779785 0.43403610587120056 0
0.65758419036865234 0.42083221673965454 0
0.68841564655303955 0.40958201885223389 0
0.72037714719772339 0.39736399054527283 0
0.74730634689331055 0.38755068182945251 0
0.77615523338317871 0.38130265474319458 0
0.80319881439208984 0.38122043013572693 0
0.82798248529434204 0.38386180996894836 0
0.85421156883239746 0.38802894949913025 0
0.87810838222503662 0.39270871877670288 0
0.90312200784683228 0.3989221453666687 0
0.92639422416687012 0.4058094322681427 0
0.95058339834213257 0.41390290856361389 0
0.97465944290161133 0.42329716682434082 0
0.99610388278961182 0.43459978699684143 0
0.99999457597732544 0.44692203402519226 5.2894840337103233e-05
0 0.41493207216262817 0.081392459571361542
0 0.41917344927787781 0.084046967327594757
0 0.41831403970718384 0.084279619157314301
0 0.41669043898582458 0.084119029343128204
0 0.4145711362361908 0.08444659411907196
0 0.41254165768623352 0.08399643748998642
0 0.41558632254600525 0.079324722290039062
0 0.42244985699653625 0.069912813603878021
0.012965146452188492 0.43058353662490845 0.0566440150141716
0.11561345309019089 0.43871766328811646 0.03952547162771225
0.21322278678417206 0.44791612029075623 0.018335232511162758
0.29458343982696533 0.45696231722831726 0.0040477020666003227
0.36531040072441101 0.46503385901451111 0.00042214948916807771
0.44310581684112549 0.47463864088058472 1.2903732567792758e-05
0.52069759368896484 0.49032562971115112 0
0.58680903911590576 0.49726077914237976 0
0.62662196159362793 0.48742944002151489 0
0.66155976057052612 0.47479507327079773 0
0.69166094064712524 0.46316015720367432 0
0.72309660911560059 0.45090413093566895 0
0.75024235248565674 0.44000434875488281 0
0.77916401624679565 0.42901110649108887 0
0.80732059478759766 0.42134365439414978 0
0.83223909139633179 0.41999661922454834 0
0.85767793655395508 0.42245745658874512 0
0.88099545240402222 0.42600968480110168 0
0.90570628643035889 0.43141746520996094 0
0.92842823266983032 0.43695750832557678 0
0.95220088958740234 0.44446200132369995 0
0.97612589597702026 0.4531383216381073 1.2327759577601682e-06
0.9968031644821167 0.46332928538322449 6.077755824662745e-05
0.99994724988937378 0.47422873973846436 0.0015653788577765226
0 0.45586481690406799 0.10371675342321396
0 0.45953047275543213 0.10677566379308701
0 0.45877692103385925 0.10714750736951828
0 0.45748510956764221 0.10717283189296722
0 0.45561155676841736 0.10690112411975861
0 0.45333921909332275 0.10668336600065231
0 0.45288810133934021 0.10528665781021118
0 0.45743733644485474 0.098599717020988464
0.0057621118612587452 0.46408876776695251 0.088998369872570038
0.095104038715362549 0.47079131007194519 0.077170491218566895
0.19700075685977936 0.47863993048667908 0.060657989233732224
0.27554678916931152 0.48620671033859253 0.038419384509325027
0.34257417917251587 0.49341103434562683 0.017720980569720268
0.41436204314231873 0.50135701894760132 0.003799231955781579
0.48039963841438293 0.50957119464874268 0.00024731984012760222
0.55791705846786499 0.52586996555328369 3.0512157991324784e-06
0.62375855445861816 0.53793203830718994 0
0.66546839475631714 0.53133267164230347 0
0.69549095630645752 0.52029138803482056 0
0.72621893882751465 0.5081334114074707 0
0.75311142206192017 0.49759578704833984 0
0.78201842308044434 0.48681005835533142 0
0.81011760234832764 0.47708040475845337 0
0.83543771505355835 0.46891099214553833 0
0.86160159111022949 0.46411871910095215 0
0.885539710521698 0.46432894468307495 0
0.90946221351623535 0.46818095445632935 0
0.93173998594284058 0.47305572032928467 2.5980978080042405e-06
0.95545297861099243 0.4796568751335144 5.8472916862228885e-05
0.97860902547836304 0.48724764585494995 0.00068437564186751842
0.99769175052642822 0.49603867530822754 0.0048421751707792282
0.99999594688415527 0.50543504953384399 0.0191915612667799
0 0.48834735155105591 0.12691792845726013
0 0.49241113662719727 0.13119335472583771
0 0.4918275773525238 0.13123312592506409
0 0.4904664158821106 0.13104622066020966
0 0.4886205792427063 0.13032475113868713
0 0.48639547824859619 0.12983100116252899
0 0.48385348916053772 0.12905928492546082
0 0.4859367311000824 0.12563847005367279
0.0047360751777887344 0.4915546178817749 0.11864393204450607
0.088462956249713898 0.49747124314308167 0.11004149913787842
0.18879866600036621 0.504566490650177 0.099121324717998505
0.26488080620765686 0.51201647520065308 0.084238231182098389
0.32839804887771606 0.51890391111373901 0.066012412309646606
0.39652064442634583 0.52673953771591187 0.039035599678754807
0.4582001268863678 0.53419560194015503 0.015023700892925262
0.5249030590057373 0.5433495044708252 0.0025872595142573118
0.59589660167694092 0.55986374616622925 0.00020824694365728647
0.66230183839797974 0.5753931999206543 1.6943531591095962e-06
0.69777697324752808 0.56950473785400391 0
0.72839182615280151 0.55772912502288818 0
0.75519192218780518 0.54762160778045654 0
0.78386783599853516 0.53690099716186523 0
0.81142795085906982 0.52717357873916626 0
0.83733111619949341 0.51926064491271973 0
0.86346513032913208 0.51155281066894531 0
