LUTs/Fuji Superia X-Tra 800.cube
# Created by: G'MIC (https://gmic.eu)
TITLE "Fuji Superia X-Tra 800"
# LUT size
LUT_3D_SIZE 5
# Data domain
# LUT data points
DOMAIN_MIN 0.000000 0.000000 0.000000
DOMAIN_MAX 0.903226 0.903226 0.903226
0.019814666360616684 0.018762281164526939 0.015970993787050247
0.23555287718772888 0.0063841450028121471 0.0065739811398088932
0.42484050989151001 7.7417331340257078e-05 0.0078325299546122551
0.63478535413742065 0 0.026241624727845192
0.80280143022537231 0 0.094661414623260498
0.12270554900169373 0.24372191727161407 0.10274361073970795
0.2698516845703125 0.23160068690776825 0.089804790914058685
0.45865768194198608 0.19984863698482513 0.09339064359664917
0.66244566440582275 0.12819774448871613 0.095589511096477509
0.81460791826248169 0.009875142015516758 0.10014154016971588
0.2234584242105484 0.44579628109931946 0.13116355240345001
0.33761358261108398 0.44090017676353455 0.12965807318687439
0.51239472627639771 0.42630091309547424 0.14496225118637085
0.70849907398223877 0.39074516296386719 0.18764998018741608
0.86203241348266602 0.31640893220901489 0.240430548787117
0.33010163903236389 0.65311253070831299 0.12155915796756744
0.43303859233856201 0.6526678204536438 0.10177783668041229
0.64367687702178955 0.64887154102325439 0.062429763376712799
0.80230826139450073 0.63324862718582153 0.13803192973136902
0.92303949594497681 0.5987505316734314 0.30008012056350708
0.36469638347625732 0.83812415599822998 0.1703873872756958
0.47173643112182617 0.83850628137588501 0.13190378248691559
0.68745166063308716 0.83859992027282715 0.043386906385421753
0.93139821290969849 0.83736705780029297 0.01191498339176178
1 0.82246595621109009 0.051902938634157181
0.006918618455529213 0.026098480448126793 0.1886322945356369
0.2122255265712738 0.011140931397676468 0.15541732311248779
0.39908060431480408 0.00062579411314800382 0.12790265679359436
0.6130683422088623 0 0.12786856293678284
0.78588521480560303 0 0.16695155203342438
0.1009540930390358 0.24921303987503052 0.25088256597518921
0.23819763958454132 0.23750543594360352 0.23758308589458466
0.43051367998123169 0.20778021216392517 0.21970358490943909
0.64218944311141968 0.13678346574306488 0.1934659481048584
0.79899793863296509 0.013348453678190708 0.17173437774181366
0.17426514625549316 0.44947800040245056 0.26803374290466309
0.29024314880371094 0.44484809041023254 0.27006778120994568
0.47391417622566223 0.43025729060173035 0.2776699960231781
0.68310254812240601 0.39615386724472046 0.28517535328865051
0.84371697902679443 0.32259014248847961 0.31027194857597351
0.36190566420555115 0.6570935845375061 0.14571471512317657
0.43362253904342651 0.65517491102218628 0.15629568696022034
0.59080058336257935 0.64913493394851685 0.19964557886123657
0.75362259149551392 0.63407045602798462 0.28759193420410156
0.89579308032989502 0.60134625434875488 0.38322350382804871
0.42696806788444519 0.84260374307632446 0.15166357159614563
0.52118611335754395 0.84286355972290039 0.1104215681552887
0.72063571214675903 0.84323841333389282 0.03670065850019455
0.94877630472183228 0.84136289358139038 0.012113930657505989
0.99969482421875 0.82164615392684937 0.23641327023506165
0.00922405906021595 0.034946572035551071 0.32392716407775879
0.20815275609493256 0.018975995481014252 0.27665811777114868
0.38796848058700562 0.0025911717675626278 0.24248687922954559
0.59666281938552856 0 0.21916909515857697
0.77416038513183594 0 0.22988522052764893
0.09907069057226181 0.25825494527816772 0.40093013644218445
0.21878315508365631 0.24772845208644867 0.38164803385734558
0.41147559881210327 0.2187233567237854 0.35240635275840759
0.62097132205963135 0.14899574220180511 0.30818462371826172
0.78430557250976562 0.019936999306082726 0.25321307778358459
0.11729432642459869 0.4560316801071167 0.45971390604972839
0.23610185086727142 0.45180103182792664 0.45286890864372253
0.43828213214874268 0.4380042552947998 0.43792358040809631
0.64794504642486572 0.40497761964797974 0.42204141616821289
0.82137316465377808 0.33324158191680908 0.4053044319152832
0.210296630859375 0.65633219480514526 0.45918488502502441
0.31235459446907043 0.65508949756622314 0.45983245968818665
0.50205093622207642 0.6493072509765625 0.46235170960426331
0.68696963787078857 0.63640689849853516 0.48082610964775085
0.85533225536346436 0.60604649782180786 0.51023358106613159
0.53221321105957031 0.85061377286911011 0.13244450092315674
0.59571778774261475 0.8503914475440979 0.12212096899747849
0.71214205026626587 0.8476865291595459 0.18899834156036377
0.81885874271392822 0.83950227499008179 0.34028935432434082
0.9410284161567688 0.82194817066192627 0.48561346530914307
0.036502506583929062 0.050713874399662018 0.45617595314979553
0.21764907240867615 0.030741175636649132 0.41041761636734009
0.39029404520988464 0.0085152918472886086 0.36335721611976624
0.58661544322967529 0 0.31362670660018921
0.7628779411315918 0 0.30321612954139709
0.11348351091146469 0.27182340621948242 0.55239450931549072
0.22111952304840088 0.26178562641143799 0.53151428699493408
0.40926903486251831 0.23490554094314575 0.48955219984054565
0.60836738348007202 0.16923509538173676 0.42660447955131531
0.77258831262588501 0.033872410655021667 0.34691148996353149
0.1052434891462326 0.46668446063995361 0.63367468118667603
0.2239752858877182 0.46272057294845581 0.62140786647796631
0.42586535215377808 0.44959345459938049 0.59076720476150513
0.62589746713638306 0.41825905442237854 0.55099397897720337
0.8041042685508728 0.3482799232006073 0.50614851713180542
0.13785003125667572 0.65937179327011108 0.68418312072753906
0.25502574443817139 0.65799212455749512 0.67712670564651489
0.45538792014122009 0.65335929393768311 0.65923947095870972
0.64207905530929565 0.6418948769569397 0.64173269271850586
0.82729703187942505 0.61353540420532227 0.62569123506546021
0.31353557109832764 0.84636664390563965 0.62532627582550049
0.38891154527664185 0.84617608785629272 0.62710052728652954
0.53316760063171387 0.84446150064468384 0.63404268026351929
0.69132125377655029 0.83925044536590576 0.651775062084198
0.87457287311553955 0.82566952705383301 0.67151463031768799
0.109691321849823 0.078878849744796753 0.56696546077728271
0.26507437229156494 0.054439578205347061 0.52126789093017578
0.42010685801506042 0.023962013423442841 0.46766573190689087
0.58772212266921997 2.411289096926339e-05 0.40595617890357971
0.75485575199127197 0 0.3840126097202301
0.16751523315906525 0.29163491725921631 0.66370695829391479
0.27775892615318298 0.28274479508399963 0.64154350757598877
0.43965688347816467 0.25775250792503357 0.59864556789398193
0.60977703332901001 0.19698357582092285 0.53791987895965576
0.76641488075256348 0.058456052094697952 0.44902476668357849
0.20140817761421204 0.48303103446960449 0.75173646211624146
0.29295521974563599 0.47929465770721436 0.73870092630386353
0.45310387015342712 0.46670094132423401 0.70797652006149292
0.62145489454269409 0.43671891093254089 0.66823381185531616
0.79308253526687622 0.36919480562210083 0.61334425210952759
0.23606953024864197 0.66814923286437988 0.82758814096450806
0.31620946526527405 0.66662508249282837 0.81933414936065674
0.4662146270275116 0.66204369068145752 0.79981774091720581
0.62715893983840942 0.65087294578552246 0.77603304386138916
0.80828702449798584 0.62396043539047241 0.74465054273605347
0.28036454319953918 0.85006821155548096 0.87591046094894409
0.34782570600509644 0.84990793466567993 0.87148922681808472
0.47943034768104553 0.84885728359222412 0.8614843487739563
0.64073622226715088 0.84462547302246094 0.84864282608032227
0.83286499977111816 0.83254903554916382 0.83229750394821167
