LUTs/Fuji Sensia 100.cube
# Created by: G'MIC (https://gmic.eu)
TITLE "Fuji Sensia 100"
# LUT size
LUT_3D_SIZE 32
# Data domain
DOMAIN_MIN 0.0 0.0 0.0
DOMAIN_MAX 1.0 1.0 1.0
# LUT data points
0.018287990242242813 0.01977958157658577 0.015737833455204964
0.043566353619098663 0.019357174634933472 0.012939347885549068
0.071636795997619629 0.018750904127955437 0.010980940423905849
0.098745517432689667 0.018211394548416138 0.009255983866751194
0.12573575973510742 0.017778012901544571 0.0078338151797652245
0.14996354281902313 0.017580531537532806 0.0063684224151074886
0.17494343221187592 0.016734546050429344 0.0051460708491504192
0.20002788305282593 0.016222281381487846 0.004041875246912241
0.2249375581741333 0.015785258263349533 0.0031489268876612186
0.24923479557037354 0.015545446425676346 0.0023838265333324671
0.27589425444602966 0.015826093032956123 0.001661858637817204
0.30455148220062256 0.015530569478869438 0.0011723997304216027
0.3309275209903717 0.014743063598871231 0.00070720608346164227
0.36185571551322937 0.013238070532679558 0.00037840855657123029
0.39180079102516174 0.012241484597325325 0.00015175947919487953
0.4261937141418457 0.011847876943647861 8.5074512753635645e-05
0.46217024326324463 0.011596929281949997 2.8609754735953175e-05
0.50204974412918091 0.010131911374628544 1.4780528090341249e-06
0.53983825445175171 0.0093532754108309746 0
0.58135885000228882 0.0086211934685707092 0
0.61859601736068726 0.0082013821229338646 0
0.6580207347869873 0.0075194984674453735 0
0.69502133131027222 0.0068569309078156948 0
0.72753226757049561 0.0067988955415785313 0
0.75873291492462158 0.0076191592961549759 0
0.78578811883926392 0.0072096716612577438 0
0.81171756982803345 0.006320687010884285 0
0.8344607949256897 0.0062466911040246487 0
0.85480660200119019 0.0060960911214351654 0
0.87366592884063721 0.0066434270702302456 1.912609332066495e-05
0.89136236906051636 0.0069419918581843376 0.00034390951623208821
0.90526074171066284 0.0070616225712001324 0.0017268994124606252
0.035817865282297134 0.05777914822101593 0.02971445769071579
0.05756223201751709 0.057106945663690567 0.026918452233076096
0.083765842020511627 0.056210841983556747 0.023901995271444321
0.11063622683286667 0.055382441729307175 0.021445868536829948
0.13773766160011292 0.054678786545991898 0.018795067444443703
0.16182078421115875 0.053929563611745834 0.01652953028678894
0.18730026483535767 0.05312778428196907 0.014182418584823608
0.21235986053943634 0.051989320665597916 0.012210480868816376
0.23769941926002502 0.050861481577157974 0.010191393084824085
0.26207876205444336 0.050242077559232712 0.0085947681218385696
0.28889074921607971 0.050166178494691849 0.0072301784530282021
0.31767505407333374 0.049634329974651337 0.0055728866718709469
0.3443945050239563 0.047645565122365952 0.0044702482409775257
0.37543660402297974 0.045670624822378159 0.0031987696420401335
0.40535366535186768 0.043824989348649979 0.0021730230655521154
0.43997025489807129 0.04276612401008606 0.0014843008248135448
0.47606781125068665 0.041719119995832443 0.00083687761798501015
0.51584964990615845 0.039505839347839355 0.0003866999177262187
0.55368632078170776 0.038366235792636871 0.00011084682773798704
0.59546965360641479 0.036820936948060989 2.8054237191099674e-05
0.63266360759735107 0.035290271043777466 1.7649192614044296e-06
0.67235332727432251 0.034205317497253418 0
0.709747314453125 0.032691452652215958 0
0.74233782291412354 0.031989548355340958 0
0.77375638484954834 0.03269302099943161 0
0.80115783214569092 0.031207429245114326 0
0.82730013132095337 0.030196983367204666 0
0.84989708662033081 0.030446607619524002 7.8673510870430619e-06
0.87059009075164795 0.029973328113555908 0.00011393268505344167
0.88963598012924194 0.031212201341986656 0.00068376434501260519
0.90748316049575806 0.031786754727363586 0.0027842465788125992
0.92152780294418335 0.032071199268102646 0.0067723789252340794
0.058611683547496796 0.097611278295516968 0.045627336949110031
0.07510511577129364 0.096819855272769928 0.042881760746240616
0.094919010996818542 0.096183009445667267 0.039808832108974457
0.11927180737257004 0.095384575426578522 0.036827705800533295
0.14580821990966797 0.094664253294467926 0.033769022673368454
0.16955573856830597 0.093922756612300873 0.030765892937779427
0.19565635919570923 0.092917248606681824 0.027822524309158325
0.2209455817937851 0.091812647879123688 0.024813435971736908
0.24623118340969086 0.090888418257236481 0.021815106272697449
0.27069869637489319 0.090071827173233032 0.019318535923957825
0.29780879616737366 0.089490979909896851 0.0168345607817173
0.32682377099990845 0.088879965245723724 0.014418466947972775
0.35390332341194153 0.087055772542953491 0.012249267660081387
0.38523310422897339 0.085250735282897949 0.010033712722361088
0.41496175527572632 0.083643130958080292 0.0081972340121865273
0.44983869791030884 0.082389995455741882 0.0065361056476831436
0.48614552617073059 0.080824337899684906 0.0048595704138278961
0.52598917484283447 0.079203180968761444 0.0032663461752235889
0.56380933523178101 0.07783634215593338 0.0020142355933785439
0.6057707667350769 0.076112620532512665 0.0010038544423878193
0.64309406280517578 0.074325688183307648 0.00046895290142856538
0.68297511339187622 0.073083855211734772 0.00018565091886557639
0.72023093700408936 0.071472734212875366 9.1314432211220264e-05
0.75292873382568359 0.070738218724727631 8.6842301243450493e-05
0.78454196453094482 0.070413440465927124 8.6842301243450493e-05
0.81226176023483276 0.069110706448554993 8.9211840531788766e-05
0.83829307556152344 0.068557292222976685 0.00026766792871057987
0.86078983545303345 0.068630330264568329 0.00069105566944926977
0.88172191381454468 0.06844397634267807 0.0017956689698621631
0.90091073513031006 0.069192953407764435 0.0042856186628341675
0.91878479719161987 0.069654837250709534 0.0089225731790065765
0.93283861875534058 0.070286653935909271 0.015767553821206093
0.081255495548248291 0.13446928560733795 0.063690997660160065
0.094737142324447632 0.13388471305370331 0.061185888946056366
0.11101408302783966 0.13324828445911407 0.058080505579710007
0.13002052903175354 0.13247694075107574 0.054730575531721115
0.15328481793403625 0.13173297047615051 0.051523454487323761
0.17666259407997131 0.13106997311115265 0.048263192176818848
0.203375443816185 0.13008411228656769 0.044908624142408371
0.22846144437789917 0.12901288270950317 0.041642673313617706
0.2537904679775238 0.12803563475608826 0.03809770941734314
0.2785148024559021 0.12716200947761536 0.034975912421941757
0.30611556768417358 0.12621629238128662 0.031747248023748398
0.33513399958610535 0.12578833103179932 0.028158551082015038
0.36247020959854126 0.12414222955703735 0.025091325864195824
0.39393007755279541 0.12254375219345093 0.021966317668557167
0.42366206645965576 0.12106946110725403 0.018945159390568733
0.45876112580299377 0.1196221262216568 0.015785539522767067
0.49539723992347717 0.11808335781097412 0.012900246307253838
0.53530973196029663 0.11665402352809906 0.0099957743659615517
0.57336103916168213 0.11541260033845901 0.0076709934510290623
0.61535406112670898 0.11355765163898468 0.0053846877999603748
0.65270930528640747 0.11154870688915253 0.0038646496832370758
0.69271785020828247 0.11048293113708496 0.0026864060200750828
0.73021847009658813 0.10915496945381165 0.002151653403416276
0.76270973682403564 0.10822829604148865 0.0019246337469667196
0.79450130462646484 0.10734038800001144 0.0019066727254539728
0.82217156887054443 0.1064513698220253 0.0021186117082834244
0.84825223684310913 0.10615184158086777 0.003006557933986187
0.87071007490158081 0.1061166524887085 0.0044961958192288876
0.89170509576797485 0.10594227910041809 0.0072541376575827599
0.91086786985397339 0.10644610971212387 0.011769830249249935
0.92883741855621338 0.10671172291040421 0.019464461132884026
0.94285780191421509 0.10749655216932297 0.029428759589791298
0.10364466905593872 0.16793394088745117 0.08221009373664856
0.11454125493764877 0.16751573979854584 0.079918548464775085
0.12860588729381561 0.16697841882705688 0.077275484800338745
0.14464093744754791 0.16631034016609192 0.0738707035779953
0.16266177594661713 0.16564641892910004 0.070361584424972534
0.18385080993175507 0.16493101418018341 0.067188464105129242
0.21064232289791107 0.16396498680114746 0.063741646707057953
0.23506796360015869 0.16303403675556183 0.060478366911411285
0.26067385077476501 0.16197991371154785 0.056940484791994095
0.28542155027389526 0.16115297377109528 0.053744185715913773
0.31324410438537598 0.16012364625930786 0.050192650407552719
0.3426966667175293 0.15921692550182343 0.045738108456134796
0.37033739686012268 0.15796324610710144 0.041783891618251801
0.40174174308776855 0.15648524463176727 0.038081265985965729
0.43178683519363403 0.15503853559494019 0.034646306186914444
0.46723732352256775 0.15332427620887756 0.029974624514579773
0.50402307510375977 0.15205475687980652 0.025396037846803665
0.54394197463989258 0.15082743763923645 0.021313983947038651
0.58207511901855469 0.14942768216133118 0.01752290315926075
0.62416905164718628 0.14739421010017395 0.013682289980351925
0.66156494617462158 0.14549487829208374 0.011178708635270596
0.70164769887924194 0.14455996453762054 0.0089312298223376274
0.73903584480285645 0.14322809875011444 0.0077789155766367912
0.77161121368408203 0.14186562597751617 0.0071951388381421566
0.80335313081741333 0.14099115133285522 0.0070491991937160492
0.83081632852554321 0.14024299383163452 0.0077793970704078674
0.8570062518119812 0.13988707959651947 0.0094512021169066429
0.87948137521743774 0.13981850445270538 0.012120380066335201
0.9004291296005249 0.13954561948776245 0.016888145357370377
0.91943776607513428 0.13994814455509186 0.023505881428718567
0.93745571374893188 0.14046607911586761 0.034073356539011002
0.95159423351287842 0.14103589951992035 0.046179324388504028
0.1194542869925499 0.19815166294574738 0.098286837339401245
0.12933973968029022 0.19756180047988892 0.096560865640640259
0.14222727715969086 0.19717398285865784 0.094179518520832062
0.15703950822353363 0.19657650589942932 0.091203451156616211
0.1730777770280838 0.19594947993755341 0.087931402027606964
0.19189491868019104 0.19520735740661621 0.084740810096263885
0.21757227182388306 0.19443055987358093 0.081248380243778229
0.24119967222213745 0.19345185160636902 0.078351102769374847
0.26690030097961426 0.19238714873790741 0.074893318116664886
0.29171201586723328 0.19143678247928619 0.07169746607542038
0.31986802816390991 0.19020618498325348 0.068365581333637238
0.3495640754699707 0.18914325535297394 0.064072422683238983
0.37734892964363098 0.18813067674636841 0.059838801622390747
0.40888360142707825 0.18678689002990723 0.055818907916545868
0.43916350603103638 0.18530052900314331 0.051992904394865036
0.47475117444992065 0.18365359306335449 0.04686523973941803
0.51180481910705566 0.18235087394714355 0.04125719889998436
0.55188655853271484 0.18122170865535736 0.036335751414299011
0.59005916118621826 0.17989623546600342 0.031584825366735458
0.63228785991668701 0.17786112427711487 0.026399826630949974
0.66971218585968018 0.17593559622764587 0.022905204445123672
0.70977163314819336 0.17504726350307465 0.01949085108935833
0.74723488092422485 0.1735292375087738 0.017615035176277161
0.77962267398834229 0.17208938300609589 0.016763994470238686
0.8113899827003479 0.17132186889648438 0.016573313623666763
0.83890539407730103 0.17084497213363647 0.01763092540204525
0.86502295732498169 0.17001552879810333 0.019983647391200066
0.88722139596939087 0.16960959136486053 0.023986220359802246
0.90824848413467407 0.16968795657157898 0.030281707644462585
0.92719525098800659 0.17012800276279449 0.038949020206928253
0.94541436433792114 0.17079448699951172 0.050842612981796265
0.9593050479888916 0.17142505943775177 0.063323035836219788
0.12387879192829132 0.23081277310848236 0.11357033997774124
0.13365580141544342 0.23039966821670532 0.11206003278493881
0.14603456854820251 0.23004356026649475 0.11003725975751877
0.16002996265888214 0.22944940626621246 0.10760088264942169
0.17699892818927765 0.22892673313617706 0.10473741590976715
0.19867697358131409 0.2282259613275528 0.10148259997367859
0.22443751990795135 0.22743792831897736 0.09808843582868576
0.24775686860084534 0.22660215198993683 0.095372878015041351
0.27357488870620728 0.22548466920852661 0.092353001236915588
0.29872620105743408 0.22453856468200684 0.089230269193649292
0.3270779550075531 0.22334732115268707 0.086085066199302673
0.35692512989044189 0.22205424308776855 0.082075424492359161
0.38494458794593811 0.2212187647819519 0.077880106866359711
0.41671645641326904 0.22007729113101959 0.073754802346229553
0.44730621576309204 0.21880972385406494 0.069881178438663483
0.48321434855461121 0.21701456606388092 0.064865998923778534
0.5205194354057312 0.21571953594684601 0.059128325432538986
0.56097424030303955 0.21452085673809052 0.05355975404381752
0.59923714399337769 0.21315567195415497 0.048634734004735947
0.64155101776123047 0.2113507091999054 0.042524609714746475
0.67904132604598999 0.20950466394424438 0.038406290113925934
0.71889561414718628 0.2083364874124527 0.034272685647010803
0.7563554048538208 0.20704843103885651 0.03164440393447876
0.78870344161987305 0.20551532506942749 0.030365725979208946
0.82041043043136597 0.20487600564956665 0.029924115166068077
0.84773737192153931 0.20441222190856934 0.031679790467023849
0.87387549877166748 0.2035747766494751 0.034534215927124023
0.8961600661277771 0.20315435528755188 0.039640426635742188
0.91717374324798584 0.20330455899238586 0.047031980007886887
0.93613225221633911 0.20375646650791168 0.056538138538599014
0.95425128936767578 0.20429536700248718 0.068741142749786377
0.96810621023178101 0.20495396852493286 0.081373162567615509
0.12774601578712463 0.26094695925712585 0.12799838185310364
0.13566827774047852 0.26074191927909851 0.12718051671981812
0.14645001292228699 0.26030588150024414 0.12558092176914215
0.16147691011428833 0.25992569327354431 0.12331709265708923
0.18230023980140686 0.25924623012542725 0.12064540386199951
0.2063986212015152 0.25856846570968628 0.11788757890462875
0.23087498545646667 0.25785118341445923 0.11503631621599197
0.25459498167037964 0.25720545649528503 0.11237508803606033
0.28025880455970764 0.25635620951652527 0.10955177247524261
0.30560937523841858 0.25528520345687866 0.10649169236421585
0.33415421843528748 0.25406849384307861 0.10311055183410645
0.36423471570014954 0.25300365686416626 0.099500514566898346
0.39225190877914429 0.25219768285751343 0.095507770776748657
0.42429286241531372 0.25111627578735352 0.09154076874256134
0.45528259873390198 0.24989965558052063 0.087385125458240509
0.49145585298538208 0.24863849580287933 0.082357548177242279
0.52903556823730469 0.2471245676279068 0.07699333131313324
0.56986391544342041 0.24552391469478607 0.071022070944309235
0.60824626684188843 0.24429912865161896 0.065881632268428802
0.65049988031387329 0.24244232475757599 0.059675723314285278
0.68783032894134521 0.24089647829532623 0.055348299443721771
0.72780877351760864 0.23937101662158966 0.051071416586637497
0.76527827978134155 0.23821555078029633 0.048171523958444595
0.79753804206848145 0.23726896941661835 0.046263568103313446
0.82903605699539185 0.23643974959850311 0.045544672757387161
0.8563421368598938 0.23585809767246246 0.04800083115696907
0.88241279125213623 0.23497207462787628 0.050968743860721588
0.90455704927444458 0.23453156650066376 0.056576304137706757
0.92546296119689941 0.23464959859848022 0.063901051878929138
0.94463682174682617 0.23524655401706696 0.073241762816905975
0.96247047185897827 0.2358972430229187 0.08501347154378891
0.97641503810882568 0.23676174879074097 0.097851112484931946
0.13021321594715118 0.29423755407333374 0.14346487820148468
0.13750439882278442 0.29392826557159424 0.14246796071529388
0.15008631348609924 0.29358863830566406 0.14122764766216278
0.16898523271083832 0.29315897822380066 0.13937535881996155
0.19219663739204407 0.29293385148048401 0.13717857003211975
0.21492922306060791 0.29267466068267822 0.13478189706802368
0.23838229477405548 0.29218152165412903 0.1325049102306366
0.26222500205039978 0.2911624014377594 0.12979666888713837
0.28776264190673828 0.29015266895294189 0.12706185877323151
0.31344270706176758 0.28928786516189575 0.12434090673923492
0.34211099147796631 0.28876221179962158 0.12078113853931427
0.3722568154335022 0.28745582699775696 0.11699862033128738
0.40046364068984985 0.28608888387680054 0.11356773227453232
0.43273907899856567 0.28524291515350342 0.10969860106706619
0.46428552269935608 0.28486323356628418 0.1054239422082901
0.50088351964950562 0.28346607089042664 0.10026075690984726
0.53879785537719727 0.2817254364490509 0.095374442636966705
0.58001446723937988 0.28040125966072083 0.089357919991016388
0.61868089437484741 0.27863523364067078 0.084147028625011444
0.6607595682144165 0.27721434831619263 0.07843075692653656
0.69814580678939819 0.27577695250511169 0.073805928230285645
0.73814994096755981 0.27392569184303284 0.069656983017921448
0.77545285224914551 0.27324241399765015 0.066808454692363739
0.80760800838470459 0.27276080846786499 0.065571002662181854
0.83896297216415405 0.27112168073654175 0.065266057848930359
0.86628645658493042 0.27040019631385803 0.066602468490600586
0.89209353923797607 0.26998627185821533 0.069706708192825317
0.91420251131057739 0.2696075439453125 0.075257062911987305
0.93501901626586914 0.26968073844909668 0.082684069871902466
0.95414429903030396 0.27022159099578857 0.091895401477813721
0.97186547517776489 0.27074709534645081 0.10363432019948959
0.98524671792984009 0.27187713980674744 0.11628375947475433
0.13225641846656799 0.32807758450508118 0.15763895213603973
0.14367926120758057 0.32775026559829712 0.15685082972049713
0.15981042385101318 0.32733508944511414 0.15509061515331268
0.17985205352306366 0.32684633135795593 0.15372204780578613
0.2016139030456543 0.32668954133987427 0.15145665407180786
0.22240073978900909 0.32655242085456848 0.14999444782733917
0.2460038959980011 0.32623693346977234 0.14733724296092987
0.26938062906265259 0.32558169960975647 0.14523309469223022
0.29525932669639587 0.32478436827659607 0.14243020117282867
0.32086747884750366 0.32391232252120972 0.13977701961994171
0.34977641701698303 0.32302820682525635 0.13605086505413055
0.38015168905258179 0.32229971885681152 0.13228937983512878
0.40865129232406616 0.32126650214195251 0.12912298738956451
0.44158372282981873 0.31981846690177917 0.12499775737524033
0.47336450219154358 0.31895890831947327 0.12103082984685898
0.51051813364028931 0.31824037432670593 0.11603154987096786
0.5489005446434021 0.31657817959785461 0.11086467653512955
0.59033739566802979 0.31496348977088928 0.10529443621635437
0.62904202938079834 0.31371870636940002 0.099759884178638458
0.67129778861999512 0.31186217069625854 0.094565972685813904
0.70862644910812378 0.31068778038024902 0.090069092810153961
0.74842989444732666 0.30929476022720337 0.085780449211597443
0.78559130430221558 0.30806881189346313 0.082885146141052246
0.81774801015853882 0.307405024766922 0.080768607556819916
0.84903204441070557 0.30658286809921265 0.080994784832000732
0.87611842155456543 0.30600130558013916 0.082975693047046661
0.90184950828552246 0.3058115541934967 0.086449563503265381
0.92390072345733643 0.3054010272026062 0.091583512723445892
0.9446033239364624 0.30551904439926147 0.098957724869251251
0.96364647150039673 0.30602583289146423 0.10801743716001511
0.9813772439956665 0.306571364402771 0.11959345638751984
0.99377620220184326 0.30717325210571289 0.13179363310337067
0.14711979031562805 0.36684596538543701 0.17261248826980591
0.1579766571521759 0.36670428514480591 0.17178724706172943
0.17293092608451843 0.36631861329078674 0.17079655826091766
0.19043391942977905 0.36574739217758179 0.16930712759494781
0.20948837697505951 0.36508569121360779 0.16782882809638977
0.23055350780487061 0.36450833082199097 0.16609567403793335
0.2539578378200531 0.36392271518707275 0.16396288573741913
0.27727025747299194 0.36360478401184082 0.16147793829441071
0.30353155732154846 0.36333310604095459 0.15856096148490906
0.32933780550956726 0.36302673816680908 0.15584912896156311
0.35828956961631775 0.36231458187103271 0.15277571976184845
0.38888698816299438 0.36123722791671753 0.14922530949115753
0.41768085956573486 0.36011871695518494 0.14600454270839691
0.45149880647659302 0.35906487703323364 0.14180327951908112
0.48396685719490051 0.35799986124038696 0.13779263198375702
0.521587073802948 0.35665139555931091 0.1330532431602478
0.56039547920227051 0.35558822751045227 0.12783761322498322
0.60210299491882324 0.35423961281776428 0.12226375937461853
0.64107966423034668 0.35252737998962402 0.11720482259988785
0.68327569961547852 0.351144939661026 0.11199429631233215
0.72055536508560181 0.34997376799583435 0.10754548758268356
0.76005631685256958 0.34884065389633179 0.10368692129850388
0.79722350835800171 0.34775188565254211 0.10065167397260666
0.82933074235916138 0.34699118137359619 0.099241636693477631
0.86029595136642456 0.34602713584899902 0.099557437002658844
0.88722962141036987 0.34567034244537354 0.10127928853034973
0.91282457113265991 0.34524813294410706 0.1048097163438797
0.93481439352035522 0.34484335780143738 0.10968394577503204
0.95557522773742676 0.34522151947021484 0.11688902229070663
0.97440171241760254 0.34550660848617554 0.12571355700492859
0.99157059192657471 0.34620881080627441 0.13703349232673645
0.99929368495941162 0.34693771600723267 0.1486528068780899
0.16469563543796539 0.40674817562103271 0.18763814866542816
0.17306321859359741 0.40662387013435364 0.18705293536186218
0.18446396291255951 0.40645262598991394 0.18613223731517792
0.19895441830158234 0.4063052237033844 0.18458935618400574
0.21755008399486542 0.40611642599105835 0.18313053250312805
0.23836447298526764 0.4057503342628479 0.18126471340656281
0.26143753528594971 0.4052480161190033 0.17917418479919434
0.28539720177650452 0.40474092960357666 0.17669571936130524
0.31166961789131165 0.40400642156600952 0.17390097677707672
0.33811438083648682 0.40328091382980347 0.17102083563804626
0.36742100119590759 0.40265923738479614 0.16804151237010956
0.39836883544921875 0.4021640419960022 0.16463761031627655
0.42754155397415161 0.401532381772995 0.16137616336345673
0.46185237169265747 0.40011125802993774 0.15730613470077515
0.49501955509185791 0.39882436394691467 0.15316510200500488
0.53351622819900513 0.39798000454902649 0.14834368228912354
0.57275861501693726 0.39666563272476196 0.14330320060253143
0.61487138271331787 0.39513611793518066 0.13779300451278687
0.65393024682998657 0.39398059248924255 0.13310296833515167
0.6960747241973877 0.39223635196685791 0.12797309458255768
0.73321700096130371 0.39109951257705688 0.12363225966691971
0.77264904975891113 0.39037179946899414 0.12005463242530823
0.80970460176467896 0.38926732540130615 0.11720878630876541
0.84149461984634399 0.38814696669578552 0.11626788228750229
0.87227195501327515 0.38721767067909241 0.11666591465473175
0.89911848306655884 0.38696420192718506 0.11831849068403244
0.92445117235183716 0.38680949807167053 0.12183135002851486
0.94635695219039917 0.38664942979812622 0.12657831609249115
0.96703207492828369 0.38687419891357422 0.13362158834934235
0.9852716326713562 0.38711857795715332 0.14235584437847137
0.99777722358703613 0.38765311241149902 0.15357781946659088
0.99998831748962402 0.38851374387741089 0.1653439849615097
0.16804888844490051 0.44573092460632324 0.20248965919017792
0.1765962541103363 0.4456537663936615 0.20175983011722565
0.18928584456443787 0.44543564319610596 0.20052993297576904
0.20538441836833954 0.44515636563301086 0.19928471744060516
0.22466348111629486 0.44477632641792297 0.19783742725849152
0.24470385909080505 0.4442678689956665 0.19581034779548645
0.26844576001167297 0.44375091791152954 0.19363030791282654
0.29245716333389282 0.44337695837020874 0.19128160178661346
0.31918668746948242 0.4429435133934021 0.1883745938539505
0.34578394889831543 0.4422663152217865 0.18552437424659729
0.37569162249565125 0.44150176644325256 0.18210062384605408
0.40709993243217468 0.44067618250846863 0.17826823890209198
