LUTs/Fuji 400H 2.cube
# Created by: G'MIC (https://gmic.eu)
TITLE "Fuji 400H 2"
# LUT size
LUT_3D_SIZE 32
# Data domain
DOMAIN_MIN 0.0 0.0 0.0
DOMAIN_MAX 1.0 1.0 1.0
# LUT data points
0.023400481790304184 0.025573756545782089 0.017632912844419479
0.035735346376895905 0.026123125106096268 0.017289450392127037
0.055047556757926941 0.027580209076404572 0.017564801499247551
0.078058890998363495 0.029321134090423584 0.017778584733605385
0.10324825346469879 0.031109457835555077 0.017971880733966827
0.13008692860603333 0.032408613711595535 0.01785593293607235
0.16115708649158478 0.032997138798236847 0.017862439155578613
0.19385859370231628 0.031639773398637772 0.017342682927846909
0.23257178068161011 0.027986004948616028 0.016106454655528069
0.27343401312828064 0.021352885290980339 0.015369807370007038
0.32137945294380188 0.010019698180258274 0.013561432249844074
0.37301364541053772 0.0014236081624403596 0.011250701732933521
0.42133420705795288 1.103822432924062e-05 0.0088133392855525017
0.47580066323280334 0 0.0061191287823021412
0.52508687973022461 0 0.0035296846181154251
0.57766717672348022 0 0.0013134956825524569
0.62610858678817749 0 0.00035976048093289137
0.67318642139434814 0 1.5970179447322153e-05
0.71471351385116577 0 0
0.75606399774551392 0 0
0.7893143892288208 0 0
0.8222200870513916 0 0
0.85206067562103271 0 0
0.87754344940185547 1.3826862641508342e-06 0
0.90301573276519775 0.0017717495793476701 0
0.92592692375183105 0.028604215011000633 0
0.94899678230285645 0.079446941614151001 0
0.97040843963623047 0.11687850207090378 0
0.99095594882965088 0.1481788158416748 0
0.99980080127716064 0.17576518654823303 0
0.99998176097869873 0.20125310122966766 0
0.99998986721038818 0.22281691431999207 0
0.022361205890774727 0.038548119366168976 0.018311550840735435
0.034164328128099442 0.039335276931524277 0.01795639842748642
0.05457373708486557 0.04207165539264679 0.017306586727499962
0.078362897038459778 0.044300071895122528 0.016659880056977272
0.10410325229167938 0.046320006251335144 0.016585893929004669
0.13039529323577881 0.047251313924789429 0.016349766403436661
0.16131986677646637 0.048116061836481094 0.016083419322967529
0.19418829679489136 0.047608453780412674 0.015523170121014118
0.2335490882396698 0.045028857886791229 0.01467128936201334
0.27423113584518433 0.039121955633163452 0.013445270247757435
0.32200202345848083 0.02857307530939579 0.011695772409439087
0.37359669804573059 0.013537081889808178 0.0093521997332572937
0.42166534066200256 0.0027246614918112755 0.0069050686433911324
0.47571644186973572 0.00021234508312772959 0.0042556081898510456
0.5246126651763916 0 0.0020390953868627548
0.57668888568878174 0 0.00071787048364058137
0.62498366832733154 0 0.0001095895204343833
0.67245930433273315 0 4.8066755908848791e-08
0.7135770320892334 0 0
0.75464260578155518 0 0
0.78825962543487549 0 0
0.821117103099823 0 0
0.85065442323684692 3.2460213787999237e-06 0
0.87651699781417847 0.00086943007772788405 0
0.9020003080368042 0.018394121900200844 0
0.9249337911605835 0.061444789171218872 0
0.94802314043045044 0.1021760106086731 0
0.96943855285644531 0.13357973098754883 0
0.99034798145294189 0.16133899986743927 0
0.99980461597442627 0.1866687685251236 0
0.9999803900718689 0.21048526465892792 0
0.9999890923500061 0.23105376958847046 0
0.020015992224216461 0.058656476438045502 0.01919952966272831
0.031566336750984192 0.058607708662748337 0.019299423322081566
0.050649102777242661 0.060752943158149719 0.018203804269433022
0.075445681810379028 0.063753940165042877 0.016372071579098701
0.1029527559876442 0.066052965819835663 0.01487676240503788
0.13127532601356506 0.067286588251590729 0.014028681442141533
0.16331827640533447 0.068323396146297455 0.013527501374483109
0.19632303714752197 0.068233542144298553 0.012889232486486435
0.23529511690139771 0.066811047494411469 0.011769224889576435
0.27606853842735291 0.063167154788970947 0.010863863863050938
0.32371312379837036 0.055912841111421585 0.0089856525883078575
0.37455072999000549 0.043828323483467102 0.0065505211241543293
0.42264640331268311 0.028820496052503586 0.0044141672551631927
0.47631391882896423 0.011871784925460815 0.0024413603823632002
0.52496826648712158 0.0026263273321092129 0.00097620941232889891
0.57670938968658447 0.00023345464433077723 0.00021094802650623024
0.62495672702789307 0 1.4319673937279731e-05
0.67280805110931396 0 0
0.71366548538208008 0 0
0.75441122055053711 0 0
0.7872653603553772 8.5572139596479246e-07 0
0.82003557682037354 0.00044924067333340645 0
0.84994947910308838 0.0062599764205515385 0
0.87542861700057983 0.026630502194166183 0
0.90126508474349976 0.065182782709598541 0
0.92401200532913208 0.099410653114318848 0
0.9471210241317749 0.12970404326915741 0
0.96838498115539551 0.15548339486122131 0
0.98941224813461304 0.17987000942230225 0
0.99964118003845215 0.20268824696540833 0
0.99999356269836426 0.22451920807361603 0
0.99999642372131348 0.24385540187358856 0
0.013986868783831596 0.081620253622531891 0.019688514992594719
0.025921734049916267 0.081076301634311676 0.020290957763791084
0.044466316699981689 0.082270964980125427 0.019320083782076836
0.069154746830463409 0.084573306143283844 0.017442991957068443
0.098118394613265991 0.088118098676204681 0.014945820905268192
0.1285613477230072 0.090742640197277069 0.013099006377160549
0.162843257188797 0.091806024312973022 0.010961515828967094
0.19771774113178253 0.091804787516593933 0.0094970408827066422
0.23735032975673676 0.091004751622676849 0.0082339504733681679
0.27822977304458618 0.089169412851333618 0.0069901067763566971
0.32567709684371948 0.085301235318183899 0.0053075719624757767
0.37648594379425049 0.078338935971260071 0.0034594016615301371
0.42438885569572449 0.069385826587677002 0.001881530974060297
0.47769069671630859 0.055550418794155121 0.00066833244636654854
0.526172935962677 0.03996841236948967 0.00018558705050963908
0.57747149467468262 0.024654200300574303 8.1279467849526554e-06
0.62574607133865356 0.015253535471856594 0
0.674294114112854 0.010563033632934093 0
0.71422076225280762 0.009857923723757267 0
0.75436240434646606 0.012494749389588833 0
0.78714227676391602 0.019352065399289131 0
0.81975811719894409 0.033771313726902008 0
0.84891289472579956 0.058815699070692062 0
0.87460678815841675 0.086070388555526733 0
0.90031313896179199 0.11309107393026352 0
0.9230462908744812 0.1367400586605072 0
0.94619244337081909 0.16048416495323181 0
0.96769243478775024 0.18197792768478394 0
0.98910123109817505 0.20304462313652039 0
0.99969059228897095 0.22299095988273621 0
0.99997442960739136 0.24303141236305237 0
1 0.26047655940055847 0
0.0051623489707708359 0.1060296818614006 0.019577205181121826
0.016622690483927727 0.10511001199483871 0.020751893520355225
0.035421900451183319 0.10557390749454498 0.020570926368236542
0.060597237199544907 0.10753731429576874 0.018866162747144699
0.089240051805973053 0.11002417653799057 0.015970179811120033
0.12137608975172043 0.11406077444553375 0.01288668904453516
0.15767703950405121 0.11774402111768723 0.0098257791250944138
0.19456805288791656 0.1188691109418869 0.0066783423535525799
0.23738840222358704 0.11865629255771637 0.0042547611519694328
0.2797512412071228 0.11792284995317459 0.0028875903226435184
0.3273700475692749 0.11596418917179108 0.0017964786384254694
0.37764760851860046 0.11213346570730209 0.00074657541699707508
0.42497369647026062 0.10803825408220291 0.0003219539939891547
0.477773517370224 0.10132365673780441 5.6644163123564795e-05
0.52532422542572021 0.093809179961681366 2.7300254714646144e-06
0.5763733983039856 0.08490820974111557 3.9885179603516008e-08
0.6254194974899292 0.076981402933597565 0
0.67322796583175659 0.071714527904987335 0
0.71260666847229004 0.071912162005901337 0
0.75215893983840942 0.078094273805618286 0
0.78441101312637329 0.088027246296405792 0
0.81682753562927246 0.10256963223218918 0
0.8461725115776062 0.119021937251091 0
0.87198722362518311 0.13603551685810089 0
0.89777463674545288 0.15475694835186005 0
0.92041563987731934 0.17274053394794464 0
0.94381999969482422 0.19164535403251648 0
0.96536976099014282 0.20952188968658447 0
0.98690050840377808 0.22744576632976532 0
0.99936783313751221 0.24486146867275238 0
0.99999940395355225 0.26264619827270508 0
1 0.27838647365570068 0
0.00048864190466701984 0.13342301547527313 0.019599314779043198
0.0055026272311806679 0.13230502605438232 0.020585939288139343
0.022803418338298798 0.13151289522647858 0.021270496770739555
0.049441877752542496 0.13290677964687347 0.019688496366143227
0.080251127481460571 0.13504938781261444 0.017055276781320572
0.11223085969686508 0.13819597661495209 0.013718994334340096
0.15079249441623688 0.14276574552059174 0.0092700812965631485
0.19005700945854187 0.14690341055393219 0.0054915952496230602
0.23391357064247131 0.14901530742645264 0.002398200798779726
0.27780556678771973 0.14892357587814331 0.00076666520908474922
0.32766306400299072 0.14769887924194336 0.00021297075727488846
0.37861630320549011 0.14550234377384186 4.6030309022171423e-05
0.42562079429626465 0.14350847899913788 4.965513198840199e-06
0.47782182693481445 0.14020389318466187 1.18888507927295e-07
0.52550643682479858 0.13664622604846954 0
0.57757800817489624 0.13316284120082855 0
0.626392662525177 0.13035871088504791 0
0.6730225682258606 0.12940636277198792 0
0.71162551641464233 0.13110797107219696 0
0.75041109323501587 0.13618876039981842 0
0.78265738487243652 0.14343546330928802 0
0.8147045373916626 0.15364256501197815 0
0.84415948390960693 0.16565531492233276 0
0.86983186006546021 0.1786942183971405 0
0.89548426866531372 0.19338695704936981 0
0.91865897178649902 0.20800793170928955 0
0.941902756690979 0.22352591156959534 0
0.96330839395523071 0.2386418879032135 0
0.98483932018280029 0.25438171625137329 0
0.99908030033111572 0.26963099837303162 0
1 0.28515467047691345 0
0.99997460842132568 0.29946839809417725 0
3.7737515867775073e-07 0.16395065188407898 0.018357660621404648
0.00019941529899369925 0.16293059289455414 0.019639285281300545
0.0065927766263484955 0.16143019497394562 0.021422453224658966
0.031540412455797195 0.16184696555137634 0.020732827484607697
0.066802814602851868 0.1640942394733429 0.017746707424521446
0.10104735195636749 0.16697870194911957 0.014344274997711182
0.13937792181968689 0.17016755044460297 0.0098535772413015366
0.18116952478885651 0.17545033991336823 0.0048599690198898315
0.22825750708580017 0.18115715682506561 0.0011246318463236094
0.27343884110450745 0.18365752696990967 0.00010322099842596799
0.32433077692985535 0.18466472625732422 2.9530374376918189e-06
0.37752115726470947 0.183432936668396 0
0.4256901741027832 0.18170592188835144 0
0.47874051332473755 0.1804737001657486 0
0.52760857343673706 0.17981688678264618 0
0.57911527156829834 0.17908275127410889 0
0.62639683485031128 0.17864745855331421 0
0.67153632640838623 0.17960304021835327 0
0.70951592922210693 0.1819583922624588 0
0.74757832288742065 0.18631204962730408 0
0.77917635440826416 0.19233416020870209 0
0.81118524074554443 0.20055833458900452 0
0.84065765142440796 0.21010062098503113 0
0.86633223295211792 0.22046497464179993 0
0.89191228151321411 0.23245853185653687 0
0.91511857509613037 0.24438153207302094 0
0.93872874975204468 0.25726690888404846 0
0.96035581827163696 0.27049157023429871 0
0.98230612277984619 0.28396281599998474 0
0.99830037355422974 0.29706990718841553 0
1 0.31058582663536072 0
0.99999904632568359 0.32342272996902466 0
0 0.19610245525836945 0.016074217855930328
2.093972000238864e-07 0.19539983570575714 0.017355777323246002
0.00030575788696296513 0.19361290335655212 0.019037511199712753
0.010860242880880833 0.19264507293701172 0.020144663751125336
0.045039504766464233 0.19439902901649475 0.017649270594120026
0.08590436726808548 0.19720754027366638 0.013807571493089199
0.12761695683002472 0.20063386857509613 0.0089080510661005974
0.16936251521110535 0.20444445312023163 0.0040118074975907803
0.21851891279220581 0.21005113422870636 0.00066171615617349744
0.26746821403503418 0.2160046398639679 8.6619866124237888e-06
0.31980261206626892 0.22023390233516693 0
0.37378475069999695 0.22167277336120605 0
0.4241575300693512 0.22176288068294525 0
0.47929841279983521 0.22084279358386993 0
0.52791088819503784 0.2199377715587616 0
0.5783240795135498 0.21976889669895172 0
0.62426102161407471 0.22041212022304535 0
0.66858959197998047 0.22200028598308563 0
0.70586860179901123 0.22470539808273315 0
0.74330002069473267 0.2287866622209549 0
0.77481895685195923 0.23411588370800018 0
0.80706250667572021 0.2412651926279068 0
0.83638530969619751 0.24943535029888153 0
0.86203479766845703 0.25801560282707214 0
0.88791888952255249 0.26834163069725037 0
0.91131901741027832 0.27854087948799133 0
0.93500113487243652 0.28991788625717163 0
0.95669519901275635 0.30068773031234741 0
0.97868907451629639 0.31217795610427856 0
0.99695390462875366 0.32377365231513977 0
1 0.33523660898208618 0
0.99997496604919434 0.34624490141868591 0
0 0.23399218916893005 0.011018139310181141
0 0.23374691605567932 0.012593026272952557
0 0.23189130425453186 0.014502220787107944
0.00047299469588324428 0.22988627851009369 0.016894839704036713
0.014287596568465233 0.23026645183563232 0.015925806015729904
0.061862152069807053 0.23274703323841095 0.011976093985140324
0.1123814657330513 0.23612204194068909 0.0068365777842700481
0.15729302167892456 0.23943556845188141 0.0024939500726759434
0.2060084193944931 0.24341286718845367 0.00028674356872215867
0.25665086507797241 0.24940824508666992 2.2170790998643497e-06
0.3153558075428009 0.25821331143379211 0
0.37097471952438354 0.26278242468833923 0
0.42133352160453796 0.26495903730392456 0
0.47629144787788391 0.26576218008995056 0
0.52545416355133057 0.26511481404304504 0
0.57623463869094849 0.26372826099395752 0
0.62198185920715332 0.26343512535095215 0
0.66571450233459473 0.26537349820137024 0
0.70236742496490479 0.26803439855575562 0
0.73940008878707886 0.27208897471427917 0
0.77096891403198242 0.27716743946075439 0
0.80277800559997559 0.28319576382637024 0
0.83211767673492432 0.29022875428199768 0
0.85791140794754028 0.29774418473243713 0
0.88401061296463013 0.3063427209854126 0
0.90738111734390259 0.31492510437965393 0
0.93128818273544312 0.32460010051727295 0
0.95318979024887085 0.33379504084587097 0
0.97550666332244873 0.34366601705551147 0
0.9951399564743042 0.35367271304130554 0
0.9999883770942688 0.36366063356399536 0
0.99999874830245972 0.37341859936714172 0
0 0.27026396989822388 0.0052658789791166782
0 0.27049753069877625 0.0064185643568634987
0 0.26878389716148376 0.0084066782146692276
0 0.26650127768516541 0.011114363558590412
0.0011487018782645464 0.26525282859802246 0.012589546851813793
0.029457084834575653 0.26766696572303772 0.0089260144159197807
0.091300114989280701 0.27131325006484985 0.0042100753635168076
0.14373390376567841 0.27513685822486877 0.0012057777494192123
0.19654557108879089 0.27988222241401672 6.017762643750757e-05
0.24644222855567932 0.28426861763000488 6.2128833633323666e-08
0.30508548021316528 0.29128152132034302 0
0.36629289388656616 0.29960328340530396 0
0.41755318641662598 0.30385318398475647 0
0.47234234213829041 0.30646973848342896 0
0.52065420150756836 0.30718660354614258 0
0.57106488943099976 0.30677667260169983 0
0.61689651012420654 0.30524829030036926 0
0.66079860925674438 0.30476251244544983 0
0.69704031944274902 0.30664059519767761 0
0.73412621021270752 0.31005790829658508 0
0.76493340730667114 0.31438162922859192 0
0.79699140787124634 0.31986328959465027 0
0.82681572437286377 0.32640305161476135 0
0.85263878107070923 0.33263376355171204 0
0.87886673212051392 0.3403761088848114 0
0.90221065282821655 0.34769976139068604 0
0.92642110586166382 0.35620665550231934 0
0.94871103763580322 0.3642570972442627 0
0.97121238708496094 0.37259864807128906 0
0.99217778444290161 0.3811783492565155 0
0.99988776445388794 0.38971179723739624 0
1 0.39842280745506287 0
0 0.31326550245285034 0.00068876415025442839
0 0.31349685788154602 0.00096249394118785858
0 0.31205427646636963 0.0018502012826502323
0 0.31015044450759888 0.0036477106623351574
3.3769574656616896e-06 0.30809184908866882 0.0063801547512412071
0.005559953860938549 0.30879709124565125 0.0053480719216167927
0.057473566383123398 0.31244799494743347 0.0018093646503984928
0.12486413866281509 0.3161332905292511 0.00026843242812901735
0.18380008637905121 0.32038611173629761 2.0701090761576779e-06
0.23552048206329346 0.32431823015213013 0
0.29222759604454041 0.32876482605934143 0
0.35271203517913818 0.33493992686271667 0
0.41029816865921021 0.34307819604873657 0
0.46603107452392578 0.34771415591239929 0
0.51382684707641602 0.34996408224105835 0
0.56359851360321045 0.35085946321487427 0
0.60949629545211792 0.35067561268806458 0
0.6533198356628418 0.35021013021469116 0
0.69018632173538208 0.34947317838668823 0
0.72737586498260498 0.3503442108631134 0
0.75837713479995728 0.35350313782691956 0
0.79028999805450439 0.35833057761192322 0
0.82035911083221436 0.3639197051525116 0
0.84662127494812012 0.36979579925537109 0
0.87260150909423828 0.37614375352859497 0
0.89665406942367554 0.38255181908607483 0
0.92106145620346069 0.38969779014587402 0
0.94344198703765869 0.39648318290710449 0
0.96623718738555908 0.40360012650489807 0
0.98834234476089478 0.41045871376991272 0
0.99950104951858521 0.41743165254592896 0
0.99995768070220947 0.42471984028816223 0
0 0.35778909921646118 1.1065644685004372e-05
0 0.35893324017524719 1.8207392713520676e-05
0 0.35747894644737244 7.3586314101703465e-05
0 0.35525941848754883 0.00032400726922787726
0 0.35253751277923584 0.0011111603816971183
0.00022995684412308037 0.35105660557746887 0.0016684499569237232
0.018796216696500778 0.35296523571014404 0.00048699570470489562
0.095844164490699768 0.35601794719696045 4.0367442124988884e-05
0.16648894548416138 0.35990244150161743 0
0.22234295308589935 0.36340489983558655 0
0.28007188439369202 0.36731356382369995 0
0.33789476752281189 0.37169310450553894 0
0.3926292359828949 0.37660929560661316 0
0.4553665816783905 0.38509774208068848 0
0.50636088848114014 0.39005169272422791 0
0.55633527040481567 0.39262741804122925 0
0.60153526067733765 0.39352372288703918 0
0.64524859189987183 0.39417228102684021 0
0.68185997009277344 0.39433681964874268 0
0.71940410137176514 0.39426958560943604 0
0.75085216760635376 0.39432936906814575 0
0.78364807367324829 0.39655241370201111 0
0.81369507312774658 0.40094512701034546 0
0.84010994434356689 0.40590891242027283 0
0.86666280031204224 0.41169154644012451 0
0.8907439112663269 0.41700065135955811 0
0.91557741165161133 0.42306312918663025 0
0.93818002939224243 0.42860138416290283 0
0.96134704351425171 0.4345582127571106 0
0.98451453447341919 0.44045516848564148 0
0.99902379512786865 0.44646504521369934 0
0.99999457597732544 0.45258438587188721 0
0 0.39677974581718445 0
0 0.39827054738998413 0
0 0.39676511287689209 0
0 0.39451077580451965 1.7033656831699773e-06
0 0.39225730299949646 1.6988784409477375e-05
0 0.38920885324478149 0.00022327793703880161
0.0026119020767509937 0.38921523094177246 0.00016309547936543822
0.061168447136878967 0.39218273758888245 1.0085069561682758e-06
0.14819861948490143 0.39557003974914551 0
0.20905317366123199 0.39892885088920593 0
0.26930239796638489 0.40254855155944824 0
0.32753264904022217 0.40644529461860657 0
0.38029181957244873 0.4099980890750885 0
0.43920773267745972 0.41462084650993347 0
0.49600225687026978 0.42277273535728455 0
0.54878330230712891 0.42755496501922607 0
0.59375876188278198 0.42958882451057434 0
0.63700073957443237 0.43114271759986877 0
0.67340588569641113 0.4317004382610321 0
0.71097594499588013 0.43200594186782837 0
0.74245530366897583 0.43231594562530518 0
0.77581244707107544 0.43268921971321106 0
0.80696415901184082 0.43419313430786133 0
0.83393990993499756 0.43736007809638977 0
0.86035603284835815 0.44159144163131714 0
0.88465327024459839 0.44618949294090271 0
0.90965014696121216 0.45158770680427551 0
0.93252474069595337 0.45620596408843994 0
0.95631104707717896 0.46125420928001404 0
0.97947609424591064 0.46630659699440002 0
0.99800097942352295 0.47103041410446167 0
0.99994724988937378 0.47653982043266296 0
0 0.43809431791305542 0
0 0.43917763233184814 0
0 0.43812257051467896 0
0 0.43619486689567566 0
0 0.43352815508842468 0
0 0.43063932657241821 4.2898936953861266e-06
6.0533133364515379e-05 0.42849883437156677 1.6763087842264213e-05
0.028553750365972519 0.4301784336566925 5.1722895477723796e-07
0.12322787940502167 0.43272548913955688 0
0.19267724454402924 0.43593236804008484 0
0.25605323910713196 0.43940910696983337 0
0.31508290767669678 0.44239094853401184 0
0.36759817600250244 0.44557243585586548 0
0.42433315515518188 0.44890248775482178 0
0.47613915801048279 0.45262688398361206 0
0.53497201204299927 0.46044006943702698 0
0.58492165803909302 0.46599787473678589 0
0.6283881664276123 0.46837076544761658 0
0.66455024480819702 0.46996334195137024 0
0.70198523998260498 0.47100511193275452 0
0.73374366760253906 0.47181028127670288 0
0.76731747388839722 0.47271522879600525 0
0.79832559823989868 0.47314268350601196 0
0.82584643363952637 0.47328498959541321 0
0.85343456268310547 0.47477972507476807 0
0.87840825319290161 0.47779479622840881 0
0.90369617938995361 0.48206445574760437 0
0.92685920000076294 0.48588007688522339 0
0.9511074423789978 0.490216463804245 0
0.97492367029190063 0.49434903264045715 0
0.99614763259887695 0.49837574362754822 0
0.99999594688415527 0.50277018547058105 0
0 0.47344902157783508 0
0 0.4750523567199707 0
0 0.4741152822971344 0
0 0.47234112024307251 0
0 0.46958830952644348 0
0 0.46683859825134277 0
0 0.46319201588630676 0
0.010497252456843853 0.46334803104400635 1.3138245549271232e-06
0.096833713352680206 0.46560314297676086 6.4089000773037696e-08
0.1769653856754303 0.46814784407615662 0
0.24416327476501465 0.47117602825164795 0
0.30482098460197449 0.47456294298171997 0
0.35718914866447449 0.47724884748458862 0
0.41318809986114502 0.48017072677612305 0
0.46343967318534851 0.48288255929946899 0
0.51735997200012207 0.48647403717041016 0
0.57198810577392578 0.49403709173202515 0
0.62002760171890259 0.49956706166267395 0
0.65645748376846313 0.50158852338790894 0
0.69366538524627686 0.503257155418396 0
0.72577363252639771 0.50496727228164673 0
0.75950372219085693 0.50591522455215454 0
0.79055213928222656 0.50667411088943481 0
0.81855314970016479 0.50741136074066162 0
0.84678930044174194 0.50766122341156006 0
0.8720056414604187 0.50748568773269653 0
0.89775115251541138 0.50902360677719116 0
0.92187601327896118 0.51214933395385742 0
0.94640469551086426 0.51591742038726807 0
0.97013211250305176 0.51923060417175293 0
0.99365502595901489 0.52272564172744751 0
0.99998795986175537 0.52667528390884399 0
0 0.51050513982772827 0
0 0.51207447052001953 0
0 0.51094949245452881 0
0 0.50946122407913208 0
0 0.50701355934143066 0
0 0.50443679094314575 0
0 0.50132405757904053 7.173579206209979e-07
0.0028755010571330786 0.49899154901504517 0.00010384553024778143
0.065772637724876404 0.5000234842300415 3.5418102925177664e-05
0.16058136522769928 0.50246739387512207 1.484188913991602e-07
0.23303177952766418 0.5052947998046875 0
0.29475277662277222 0.5077100396156311 0
0.3472798764705658 0.51009011268615723 0
0.40305808186531067 0.51286303997039795 0
0.45205986499786377 0.51524925231933594 0
0.50368911027908325 0.51718932390213013 0
0.55308276414871216 0.52024096250534058 0
0.60486817359924316 0.52707737684249878 0
0.64694362878799438 0.53280729055404663 0
0.68490850925445557 0.53520745038986206 0
0.71708160638809204 0.53745722770690918 0
0.75106453895568848 0.53929662704467773 0
0.78236919641494751 0.54037928581237793 0
0.81002187728881836 0.54095113277435303 0
0.83842360973358154 0.54104650020599365 0
0.86401152610778809 0.54128783941268921 0
0.89055019617080688 0.54116737842559814 0
0.91514045000076294 0.54120463132858276 0
0.94032967090606689 0.54267144203186035 0
0.96469908952713013 0.54511135816574097 0
0.98979324102401733 0.54800808429718018 0
0.9997791051864624 0.5510551929473877 0
0 0.54457014799118042 0
0 0.54549908638000488 0
0 0.54431289434432983 0
0 0.54308891296386719 0
0 0.54120075702667236 0
