LUTs/Fuji Superia 1600 1 -.cube
# Created by: G'MIC (https://gmic.eu)
TITLE "Fuji Superia 1600 1 -"
# LUT size
LUT_3D_SIZE 5
# Data domain
# LUT data points
DOMAIN_MIN 0.000000 0.000000 0.000000
DOMAIN_MAX 0.903226 0.903226 0.903226
0.021279605105519295 0.041979685425758362 0.052824810147285461
0.12170420587062836 0.050640340894460678 0.050774268805980682
0.43143576383590698 0.03738442063331604 0.025604071095585823
0.71988087892532349 0.00026031277957372367 0
0.92757469415664673 0.14658711850643158 0
0 0.17973211407661438 0.049089368432760239
0.10835318267345428 0.21679334342479706 0.01877620629966259
0.50646394491195679 0.22442097961902618 1.1624229045992251e-06
0.74961602687835693 0.22350823879241943 0
0.9395560622215271 0.28658518195152283 0
0 0.48834735155105591 0.12691792845726013
0 0.4859367311000824 0.12563847005367279
0.4582001268863678 0.53419560194015503 0.015023700892925262
0.78386783599853516 0.53690099716186523 0
0.95812207460403442 0.51167494058609009 0.0043268054723739624
0.05622294545173645 0.70860129594802856 0.32148945331573486
0.21511396765708923 0.70200121402740479 0.31902998685836792
0.43397998809814453 0.71449416875839233 0.3030703067779541
0.70723211765289307 0.76011568307876587 0.2616773247718811
0.95380294322967529 0.79563480615615845 0.24069719016551971
0.45500612258911133 0.90019065141677856 0.54776686429977417
0.48334962129592896 0.89800357818603516 0.54617059230804443
0.55561000108718872 0.89309477806091309 0.54148328304290771
0.70250248908996582 0.91182297468185425 0.53598737716674805
0.87604415416717529 0.93155628442764282 0.52461206912994385
0.015362425707280636 0.03912065178155899 0.15911124646663666
0.14589224755764008 0.034181524068117142 0.16441582143306732
0.46371874213218689 1.1498758794914465e-05 0.16836844384670258
0.70624846220016479 0.053087018430233002 0.16411052644252777
0.9118388295173645 0.19032202661037445 0.16715018451213837
0 0.20750825107097626 0.19430148601531982
0.16307453811168671 0.22151333093643188 0.20045776665210724
0.49476355314254761 0.24029561877250671 0.19866535067558289
0.72937345504760742 0.25428870320320129 0.18905735015869141
0.92494440078735352 0.31119650602340698 0.18498708307743073
0.094536669552326202 0.50574547052383423 0.31603971123695374
0.20429302752017975 0.49989107251167297 0.29809194803237915
0.48908457159996033 0.52805405855178833 0.27242138981819153
0.77142679691314697 0.52183401584625244 0.24711300432682037
0.94622790813446045 0.52283173799514771 0.24840801954269409
0.25455883145332336 0.71858376264572144 0.41551336646080017
0.32318079471588135 0.71252673864364624 0.41196238994598389
0.46847712993621826 0.71114885807037354 0.39970406889915466
0.71447920799255371 0.75855767726898193 0.38031309843063354
0.94892346858978271 0.78951877355575562 0.36933955550193787
0.50009995698928833 0.90236729383468628 0.59747803211212158
0.52332711219787598 0.90027159452438354 0.59535259008407593
0.58219367265701294 0.89408475160598755 0.58785706758499146
0.71265959739685059 0.91032171249389648 0.58513319492340088
0.87931162118911743 0.9312673807144165 0.58004885911941528
0 0.026528868824243546 0.43804547190666199
0.16394761204719543 0.032365795224905014 0.44533249735832214
0.4902188777923584 0.085899367928504944 0.46312129497528076
0.75368624925613403 0.20757445693016052 0.46941834688186646
0.94202470779418945 0.2098095715045929 0.42940589785575867
0 0.19578661024570465 0.45857846736907959
0.19731339812278748 0.23565801978111267 0.47025802731513977
0.51231968402862549 0.29105296730995178 0.48028656840324402
0.75308668613433838 0.34397900104522705 0.48689693212509155
0.93386292457580566 0.30186238884925842 0.42191225290298462
0.13823871314525604 0.51470285654067993 0.50636821985244751
0.32518428564071655 0.51833164691925049 0.51075237989425659
0.52930217981338501 0.51143485307693481 0.50390446186065674
0.73296445608139038 0.50588458776473999 0.47989487648010254
0.91824448108673096 0.5222545862197876 0.46206501126289368
0.47162508964538574 0.7459445595741272 0.6076081395149231
0.51575499773025513 0.7401694655418396 0.6063915491104126
0.55657601356506348 0.7207762598991394 0.56877815723419189
0.7303926944732666 0.75374960899353027 0.56321209669113159
0.93763566017150879 0.76790779829025269 0.55393964052200317
0.61297696828842163 0.90949726104736328 0.71652740240097046
0.61185449361801147 0.90826404094696045 0.70427411794662476
0.64724063873291016 0.90208733081817627 0.69157606363296509
0.73433548212051392 0.90622180700302124 0.68332242965698242
0.88792884349822998 0.93052017688751221 0.68922597169876099
3.3212081689271145e-06 0.062536336481571198 0.67046916484832764
0.23777516186237335 0.081141106784343719 0.67725539207458496
0.52788984775543213 0.15070408582687378 0.68232816457748413
0.75487613677978516 0.26501992344856262 0.693584144115448
0.93430048227310181 0.37945574522018433 0.70649731159210205
0.052833132445812225 0.23734757304191589 0.68013960123062134
0.28806042671203613 0.25414043664932251 0.68411648273468018
0.54699432849884033 0.30178588628768921 0.68858391046524048
0.757476806640625 0.37853479385375977 0.70144748687744141
0.93218523263931274 0.46493160724639893 0.7162705659866333
2.5235047473870509e-07 0.434326171875 0.67010217905044556
0.22289669513702393 0.44522061944007874 0.67669004201889038
0.53765839338302612 0.48849835991859436 0.69252163171768188
0.75256133079528809 0.55268371105194092 0.7119181752204895
0.92623031139373779 0.62469953298568726 0.73917847871780396
0.41717156767845154 0.74262279272079468 0.74004262685775757
0.47729900479316711 0.74305105209350586 0.74085009098052979
0.60127800703048706 0.7415282130241394 0.73964512348175049
0.74850088357925415 0.73708617687225342 0.73333257436752319
0.90976303815841675 0.72835195064544678 0.70655286312103271
0.71071434020996094 0.92682260274887085 0.84407877922058105
0.72631752490997314 0.92550617456436157 0.84407418966293335
0.76322990655899048 0.92049229145050049 0.8410676121711731
0.78627681732177734 0.90838533639907837 0.80946075916290283
0.90382391214370728 0.92957216501235962 0.81531763076782227
0.37071189284324646 0.17999370396137238 0.89087271690368652
0.46193405985832214 0.19846659898757935 0.89038050174713135
0.63237541913986206 0.25908488035202026 0.88937056064605713
0.80515938997268677 0.36965316534042358 0.89028459787368774
0.94870847463607788 0.47293466329574585 0.89621299505233765
0.38514414429664612 0.30030709505081177 0.89022302627563477
0.47134226560592651 0.31457313895225525 0.89095902442932129
0.6326143741607666 0.35574012994766235 0.88986414670944214
0.80208283662796021 0.43831637501716614 0.89113914966583252
0.94330942630767822 0.53306835889816284 0.89681124687194824
0.27487024664878845 0.45257216691970825 0.8850395679473877
0.40779000520706177 0.46916002035140991 0.88629275560379028
0.60031843185424805 0.49974068999290466 0.88852101564407349
0.78820818662643433 0.57106983661651611 0.8919980525970459
0.93158930540084839 0.65198981761932373 0.89949756860733032
0.17155410349369049 0.67785072326660156 0.88728040456771851
0.27000653743743896 0.67037206888198853 0.88606435060501099
0.44285279512405396 0.64693564176559448 0.88116210699081421
0.74460524320602417 0.709586501121521 0.89123296737670898
0.91895061731338501 0.78931909799575806 0.905861496925354
0.64274841547012329 0.92061495780944824 0.92379212379455566
0.66721040010452271 0.92087709903717041 0.92387503385543823
0.73081481456756592 0.92164105176925659 0.92523682117462158
0.82268315553665161 0.92303562164306641 0.92684066295623779
0.92026787996292114 0.92116868495941162 0.92387467622756958
