LUTs/Fuji 800Z 1 -.cube
# Created by: G'MIC (https://gmic.eu)
TITLE "Fuji 800Z 1 -"
# LUT size
LUT_3D_SIZE 32
# Data domain
DOMAIN_MIN 0.0 0.0 0.0
DOMAIN_MAX 1.0 1.0 1.0
# LUT data points
0.014097020030021667 0.014087729156017303 0.011282917112112045
0.026986557990312576 0.014768816530704498 0.011346493847668171
0.047918565571308136 0.015711462125182152 0.011745576746761799
0.071878291666507721 0.017059030011296272 0.01157737709581852
0.098808437585830688 0.018236713483929634 0.011409712955355644
0.12837819755077362 0.017878565937280655 0.011640138924121857
0.16360720992088318 0.015337932854890823 0.011587592773139477
0.20018747448921204 0.0097536602988839149 0.010973528027534485
0.24186578392982483 0.0031650951132178307 0.010309122502803802
0.2826029360294342 0.0003520700556691736 0.0094983503222465515
0.32737395167350769 1.973804955923697e-06 0.0083956029266119003
0.37309917807579041 0 0.007086743600666523
0.41403046250343323 0 0.0058371894992887974
0.45895281434059143 0 0.0043262392282485962
0.49866881966590881 0 0.0029356474988162518
0.54069435596466064 0 0.0014581705909222364
0.58020740747451782 0 0.0005073128268122673
0.61933708190917969 0 0.00013285524619277567
0.65513437986373901 0 4.2052015487570316e-06
0.69274622201919556 0 0
0.7245907187461853 0 0
0.75734871625900269 0 0
0.78741365671157837 0 0
0.8137548565864563 0 0
0.84068125486373901 0 0
0.8654288649559021 0 0
0.89084970951080322 0 0
0.91432183980941772 0 0
0.93841993808746338 0 0
0.96240890026092529 0 0
0.98666203022003174 0 0
0.99930191040039062 0.00018077442655339837 0
0.015450028702616692 0.025683945044875145 0.013593042269349098
0.025730578228831291 0.02747059240937233 0.013125498779118061
0.046136174350976944 0.031143853440880775 0.012302391231060028
0.070656865835189819 0.033319555222988129 0.011757729575037956
0.0980801060795784 0.034776356071233749 0.011542040854692459
0.12749090790748596 0.034233588725328445 0.011203554458916187
0.16273999214172363 0.032075796276330948 0.010803749784827232
0.19968654215335846 0.02689889632165432 0.010304670780897141
0.24175091087818146 0.018505500629544258 0.0097570689395070076
0.28222343325614929 0.0082387803122401237 0.0086771352216601372
0.32690531015396118 0.0016006112564355135 0.0074716103263199329
0.37279140949249268 9.9581622635014355e-05 0.0062329545617103577
0.41358911991119385 0 0.0048118499107658863
0.45820155739784241 0 0.0032745376229286194
0.49761471152305603 0 0.0018455468816682696
0.53921753168106079 0 0.00082975818077102304
0.57842922210693359 0 0.00024333874171134084
0.6180000901222229 0 4.4309937948128209e-05
0.65381836891174316 0 0
0.69116485118865967 0 0
0.72335278987884521 0 0
0.75617998838424683 0 0
0.78596538305282593 0 0
0.81252753734588623 0 0
0.8395189642906189 0 0
0.86414444446563721 0 0
0.88949793577194214 0 0
0.9133877158164978 0 0
0.9376642107963562 0 0
0.96129435300827026 0 0
0.98555034399032593 2.0322147975093685e-05 0
0.99906253814697266 0.005517211277037859 0
0.019018560647964478 0.043098356574773788 0.016975097358226776
0.027421748265624046 0.044067040085792542 0.016934087499976158
0.043396312743425369 0.04871039092540741 0.015295100398361683
0.068446636199951172 0.053910456597805023 0.012836703099310398
0.097071141004562378 0.056488208472728729 0.011246448382735252
0.12781870365142822 0.056778982281684875 0.010594053193926811
0.16354323923587799 0.055772159248590469 0.0098444977775216103
0.20039752125740051 0.052538152784109116 0.0090255904942750931
0.24176079034805298 0.04618309810757637 0.0081056784838438034
0.28223520517349243 0.037099216133356094 0.0073884655721485615
0.32680496573448181 0.02401285246014595 0.0060859741643071175
0.37193688750267029 0.010574580170214176 0.0044513908214867115
0.41302132606506348 0.0028329307679086924 0.0033255207818001509
0.45726802945137024 0.00028251053299754858 0.0021099091973155737
0.49671757221221924 0 0.0010521159274503589
0.53838014602661133 0 0.00036927490145899355
0.5775827169418335 0 8.6582920630462468e-05
0.61751234531402588 0 1.1912713944184361e-06
0.65330547094345093 0 0
0.69024747610092163 0 0
0.72192656993865967 0 0
0.75493580102920532 0 0
0.78505796194076538 0 0
0.81144529581069946 0 0
0.83858132362365723 0 0
0.86326462030410767 0 0
0.88845729827880859 0 0
0.9124143123626709 0 0
0.93652987480163574 0 0
0.960304856300354 0.00038343804772011936 0
0.98470115661621094 0.0088677024468779564 0
0.99891418218612671 0.040577616542577744 0
0.020929588004946709 0.063678249716758728 0.020827632397413254
0.028862489387392998 0.06375112384557724 0.021316088736057281
0.041584502905607224 0.067185446619987488 0.019476396963000298
0.063149511814117432 0.073169969022274017 0.016436070203781128
0.094062559306621552 0.080253817141056061 0.012679879553616047
0.12725472450256348 0.083832703530788422 0.010476121678948402
0.1635814905166626 0.083721324801445007 0.0087082162499427795
0.20053857564926147 0.081806257367134094 0.0072199897840619087
0.24172517657279968 0.078242503106594086 0.0060104341246187687
0.28207635879516602 0.073229439556598663 0.0050769131630659103
0.32653367519378662 0.065019503235816956 0.0037629164289683104
0.37166708707809448 0.053361836820840836 0.0026152273640036583
0.41235268115997314 0.040059555321931839 0.0015639543998986483
0.45634704828262329 0.024910289794206619 0.00064967526122927666
0.49562910199165344 0.013765620067715645 0.000228121891268529
0.53721064329147339 0.0058512082323431969 4.9060690798796713e-05
0.576954185962677 0.0020652948878705502 4.3371301217121072e-06
0.61769622564315796 0.00038555180071853101 0
0.65284574031829834 6.7371488512435462e-06 0
0.6895829439163208 0 0
0.72132301330566406 0 0
0.75380486249923706 0 0
0.78370648622512817 0 0
0.8103097677230835 0 0
0.83749103546142578 0 0
0.86209589242935181 4.8322436896341969e-07 0
0.88760626316070557 0.00021080530132167041 0
0.91175055503845215 0.0019414937123656273 0
0.93606913089752197 0.0087961778044700623 0
0.95974487066268921 0.026178527623414993 0
0.98426884412765503 0.060440625995397568 0
0.99886643886566162 0.094670839607715607 0
0.020319918170571327 0.086074814200401306 0.024348370730876923
0.028489615768194199 0.08525143563747406 0.025181248784065247
0.040277127176523209 0.087336458265781403 0.024376727640628815
0.057846430689096451 0.092896312475204468 0.021537315100431442
0.084354311227798462 0.10050328820943832 0.016731085255742073
0.12057513743638992 0.11026698350906372 0.011621369980275631
0.16148258745670319 0.11579810827970505 0.0076380516402423382
0.19930107891559601 0.11519241333007812 0.0053154104389250278
0.24060778319835663 0.1128455251455307 0.0033353362232446671
0.28063103556632996 0.10968492925167084 0.0023241941817104816
0.32485240697860718 0.10567598789930344 0.0014085115399211645
0.3694586455821991 0.099347427487373352 0.00059214851353317499
0.41011258959770203 0.092644050717353821 0.00030996897839941084
0.45391532778739929 0.082618139684200287 7.0989655796438456e-05
0.49293822050094604 0.07149040699005127 3.3415981306461617e-06
0.53427982330322266 0.057356234639883041 7.9770359207032016e-08
0.57489860057830811 0.042523037642240524 0
0.61519557237625122 0.02934262715280056 0
0.65010130405426025 0.020168473944067955 0
0.68669331073760986 0.013189695775508881 0
0.71795809268951416 0.0098609020933508873 0
0.75041937828063965 0.0075622675940394402 0
0.78063446283340454 0.0067827701568603516 0
0.80755555629730225 0.0078710736706852913 0
0.83457005023956299 0.010787744075059891 0
0.85943305492401123 0.016199067234992981 0
0.88498681783676147 0.027397245168685913 0
0.90897238254547119 0.044065289199352264 0
0.9331093430519104 0.067364253103733063 0
0.95703405141830444 0.091384932398796082 0
0.98174893856048584 0.11589277535676956 0
0.99809747934341431 0.1380617618560791 0
0.017210284247994423 0.11194206029176712 0.02750018984079361
0.026109287515282631 0.11079013347625732 0.028479773551225662
0.038793362677097321 0.1105126366019249 0.028700497001409531
0.054920312017202377 0.11540406942367554 0.025985684245824814
0.077889055013656616 0.12270338833332062 0.02157292328774929
0.10953030735254288 0.13200238347053528 0.015751896426081657
0.15403550863265991 0.14432962238788605 0.0076851490885019302
0.19741849601268768 0.1509929895401001 0.0028699249960482121
0.24005323648452759 0.15074804425239563 0.0012409846531227231
0.27965289354324341 0.14783978462219238 0.00047562969848513603
0.32276460528373718 0.143750861287117 0.00018200757040176541
0.36696669459342957 0.13937918841838837 4.698173506767489e-05
0.40726262331008911 0.1351320743560791 1.8375305444351397e-05
0.45079648494720459 0.12929034233093262 5.4778206504124682e-07
0.48996844887733459 0.12334831804037094 0
0.53276461362838745 0.11636083573102951 0
0.57331234216690063 0.10887233912944794 0
0.61296296119689941 0.10082995891571045 0
0.64762252569198608 0.093522630631923676 0
0.68388098478317261 0.086682513356208801 0
0.71519607305526733 0.081708870828151703 0
0.74754971265792847 0.078416258096694946 0
0.77779972553253174 0.07750527560710907 0
0.80454057455062866 0.079382538795471191 0
0.83185046911239624 0.08466745913028717 0
0.85696965456008911 0.092216938734054565 0
0.88259661197662354 0.10258465260267258 0
0.90668827295303345 0.11449456959962845 0
0.93110358715057373 0.12832449376583099 0
0.955405592918396 0.14333081245422363 0
0.97985589504241943 0.1601376086473465 0
0.99745523929595947 0.17733250558376312 0
0.010677478276193142 0.14077913761138916 0.030427079647779465
0.020754391327500343 0.13966403901576996 0.031382903456687927
0.035236995667219162 0.13793317973613739 0.032670728862285614
0.05189165472984314 0.14082425832748413 0.030963623896241188
0.072877489030361176 0.14792735874652863 0.02647649310529232
0.10065476596355438 0.15671533346176147 0.020626641809940338
0.13856147229671478 0.16731752455234528 0.012538346461951733
0.18606150150299072 0.1812252402305603 0.0038238624110817909
0.23744446039199829 0.19130870699882507 0.00018101462046615779
0.27863654494285583 0.19081208109855652 7.5801012826559599e-06
0.32211914658546448 0.18769238889217377 5.0367822268526652e-07
0.36512202024459839 0.1827588677406311 0
0.40395542979240417 0.17816172540187836 0
0.44779428839683533 0.17397056519985199 0
0.4879450798034668 0.1708858460187912 0
0.53091633319854736 0.1669003963470459 0
0.5703621506690979 0.16249477863311768 0
0.60955321788787842 0.15779268741607666 0
0.64386570453643799 0.15399067103862762 0
0.67957174777984619 0.15056274831295013 0
0.71058517694473267 0.14810951054096222 0
0.74304932355880737 0.14652164280414581 0
0.77343970537185669 0.14634937047958374 0
0.80056744813919067 0.14768990874290466 0
0.82804393768310547 0.15057525038719177 0
0.85322636365890503 0.15506409108638763 0
0.87894636392593384 0.16138412058353424 0
0.90323197841644287 0.16915260255336761 0
0.92801898717880249 0.17901605367660522 0
0.95260381698608398 0.18971905112266541 0
0.97712838649749756 0.20268844068050385 0
0.99651443958282471 0.21685431897640228 0
0.0037822709418833256 0.17029747366905212 0.033489197492599487
0.01301922369748354 0.16933830082416534 0.034419689327478409
0.029073283076286316 0.16693665087223053 0.035779200494289398
0.048091065138578415 0.16669109463691711 0.035936430096626282
0.068921983242034912 0.17283356189727783 0.032042387872934341
0.094627551734447479 0.18122416734695435 0.025920579209923744
0.12890277802944183 0.19173876941204071 0.01763635128736496
0.16945315897464752 0.20307943224906921 0.008226301521062851
0.2230486124753952 0.21875502169132233 0.00090684002498164773
0.27432999014854431 0.22911591827869415 5.5352188610413577e-06
0.32089263200759888 0.22997601330280304 0
0.36490452289581299 0.2266879677772522 0
0.40444269776344299 0.22268645465373993 0
0.44670554995536804 0.21762318909168243 0
0.48481115698814392 0.21317654848098755 0
0.52654373645782471 0.20957812666893005 0
0.56549191474914551 0.20637960731983185 0
0.60447078943252563 0.20308148860931396 0
0.63829481601715088 0.20034573972225189 0
0.67391586303710938 0.19799308478832245 0
0.70500874519348145 0.19635611772537231 0
0.73782742023468018 0.19557014107704163 0
0.76850968599319458 0.19535490870475769 0
0.79560714960098267 0.19615812599658966 0
0.82353359460830688 0.19857461750507355 0
0.84879827499389648 0.20196384191513062 0
0.87487828731536865 0.2069534957408905 0
0.8991655707359314 0.21296976506710052 0
0.92403781414031982 0.22055238485336304 0
0.94867271184921265 0.22926439344882965 0
0.97376203536987305 0.23970092833042145 0
0.99413877725601196 0.25134623050689697 0
0.0001920782815432176 0.20352357625961304 0.03736712783575058
0.0044587096199393272 0.20263661444187164 0.038503430783748627
0.020909298211336136 0.20033019781112671 0.039914835244417191
0.043531849980354309 0.1980031281709671 0.041395537555217743
0.066523723304271698 0.20087070763111115 0.039176668971776962
0.09089399129152298 0.20863126218318939 0.033152360469102859
0.12200004607439041 0.21846644580364227 0.024486521258950233
0.15827958285808563 0.22912375628948212 0.014869138598442078
0.2038368433713913 0.24185276031494141 0.0039990744553506374
0.25667786598205566 0.2573431134223938 0.0002007921866606921
0.3179020881652832 0.27372801303863525 3.8351132047864667e-07
0.36567807197570801 0.27444204688072205 0
0.40535709261894226 0.27162438631057739 0
0.44719347357749939 0.26685395836830139 0
0.48391109704971313 0.26131382584571838 0
0.52289485931396484 0.25504538416862488 0
0.5602143406867981 0.25056001543998718 0
0.59876424074172974 0.24781812727451324 0
0.63247430324554443 0.24551618099212646 0
0.66800272464752197 0.24374055862426758 0
0.69963890314102173 0.24316053092479706 0
0.7323681116104126 0.24240592122077942 0
0.76307612657546997 0.24240922927856445 0
0.7903856635093689 0.24314522743225098 0
0.81863629817962646 0.24510902166366577 0
0.84409552812576294 0.24738852679729462 0
0.87048494815826416 0.25146260857582092 0
0.89519774913787842 0.25615593791007996 0
0.92035859823226929 0.26266828179359436 0
0.94530034065246582 0.27022328972816467 0
0.97064989805221558 0.27910533547401428 0
0.99241435527801514 0.28968372941017151 0
1.273641146326554e-06 0.23351697623729706 0.041966937482357025
0.0011032040929421782 0.23310410976409912 0.043376773595809937
0.014317198656499386 0.23090548813343048 0.044757246971130371
0.038706749677658081 0.22804905474185944 0.046576928347349167
0.064544081687927246 0.2274736762046814 0.046815026551485062
0.088343411684036255 0.23419924080371857 0.041810251772403717
0.1178915873169899 0.2437722235918045 0.033961072564125061
0.15156736969947815 0.25445783138275146 0.024167204275727272
0.19332525134086609 0.2670796811580658 0.011817818507552147
0.23938556015491486 0.28036743402481079 0.0024824559222906828
0.29867264628410339 0.2981489896774292 4.628305759979412e-05
0.36101660132408142 0.31419748067855835 0
0.40503588318824768 0.31622961163520813 0
0.4470154345035553 0.31223684549331665 0
0.4836239218711853 0.30729579925537109 0
0.52173006534576416 0.30098631978034973 0
0.55668574571609497 0.29377925395965576 0
0.5924689769744873 0.28792741894721985 0
0.62513518333435059 0.28485053777694702 0
0.66062396764755249 0.28305426239967346 0
0.69200509786605835 0.28236955404281616 0
0.72511768341064453 0.28201815485954285 0
0.75631743669509888 0.28227943181991577 0
0.78401023149490356 0.28277707099914551 0
0.81266683340072632 0.28446528315544128 0
0.83814328908920288 0.28659895062446594 0
0.86494112014770508 0.28999766707420349 0
0.88994759321212769 0.29402646422386169 0
0.91544193029403687 0.29922211170196533 0
0.94045364856719971 0.30576643347740173 0
0.96609646081924438 0.31346458196640015 0
0.98896771669387817 0.32293093204498291 0
0 0.26736539602279663 0.04928511381149292
0.00029394472949206829 0.26682993769645691 0.050568327307701111
0.0091488780453801155 0.26467600464820862 0.0516771599650383
0.034952063113451004 0.26215395331382751 0.053807009011507034
0.064115032553672791 0.25951957702636719 0.055899158120155334
0.088453873991966248 0.26306620240211487 0.053330745548009872
0.1164126843214035 0.27200564742088318 0.046544000506401062
0.1474531888961792 0.28213992714881897 0.037673778831958771
0.1854662150144577 0.29405999183654785 0.025522051379084587
0.2264150083065033 0.30585029721260071 0.011742287315428257
0.27683845162391663 0.32025456428527832 0.0016789139481261373
0.33690401911735535 0.33755344152450562 5.1264858484501019e-05
0.39660927653312683 0.35588544607162476 0
0.44493705034255981 0.35886254906654358 0
0.48182991147041321 0.35483971238136292 0
0.51980829238891602 0.34910890460014343 0
0.55493700504302979 0.34291639924049377 0
0.58952641487121582 0.33577650785446167 0
0.61981099843978882 0.32923257350921631 0
0.65276157855987549 0.32412883639335632 0
0.68353080749511719 0.32272800803184509 0
0.71675795316696167 0.32214051485061646 0
0.74831217527389526 0.32259687781333923 0
0.77667272090911865 0.32336235046386719 0
0.80520302057266235 0.32451936602592468 0
0.83137696981430054 0.32642850279808044 0
0.85835111141204834 0.32927042245864868 0
0.88342243432998657 0.33275389671325684 0
0.90942400693893433 0.33735489845275879 0
0.93473273515701294 0.34268254041671753 0
0.96064162254333496 0.3491271436214447 0
0.98419219255447388 0.35743832588195801 0
0 0.30078712105751038 0.05943586677312851
0.00016687375318724662 0.30106508731842041 0.060765795409679413
0.0078461570665240288 0.29889973998069763 0.061994556337594986
0.034176625311374664 0.29629397392272949 0.063551567494869232
0.06481035053730011 0.29267892241477966 0.065473385155200958
0.090343117713928223 0.29175379872322083 0.065766520798206329
0.11641763150691986 0.29819133877754211 0.061057806015014648
0.1448858231306076 0.30728203058242798 0.05371701717376709
0.17962709069252014 0.31841379404067993 0.043739285320043564
0.21685487031936646 0.32979512214660645 0.030813919380307198
0.26200181245803833 0.34327667951583862 0.01424852292984724
0.31361439824104309 0.35772138833999634 0.0026410706341266632
0.36670485138893127 0.37288466095924377 8.3742452261503786e-05
0.43146079778671265 0.39281046390533447 3.5072110904366127e-07
0.478954017162323 0.39987403154373169 0
0.51765644550323486 0.39580211043357849 0
0.55284905433654785 0.38996684551239014 0
0.5874292254447937 0.38361552357673645 0
0.61771625280380249 0.37776944041252136 0
0.64930516481399536 0.37103971838951111 0
0.67739427089691162 0.36553239822387695 0
0.70884221792221069 0.36195552349090576 0
0.74038803577423096 0.36148157715797424 0
0.76865887641906738 0.36197918653488159 0
0.79801344871520996 0.36342674493789673 0
0.82464098930358887 0.36486613750457764 0
0.851920485496521 0.36732414364814758 0
0.87720060348510742 0.37035337090492249 0
0.90353065729141235 0.37442478537559509 0
0.92938697338104248 0.37923270463943481 0
0.95584124326705933 0.38546961545944214 0
0.97993099689483643 0.39289647340774536 0
0 0.3292076587677002 0.06950097531080246
0.00028289624606259167 0.32958692312240601 0.071179881691932678
0.0094891507178544998 0.3276439905166626 0.072047300636768341
0.03666740283370018 0.32497331500053406 0.073248043656349182
0.06758473813533783 0.32163265347480774 0.075088351964950562
0.093010425567626953 0.31798702478408813 0.076181448996067047
0.11849974095821381 0.32116106152534485 0.074378117918968201
0.1447490006685257 0.32958421111106873 0.068714134395122528
0.17678257822990417 0.34000697731971741 0.060939844697713852
0.21088296175003052 0.35087957978248596 0.05062204971909523
0.25239977240562439 0.36362168192863464 0.036067582666873932
0.29922327399253845 0.37743368744850159 0.017495019361376762
0.34609866142272949 0.39040228724479675 0.0042977370321750641
0.403524249792099 0.406770259141922 0.00033072623773477972
0.46361032128334045 0.42642828822135925 2.4608641524537234e-06
0.51438623666763306 0.43442419171333313 0
0.55070596933364868 0.4305860698223114 0
0.58529818058013916 0.42503347992897034 0
0.61513221263885498 0.41917029023170471 0
0.64685362577438354 0.41335809230804443 0
0.67474204301834106 0.40736231207847595 0
0.70436292886734009 0.40135753154754639 0
0.73338413238525391 0.39670464396476746 0
0.76096069812774658 0.39507827162742615 0
0.79013991355895996 0.39571106433868408 0
0.8169819712638855 0.39722448587417603 0
0.84488081932067871 0.39970153570175171 0
0.87046432495117188 0.40208879113197327 0
0.8971179723739624 0.40572196245193481 0
0.92339259386062622 0.41022074222564697 0
0.95008796453475952 0.41572508215904236 0
0.97451549768447876 0.42243304848670959 0
7.2172997533925809e-06 0.35857737064361572 0.082174740731716156
0.0014506123261526227 0.3589942455291748 0.083473548293113708
0.015995584428310394 0.35740092396736145 0.084469079971313477
0.044133149087429047 0.35473707318305969 0.085472464561462402
0.07321544736623764 0.35148546099662781 0.08658580482006073
0.09792395681142807 0.34783646464347839 0.088093578815460205
0.12234155833721161 0.34573403000831604 0.088689588010311127
0.14646923542022705 0.35234782099723816 0.084795735776424408
0.17548289895057678 0.36172652244567871 0.078961670398712158
0.20664767920970917 0.37185075879096985 0.07184949517250061
0.24434018135070801 0.38422185182571411 0.061726000159978867
0.28690183162689209 0.39676716923713684 0.046456828713417053
0.3291422426700592 0.40935540199279785 0.029085353016853333
0.38000312447547913 0.42372569441795349 0.010377785190939903
0.43107423186302185 0.43806993961334229 0.0014162180013954639
0.49379023909568787 0.45822998881340027 4.6094588469713926e-05
0.54597485065460205 0.47007223963737488 0
0.58269160985946655 0.46735855937004089 0
0.61280429363250732 0.46266669034957886 0
0.64458179473876953 0.45726096630096436 0
0.67237985134124756 0.45170575380325317 0
0.70180797576904297 0.44605341553688049 0
0.73028784990310669 0.44023948907852173 0
0.75528043508529663 0.43528470396995544 0
0.78269284963607788 0.43197798728942871 0
0.80922800302505493 0.43167975544929504 0
0.83725351095199585 0.43353405594825745 0
0.86343753337860107 0.43586641550064087 0
0.89036840200424194 0.4392116367816925 0
0.91689914464950562 0.44312524795532227 0
0.94408822059631348 0.44826990365982056 0
0.96879798173904419 0.45438060164451599 0
0.00070304406108334661 0.38398405909538269 0.094128027558326721
0.0068880910985171795 0.38464146852493286 0.095504641532897949
0.027304783463478088 0.38290223479270935 0.096100203692913055
0.054076630622148514 0.38073727488517761 0.097188971936702728
0.080464914441108704 0.37743404507637024 0.097918316721916199
0.10357435792684555 0.37356486916542053 0.098971560597419739
0.12656722962856293 0.36919388175010681 0.10007301717996597
0.14903324842453003 0.37198784947395325 0.098684996366500854
0.17598283290863037 0.38043168187141418 0.094299592077732086
0.20452776551246643 0.39010146260261536 0.088859826326370239
0.23945309221744537 0.4016975462436676 0.081633910536766052
0.27871084213256836 0.41409677267074585 0.071531139314174652
0.31745618581771851 0.42604175209999084 0.059196930378675461
0.36410138010978699 0.43961170315742493 0.040074661374092102
0.41016426682472229 0.45265135169029236 0.019365936517715454
0.46462520956993103 0.46782630681991577 0.0040008784271776676
0.52503484487533569 0.48788705468177795 0.00032420805655419827
0.57879638671875 0.50172257423400879 4.6238851609814446e-06
0.61075073480606079 0.49932634830474854 0
0.64229702949523926 0.49447411298751831 0
0.6702771782875061 0.48992621898651123 0
0.69955140352249146 0.48444885015487671 0
0.72760641574859619 0.47877514362335205 0
0.75286144018173218 0.47425609827041626 0
0.77946412563323975 0.46942204236984253 0
0.80370044708251953 0.46517142653465271 0
0.83026599884033203 0.46360662579536438 0
0.85660392045974731 0.46527531743049622 0
0.88411551713943481 0.46831703186035156 0
0.9108271598815918 0.47169309854507446 0
0.93855029344558716 0.47647088766098022 0
0.96369504928588867 0.48281624913215637 0
0.0093545196577906609 0.41063496470451355 0.10787028074264526
0.024075083434581757 0.41135475039482117 0.10925845056772232
0.044923458248376846 0.4097212553024292 0.10960125178098679
0.067994408309459686 0.4074733555316925 0.11029670387506485
0.090716958045959473 0.40440142154693604 0.11083447188138962
0.11195183545351028 0.40098387002944946 0.11179002374410629
