LUTs/Fuji Superia 400 3 +.cube
# Created by: G'MIC (https://gmic.eu)
TITLE "Fuji Superia 400 3 +"
# LUT size
LUT_3D_SIZE 5
# Data domain
# LUT data points
DOMAIN_MIN 0.000000 0.000000 0.000000
DOMAIN_MAX 0.903226 0.903226 0.903226
0.012427635490894318 0.057298999279737473 0.051106467843055725
0.14680302143096924 0.06866668164730072 0.050415866076946259
0.44755861163139343 0.026444880291819572 0.037290457636117935
0.79667317867279053 0 7.9490400821669027e-06
0.99885904788970947 0.13315895199775696 0
7.9703240771777928e-06 0.16478787362575531 0.081391565501689911
0.13951250910758972 0.2044052928686142 0.054387401789426804
0.49280613660812378 0.2107216864824295 0.001056609908118844
0.80088710784912109 0.22642442584037781 0
0.99807941913604736 0.29007062315940857 0
0 0.43629235029220581 0.14786694943904877
0.064899496734142303 0.44551002979278564 0.15120592713356018
0.49209171533584595 0.56218278408050537 0.00074054201832041144
0.82321077585220337 0.55347460508346558 0
0.98897165060043335 0.49720087647438049 0
0.16620622575283051 0.67307066917419434 0.32658547163009644
0.26683872938156128 0.67051613330841064 0.331644207239151
0.45690432190895081 0.70221167802810669 0.31976759433746338
0.76297950744628906 0.77130532264709473 0.25281345844268799
0.99655687808990479 0.78734827041625977 0.047410964965820312
0.56764894723892212 0.85663211345672607 0.6038515567779541
0.59137141704559326 0.8558199405670166 0.60694140195846558
0.65239143371582031 0.85475587844848633 0.61516731977462769
0.76838952302932739 0.88879579305648804 0.61021846532821655
0.91640347242355347 0.92069405317306519 0.59158599376678467
0.013107690960168839 0.064429327845573425 0.16186296939849854
0.14755930006504059 0.081337884068489075 0.16014616191387177
0.45054876804351807 0.010110995732247829 0.17431424558162689
0.8019220232963562 6.0150767239974812e-05 0.17843301594257355
0.99883353710174561 0.16962487995624542 0.16668985784053802
0.0020505315624177456 0.19412194192409515 0.18082799017429352
0.17854267358779907 0.21266326308250427 0.19543516635894775
0.52058303356170654 0.22655029594898224 0.19229969382286072
0.80748039484024048 0.24007812142372131 0.16909419000148773
0.9982907772064209 0.30447179079055786 0.14434655010700226
0.059523288160562515 0.48195764422416687 0.29034343361854553
0.20968109369277954 0.4829656183719635 0.29045549035072327
0.51364040374755859 0.56091368198394775 0.25259774923324585
0.81008493900299072 0.52503347396850586 0.10747357457876205
0.99188065528869629 0.50209552049636841 0.0338548943400383
0.28936776518821716 0.68786156177520752 0.42389452457427979
0.35389918088912964 0.68567347526550293 0.42781728506088257
0.49216073751449585 0.69977861642837524 0.42754280567169189
0.76776343584060669 0.77066218852996826 0.40255606174468994
0.99140095710754395 0.78072845935821533 0.29815739393234253
0.59459465742111206 0.85975098609924316 0.63910377025604248
0.61660844087600708 0.85903573036193848 0.64178752899169922
0.67057067155838013 0.85606718063354492 0.64792990684509277
0.77604848146438599 0.88708597421646118 0.64986670017242432
0.91736376285552979 0.92072993516921997 0.64141911268234253
0 0.075333200395107269 0.46540170907974243
0.19070348143577576 0.081203952431678772 0.4680972695350647
0.48744410276412964 0.091089598834514618 0.47729352116584778
0.77002143859863281 0.086256995797157288 0.47970002889633179
0.99659031629562378 0.15531077980995178 0.4667891263961792
0 0.19973695278167725 0.50073570013046265
0.211652010679245 0.23152303695678711 0.51283758878707886
0.52405577898025513 0.28084346652030945 0.51111340522766113
0.7849382758140564 0.30391862988471985 0.50415962934494019
0.99596703052520752 0.32292288541793823 0.47595071792602539
0.0015326569555327296 0.51938343048095703 0.51451152563095093
0.25073924660682678 0.5346800684928894 0.5302807092666626
0.54735201597213745 0.55295026302337646 0.54928350448608398
0.79139584302902222 0.54415935277938843 0.52214509248733521
0.97943365573883057 0.55325305461883545 0.50226372480392456
0.45931145548820496 0.71644949913024902 0.6000056266784668
0.51899862289428711 0.7188376784324646 0.61085152626037598
0.58855855464935303 0.71247351169586182 0.60253167152404785
0.78005421161651611 0.76912480592727661 0.61125284433364868
0.97272783517837524 0.75524687767028809 0.52899628877639771
0.65496921539306641 0.8694799542427063 0.71829426288604736
0.66819077730178833 0.86892616748809814 0.71701192855834961
0.71219664812088013 0.86595445871353149 0.71945321559906006
0.79166316986083984 0.88166135549545288 0.72688215970993042
0.92079269886016846 0.92074370384216309 0.73511183261871338
0.044990126043558121 0.081225268542766571 0.73972493410110474
0.29780781269073486 0.083032764494419098 0.74371743202209473
0.5655481219291687 0.13696052134037018 0.73958110809326172
0.78592222929000854 0.25663170218467712 0.73509782552719116
0.95623260736465454 0.35644897818565369 0.72679972648620605
0.10013561695814133 0.23835143446922302 0.75258761644363403
0.32134023308753967 0.25424888730049133 0.7532888650894165
0.57977277040481567 0.31052818894386292 0.7474026083946228
0.78861492872238159 0.4014037549495697 0.74266546964645386
0.95112800598144531 0.46178796887397766 0.73592054843902588
0 0.46963828802108765 0.74322175979614258
0.18223917484283447 0.48393663763999939 0.74881923198699951
0.57225906848907471 0.54092538356781006 0.750446617603302
0.78500449657440186 0.59748899936676025 0.75201350450515747
0.94344484806060791 0.62523716688156128 0.75569194555282593
0.39128044247627258 0.733856201171875 0.74196094274520874
0.46895304322242737 0.73736828565597534 0.74622684717178345
0.62122011184692383 0.74373388290405273 0.75473231077194214
0.79596471786499023 0.76164013147354126 0.77390366792678833
0.94687438011169434 0.7559199333190918 0.75593960285186768
0.70730632543563843 0.88279634714126587 0.81128454208374023
0.72755366563796997 0.88305199146270752 0.81380009651184082
0.77738761901855469 0.88399815559387207 0.82069128751754761
0.82580405473709106 0.88198411464691162 0.81833547353744507
0.92867052555084229 0.9213184118270874 0.83743488788604736
0.42128086090087891 0.19308632612228394 0.9208226203918457
0.50377434492111206 0.21580129861831665 0.91939949989318848
0.66861248016357422 0.29350408911705017 0.91418123245239258
0.83890879154205322 0.43733206391334534 0.90602755546569824
0.96365171670913696 0.53761667013168335 0.90216165781021118
0.42999199032783508 0.32828167080879211 0.92003661394119263
0.51212286949157715 0.3496040403842926 0.91925895214080811
0.67099422216415405 0.40738078951835632 0.91349250078201294
0.83730334043502808 0.51238006353378296 0.90593743324279785
0.95812654495239258 0.59193050861358643 0.90220195055007935
0.35697799921035767 0.5115128755569458 0.91386407613754272
0.47739249467849731 0.53485167026519775 0.91317999362945557
0.65783441066741943 0.57072937488555908 0.91016000509262085
0.83104968070983887 0.63588821887969971 0.9053347110748291
0.94783186912536621 0.69357442855834961 0.90374398231506348
0.30483397841453552 0.70953071117401123 0.90472626686096191
0.38299593329429626 0.70703738927841187 0.90512609481811523
0.54748213291168213 0.70047676563262939 0.9058491587638855
0.80783790349960327 0.75282680988311768 0.90627032518386841
0.93788313865661621 0.80785596370697021 0.90906405448913574
0.65682917833328247 0.89502686262130737 0.90480464696884155
0.68223005533218384 0.89549517631530762 0.90538370609283447
0.74769002199172974 0.89755117893218994 0.9077487587928772
0.84067791700363159 0.90327870845794678 0.91321921348571777
0.9374687671661377 0.918426513671875 0.92526543140411377
