LUTs/Fuji 160C 1 -.cube
# Created by: G'MIC (https://gmic.eu)
TITLE "Fuji 160C 1 -"
# LUT size
LUT_3D_SIZE 32
# Data domain
DOMAIN_MIN 0.0 0.0 0.0
DOMAIN_MAX 1.0 1.0 1.0
# LUT data points
0.012233154848217964 0.012652675621211529 0.010437652468681335
0.033707249909639359 0.01339228916913271 0.01052487175911665
0.061002817004919052 0.015476914122700691 0.011628269217908382
0.090718217194080353 0.017472151666879654 0.012649228796362877
0.12719020247459412 0.017134295776486397 0.013647322542965412
0.16870197653770447 0.012845344841480255 0.014553137123584747
0.21568655967712402 0.0050702532753348351 0.015463219955563545
0.26155117154121399 0.00063704530475661159 0.015451904386281967
0.30964478850364685 3.0333194445120171e-06 0.015385998412966728
0.35464280843734741 0 0.015457330271601677
0.40219137072563171 0 0.014830087311565876
0.44884523749351501 0 0.01387200690805912
0.48939192295074463 0 0.012842310592532158
0.53274273872375488 0 0.011777928099036217
0.57018834352493286 0 0.010770601220428944
0.6088983416557312 0 0.0099288858473300934
0.64424413442611694 0 0.0098306220024824142
0.67891138792037964 0 0.0098806032910943031
0.71088987588882446 0 0.010114547796547413
0.74347996711730957 0 0.010941876098513603
0.77052909135818481 0 0.012628675438463688
0.79770380258560181 0 0.014766206964850426
0.82344281673431396 0 0.018211618065834045
0.84631270170211792 7.3818264354486018e-06 0.022083906456828117
0.87031006813049316 0.0028981342911720276 0.027174096554517746
0.89259046316146851 0.033716287463903427 0.033113554120063782
0.91573905944824219 0.086506731808185577 0.040418390184640884
0.93723976612091064 0.12548169493675232 0.04834451898932457
0.95976096391677856 0.1587517112493515 0.057177167385816574
0.98171466588973999 0.18918599188327789 0.06694658100605011
0.99849545955657959 0.21836276352405548 0.077724114060401917
0.99998986721038818 0.24358758330345154 0.088939733803272247
0.010877041146159172 0.033427216112613678 0.012289602309465408
0.030944980680942535 0.033898193389177322 0.012310393154621124
0.059393242001533508 0.036075778305530548 0.012092893011868
0.091801196336746216 0.036490246653556824 0.012065503746271133
0.12951736152172089 0.035156037658452988 0.012902219779789448
0.17037871479988098 0.030572628602385521 0.013486227951943874
0.21645607054233551 0.022163907065987587 0.013891188427805901
0.26204314827919006 0.010908188298344612 0.014255446381866932
0.31034702062606812 0.0022802005987614393 0.014159140177071095
0.35519716143608093 0.00031094157020561397 0.013856220059096813
0.40230253338813782 1.9067060748056974e-06 0.012949592433869839
0.44878199696540833 0 0.01213696226477623
0.48911610245704651 0 0.010931725613772869
0.53206008672714233 0 0.009750857949256897
0.56889402866363525 0 0.009034634567797184
0.60752445459365845 0 0.0083918599411845207
0.64270007610321045 0 0.0083029055967926979
0.67761635780334473 0 0.0082200253382325172
0.70938968658447266 0 0.0083838310092687607
0.74183744192123413 0 0.0095643755048513412
0.76906180381774902 0 0.011064298450946808
0.79637342691421509 0 0.01340184360742569
0.82192647457122803 3.7100510326126823e-06 0.016335174441337585
0.84542679786682129 0.00075744488276541233 0.020087458193302155
0.86935365200042725 0.018208114430308342 0.025509100407361984
0.89150393009185791 0.062589257955551147 0.031368523836135864
0.9145127534866333 0.10565319657325745 0.038696702569723129
0.93643194437026978 0.13937097787857056 0.046668592840433121
0.95850920677185059 0.16996520757675171 0.055768799036741257
0.98070603609085083 0.19848783314228058 0.06531853973865509
0.99815183877944946 0.22621192038059235 0.076309844851493835
0.9999890923500061 0.25034934282302856 0.087175466120243073
0.0087869232520461082 0.060704715549945831 0.014380510896444321
0.025970196351408958 0.060631703585386276 0.014672889374196529
0.053669124841690063 0.062166813760995865 0.014267625287175179
0.089594379067420959 0.064515657722949982 0.012874243780970573
0.13092236220836639 0.063785739243030548 0.011350147426128387
0.1742081344127655 0.059760194271802902 0.011121905408799648
0.22093015909194946 0.053166281431913376 0.011324472725391388
0.26553606986999512 0.043404791504144669 0.011379995383322239
0.31289190053939819 0.029613060876727104 0.011104069650173187
0.35663881897926331 0.015740225091576576 0.010718461126089096
0.40332022309303284 0.0046506277285516262 0.010132385417819023
0.44902840256690979 0.00078593142097815871 0.0088463816791772842
0.48932585120201111 2.8739255867549218e-05 0.0081984484568238258
0.53168219327926636 0 0.007369504775851965
0.56857627630233765 0 0.006744463462382555
0.60684937238693237 0 0.0062789414077997208
0.64211958646774292 0 0.0061534633859992027
0.67769819498062134 0 0.0061567677184939384
0.70938736200332642 0 0.006585586816072464
0.74131697416305542 0 0.0076124272309243679
0.76765137910842896 9.791044703888474e-07 0.008833971805870533
0.79520624876022339 0.00019402267935220152 0.011182515881955624
0.82121121883392334 0.0039288867264986038 0.014283500611782074
0.84438234567642212 0.021050699055194855 0.018037185072898865
0.86841589212417603 0.060485601425170898 0.023262009024620056
0.89082390069961548 0.097983673214912415 0.028980566188693047
0.9137808084487915 0.13084986805915833 0.036457188427448273
0.93556016683578491 0.15906324982643127 0.044131338596343994
0.95752227306365967 0.18628139793872833 0.053352009505033493
0.97978579998016357 0.21247498691082001 0.063410818576812744
0.99779301881790161 0.23826722800731659 0.074538007378578186
0.99999642372131348 0.26141351461410522 0.08596358448266983
0.0021629985421895981 0.093747861683368683 0.014917531050741673
0.013607931323349476 0.09375908225774765 0.015514237806200981
0.042091641575098038 0.094310231506824493 0.014862637035548687
0.080339565873146057 0.096050918102264404 0.013343246653676033
0.12602317333221436 0.099008284509181976 0.011000024154782295
0.1731252521276474 0.098331131041049957 0.0091246841475367546
0.22241191565990448 0.092342376708984375 0.0078515643253922462
0.2677987813949585 0.08432556688785553 0.0071872402913868427
0.31494826078414917 0.07458997517824173 0.0070273522287607193
0.35840535163879395 0.063388742506504059 0.0065860003232955933
0.40469896793365479 0.048150699585676193 0.0058864676393568516
0.44982349872589111 0.031847119331359863 0.0052019595168530941
0.48960641026496887 0.020019177347421646 0.0045907655730843544
0.53174912929534912 0.011104746721684933 0.004003048874437809
0.56853330135345459 0.0059837684966623783 0.0037568174302577972
0.60648095607757568 0.0032001680228859186 0.0035533604677766562
0.64218401908874512 0.0020710749085992575 0.0034119838383048773
0.67883890867233276 0.0020706253126263618 0.003569676773622632
0.70983618497848511 0.0028607598505914211 0.0040837316773831844
0.74113315343856812 0.0051839291118085384 0.0050929454155266285
0.76768010854721069 0.010778340511023998 0.0065308674238622189
0.7948451042175293 0.023296408355236053 0.0084808208048343658
0.82038480043411255 0.047300461679697037 0.011339590884745121
0.84365886449813843 0.077036648988723755 0.014860892668366432
0.86782741546630859 0.1074114516377449 0.020072344690561295
0.88992452621459961 0.13340361416339874 0.025897352024912834
0.91334247589111328 0.15969218313694 0.033662430942058563
0.93509703874588013 0.18374432623386383 0.0419461689889431
0.95741349458694458 0.20789377391338348 0.051365163177251816
0.97937649488449097 0.23107008635997772 0.061417777091264725
0.99779129028320312 0.25494325160980225 0.072765104472637177
1 0.27667233347892761 0.084710896015167236
8.7133021224872209e-06 0.13077114522457123 0.012009644880890846
0.0012869867496192455 0.13048167526721954 0.012664906680583954
0.019522860646247864 0.13050174713134766 0.012893828563392162
0.06218014657497406 0.13170613348484039 0.011625966988503933
0.11038823425769806 0.13277873396873474 0.0092866541817784309
0.16194793581962585 0.13686946034431458 0.0064558805897831917
0.21599481999874115 0.13744045794010162 0.0039565498009324074
0.26398640871047974 0.1309792697429657 0.0029124973807483912
0.31381699442863464 0.12169276177883148 0.0022590495645999908
0.35825634002685547 0.11290162056684494 0.0020501615945249796
0.4042949378490448 0.10377118736505508 0.0017891477327793837
0.44891583919525146 0.093221716582775116 0.0015609686961397529
0.48854538798332214 0.083163507282733917 0.0013986786361783743
0.52992534637451172 0.07118302583694458 0.0012865954777225852
0.56616508960723877 0.060380846261978149 0.0011792272562161088
0.60424810647964478 0.050290118902921677 0.001201014849357307
0.64081287384033203 0.044845517724752426 0.001241687685251236
0.67722856998443604 0.044714208692312241 0.0014433698961511254
0.70732641220092773 0.048997048288583755 0.0018401375273242593
0.73860865831375122 0.058992128819227219 0.0026397542096674442
0.76454931497573853 0.071928009390830994 0.0035115873906761408
0.79190033674240112 0.089174218475818634 0.0053076175972819328
0.81752634048461914 0.10785035789012909 0.0077734705992043018
0.8407895565032959 0.12640297412872314 0.010671520605683327
0.86480152606964111 0.14689728617668152 0.015159429982304573
0.8874669075012207 0.16673904657363892 0.020818734541535378
0.91073966026306152 0.18817959725856781 0.02834351547062397
0.93251150846481323 0.2085086852312088 0.036553528159856796
0.95478695631027222 0.2295149564743042 0.045937895774841309
0.97681236267089844 0.25017592310905457 0.056496325880289078
0.99674791097640991 0.2722981870174408 0.068607531487941742
1 0.29240870475769043 0.080774880945682526
0 0.17262054979801178 0.0067971213720738888
6.4667492551961914e-06 0.17174746096134186 0.007363250944763422
0.0028652902692556381 0.17074447870254517 0.0079784439876675606
0.034407496452331543 0.17124968767166138 0.0070093590766191483
0.092090517282485962 0.17188598215579987 0.0053959144279360771
0.14542269706726074 0.1734502762556076 0.0036576429847627878
0.20402123034000397 0.1772579550743103 0.0013811425305902958
0.25736415386199951 0.17760489881038666 0.00059850764228031039
0.30852419137954712 0.17125435173511505 0.00039392925100401044
0.35451608896255493 0.16223278641700745 0.00022930567502044141
0.40202519297599792 0.15166604518890381 0.00017894772463478148
0.44723489880561829 0.14262528717517853 0.00019749466446228325
0.48658144474029541 0.1354709267616272 0.00017197853594552726
0.52769315242767334 0.12842494249343872 0.00015237036859616637
0.56425082683563232 0.12247840315103531 0.0001959190412890166
0.60394489765167236 0.11764270067214966 0.00019878119928762317
0.64079809188842773 0.11565208435058594 0.00023922651598695666
0.67601597309112549 0.11572052538394928 0.00034515757579356432
0.70559769868850708 0.11847062408924103 0.00056158530060201883
0.73626035451889038 0.12412862479686737 0.00090446439571678638
0.7623593807220459 0.13184402883052826 0.001495179021731019
0.78937476873397827 0.14236217737197876 0.0025547640398144722
0.81506741046905518 0.15480594336986542 0.0042157489806413651
0.83841902017593384 0.16833017766475677 0.006688965018838644
0.86259657144546509 0.18430578708648682 0.010341135784983635
0.88518249988555908 0.20027460157871246 0.015418789349496365
0.90855556726455688 0.21820679306983948 0.022387683391571045
0.9305683970451355 0.23583212494850159 0.030608523637056351
0.95302361249923706 0.25440332293510437 0.04063926637172699
0.97550272941589355 0.27312305569648743 0.051786869764328003
0.99617832899093628 0.29275688529014587 0.064469717442989349
0.99997460842132568 0.31161603331565857 0.077489770948886871
0 0.21490810811519623 0.001710789161734283
0 0.21440303325653076 0.0020287760999053717
1.142669134424068e-05 0.21271733939647675 0.0027913309168070555
0.0084404740482568741 0.21217568218708038 0.0026900400407612324
0.061828330159187317 0.21298356354236603 0.0019082134822383523
0.1247369647026062 0.2135586142539978 0.0011524306610226631
0.18314214050769806 0.21435330808162689 0.00051883142441511154
0.24068863689899445 0.21801699697971344 9.9224162113387138e-05
0.29950904846191406 0.22033295035362244 2.135391241608886e-06
0.3471226692199707 0.21474853157997131 1.2118957783968654e-06
0.39607611298561096 0.20584259927272797 2.0453937210618278e-08
0.44327720999717712 0.1950094997882843 9.0508677885736688e-08
0.48372018337249756 0.18606889247894287 9.7360748441133182e-07
0.52604889869689941 0.17976011335849762 8.1713488953027991e-07
0.56428349018096924 0.17630781233310699 1.0855927712327684e-06
0.60377788543701172 0.17340044677257538 1.3208131122155464e-06
0.6394163966178894 0.17176365852355957 1.7764244830686948e-06
0.67351341247558594 0.17172832787036896 3.5661441870615818e-06
0.70276445150375366 0.173219233751297 1.7861209926195443e-05
0.73282855749130249 0.17683061957359314 6.4175954321399331e-05
0.7586480975151062 0.18193706870079041 0.0002692510315682739
0.78559333086013794 0.18913958966732025 0.00075631547952070832
0.81106072664260864 0.19845597445964813 0.0014389900024980307
0.83484423160552979 0.20885069668292999 0.0027440034318715334
0.85933667421340942 0.22163152694702148 0.0050991917960345745
0.88182747364044189 0.23478612303733826 0.0089931236580014229
0.90514981746673584 0.2500300407409668 0.014692386612296104
0.92744266986846924 0.26536047458648682 0.022554807364940643
0.95035558938980103 0.28178945183753967 0.032873746007680893
0.97279912233352661 0.29836878180503845 0.04460468515753746
0.99449831247329712 0.31589940190315247 0.058186020702123642
0.99999904632568359 0.33335229754447937 0.072286807000637054
0 0.25345635414123535 0.00029790261760354042
0 0.25312700867652893 0.00040574476588517427
0 0.2513376772403717 0.00064539100276306272
0.00072015763726085424 0.24999356269836426 0.00085983617464080453
0.025634452700614929 0.25030723214149475 0.00062582729151472449
0.097713425755500793 0.25111931562423706 0.00027941085863858461
0.16364787518978119 0.25195401906967163 4.6974128053989261e-05
0.21969197690486908 0.25285837054252625 2.1825630938110407e-06
0.28123259544372559 0.25644201040267944 0
0.33645537495613098 0.25913542509078979 0
0.38795548677444458 0.25459572672843933 0
0.43653959035873413 0.24661128222942352 0
0.47928789258003235 0.23859366774559021 0
0.52403801679611206 0.22942657768726349 0
0.56215363740921021 0.22289624810218811 0
0.60065662860870361 0.2191615104675293 0
0.63554292917251587 0.2172495424747467 0
0.66937160491943359 0.21652103960514069 0
0.69809967279434204 0.21717981994152069 0
0.7277032732963562 0.21980294585227966 7.2483643975829182e-08
0.75353312492370605 0.2234678715467453 3.1713834687252529e-06
0.78065896034240723 0.22914189100265503 5.702222915715538e-05
0.80651652812957764 0.23643940687179565 0.00028274921351112425
0.83035016059875488 0.2449200451374054 0.00066661625169217587
0.85494828224182129 0.25564631819725037 0.0016790514346212149
0.87782889604568481 0.26696059107780457 0.0036682155914604664
0.90139228105545044 0.28013855218887329 0.0075647765770554543
0.92361205816268921 0.29324379563331604 0.013415460474789143
0.94649094343185425 0.30776014924049377 0.022870916873216629
0.96931147575378418 0.32279902696609497 0.034792304039001465
0.99213176965713501 0.33886367082595825 0.049407020211219788
0.99992489814758301 0.35427066683769226 0.064308904111385345
0 0.29519706964492798 3.2214952625508886e-06
0 0.2953091561794281 4.2748729356389958e-06
0 0.29355692863464355 1.3371783097682055e-05
1.8857533632399281e-06 0.2915215790271759 8.811717270873487e-05
0.0036398668307811022 0.29071447253227234 6.8526787799783051e-05
0.060831580311059952 0.29108020663261414 5.6553003560111392e-06
0.14079055190086365 0.29180240631103516 5.788464250144898e-07
0.20010386407375336 0.29245197772979736 0
0.25896033644676208 0.29282081127166748 0
0.31629940867424011 0.29648387432098389 0
0.37919610738754272 0.30291986465454102 0
0.43045535683631897 0.29905301332473755 0
0.4734293520450592 0.29307225346565247 0
0.51819545030593872 0.28495553135871887 0
0.55674797296524048 0.27675464749336243 0
0.59633493423461914 0.26798653602600098 0
0.63128620386123657 0.26287639141082764 0
0.66469019651412964 0.26141199469566345 0
0.69313597679138184 0.2613864541053772 0
0.72320157289505005 0.26313456892967224 0
0.74898093938827515 0.26583269238471985 0
0.77620506286621094 0.27019351720809937 2.727191983353805e-08
0.80233311653137207 0.27611145377159119 1.7263124618693837e-06
0.82599544525146484 0.28299093246459961 1.1695561624947004e-05
0.85083234310150146 0.29215803742408752 0.00021107797510921955
0.8736574649810791 0.30185002088546753 0.00071899284375831485
0.89762872457504272 0.31322076916694641 0.0023918128572404385
0.9200512170791626 0.32496693730354309 0.0057148621417582035
0.94326949119567871 0.33802118897438049 0.012899069115519524
0.96657687425613403 0.35111254453659058 0.024091381579637527
0.99009436368942261 0.3652290403842926 0.039229832589626312
0.99975419044494629 0.37980759143829346 0.056963320821523666
0 0.33026641607284546 0
0 0.33107960224151611 0
0 0.32967114448547363 0
0 0.3275153636932373 3.6241823409000062e-07
0.00012808979954570532 0.32575488090515137 8.2493289710328099e-07
0.028261283412575722 0.32623234391212463 0
0.11466873437166214 0.32778415083885193 0
0.18138378858566284 0.32928487658500671 0
0.24348925054073334 0.33103927969932556 0
0.29845604300498962 0.33267500996589661 0
0.35978725552558899 0.33655178546905518 0
0.42052951455116272 0.34183835983276367 0
0.46620553731918335 0.33946076035499573 0
0.51070868968963623 0.33300882577896118 0
0.54901599884033203 0.32596993446350098 0
0.58834975957870483 0.31745699048042297 0
0.62384134531021118 0.30859622359275818 0
0.65781939029693604 0.30210301280021667 0
0.68647509813308716 0.29977872967720032 0
0.71668952703475952 0.30010709166526794 0
0.74238932132720947 0.30209919810295105 0
0.76968181133270264 0.3055051863193512 0
0.79632782936096191 0.31049889326095581 0
0.82015907764434814 0.31641051173210144 0
0.84523040056228638 0.3243567943572998 9.8370651357981842e-07
0.86848586797714233 0.33269435167312622 2.6696416171034798e-05
0.89259403944015503 0.34292638301849365 0.00036799171357415617
0.91520416736602783 0.35319972038269043 0.0012523949844762683
0.93867701292037964 0.36470320820808411 0.0044759549200534821
0.96202468872070312 0.37638002634048462 0.011937249451875687
0.98658627271652222 0.38939008116722107 0.025762142613530159
0.99930781126022339 0.40257960557937622 0.044770751148462296
0 0.37003138661384583 0
0 0.37076154351234436 0
0 0.36945217847824097 0
0 0.36817198991775513 0
0 0.36642521619796753 0
0.0082843098789453506 0.36632487177848816 1.7825607301347191e-06
0.082135312259197235 0.36773169040679932 6.4429904966800677e-08
0.16087140142917633 0.36879685521125793 0
0.22619448602199554 0.36996209621429443 0
0.28131681680679321 0.37086397409439087 0
0.33865758776664734 0.37181699275970459 0
0.39723911881446838 0.37437590956687927 0
0.45234933495521545 0.38100248575210571 0
0.50030571222305298 0.37932917475700378 0
0.53859084844589233 0.37368324398994446 0
0.57781660556793213 0.36622259020805359 0
0.61356872320175171 0.3589843213558197 0
0.64849281311035156 0.35114160180091858 0
0.6777874231338501 0.34429776668548584 0
0.7084498405456543 0.33988037705421448 0
0.73445236682891846 0.33992624282836914 0
0.76229113340377808 0.34226781129837036 0
0.78911763429641724 0.34641358256340027 0
0.81347978115081787 0.35173162817955017 0
0.8387637734413147 0.35814830660820007 0
0.86240482330322266 0.36566990613937378 2.0453940763331957e-08
0.88674247264862061 0.37444028258323669 3.2504715363756986e-06
0.90959644317626953 0.38329145312309265 3.4533150028437376e-05
0.93344128131866455 0.39348256587982178 0.00050995679339393973
0.95720285177230835 0.40417629480361938 0.0027596589643508196
0.98179847002029419 0.41557228565216064 0.010994797572493553
0.99823999404907227 0.42711320519447327 0.028076857328414917
0 0.40845242142677307 0
0 0.4103093147277832 0
0 0.40910187363624573 0
0 0.40737724304199219 0
0 0.40527153015136719 0
0.0011549475602805614 0.40354961156845093 7.4658622907008976e-05
0.044646289199590683 0.40347662568092346 3.6411078326636925e-05
0.13631223142147064 0.40432870388031006 8.9226459749625064e-06
0.20706647634506226 0.40511465072631836 1.2067823718098225e-07
0.26328748464584351 0.40579822659492493 0
0.32021722197532654 0.40637639164924622 0
0.37535065412521362 0.40683549642562866 0
0.42536652088165283 0.40836265683174133 0
0.48278149962425232 0.4150119423866272 0
0.52713984251022339 0.4160410463809967 0
0.5669746994972229 0.4109082818031311 0
0.60272461175918579 0.40476930141448975 0
0.63741093873977661 0.39827445149421692 0
0.66772609949111938 0.39232823252677917 0
0.69912338256835938 0.38609731197357178 0
0.72609567642211914 0.38102933764457703 0
0.7547563910484314 0.37911096215248108 0
0.7821546196937561 0.38163593411445618 0
0.80682468414306641 0.38592150807380676 0
0.83259588479995728 0.39208534359931946 0
0.85642015933990479 0.39861482381820679 0
0.88104903697967529 0.40633735060691833 0
0.90434962511062622 0.41428476572036743 0
0.92871403694152832 0.42329919338226318 1.5552663171547465e-05
0.95301157236099243 0.43289351463317871 0.00026845707907341421
0.97855764627456665 0.44350653886795044 0.0026801412459462881
0.99689346551895142 0.45403477549552917 0.013586689718067646
0 0.43998852372169495 0
0 0.44213882088661194 2.9389752853603568e-06
0 0.44104078412055969 4.2139372453675605e-06
0 0.43944686651229858 3.2000505598261952e-05
0 0.43725952506065369 0.00019294377125333995
8.4555831563193351e-06 0.43496352434158325 0.00059012818383052945
0.018672673031687737 0.43418911099433899 0.00078272202517837286
0.11208873242139816 0.43474560976028442 0.00047657021787017584
0.19036576151847839 0.43543878197669983 0.00016475126903969795
0.24826298654079437 0.43600186705589294 4.2101877625100315e-05
0.30558732151985168 0.43669608235359192 1.0935612408502493e-05
0.35981014370918274 0.43719786405563354 1.6171395600395044e-07
0.4075348973274231 0.43708741664886475 0
0.45942950248718262 0.43837794661521912 0
0.51025503873825073 0.4447285532951355 0
0.5561099648475647 0.44618195295333862 0
0.59253376722335815 0.44188189506530762 0
0.62721377611160278 0.43673986196517944 0
0.6570548415184021 0.43125346302986145 0
0.68874585628509521 0.42583063244819641 0
0.71638977527618408 0.42103433609008789 0
0.74578362703323364 0.41648507118225098 0
0.77451133728027344 0.41410356760025024 0
0.79957431554794312 0.41575419902801514 0
0.82554835081100464 0.42038476467132568 0
0.84955054521560669 0.42609173059463501 0
0.87478703260421753 0.43317678570747375 0
0.89835000038146973 0.4402959942817688 0
0.92309731245040894 0.44851800799369812 0
0.94794583320617676 0.45743486285209656 1.0113194548466709e-06
0.97388815879821777 0.46697282791137695 0.00015327971777878702
0.99497461318969727 0.47688353061676025 0.00335297966375947
0 0.47212734818458557 5.3958316129865125e-05
0 0.47374561429023743 0.00022064820223022252
0 0.47312280535697937 0.00037098806933499873
0 0.47171247005462646 0.00072860351065173745
0 0.46955707669258118 0.0013274835655465722
0 0.46730500459671021 0.0024574236012995243
0.0053404700011014938 0.46541377902030945 0.0041152192279696465
0.082289367914199829 0.46546238660812378 0.0034815564285963774
0.17150023579597473 0.46564644575119019 0.0022307399194687605
0.23195919394493103 0.46626085042953491 0.0013892564456909895
0.28950387239456177 0.46666240692138672 0.00068758352426812053
0.34317198395729065 0.46672368049621582 0.00026398629415780306
0.3900817334651947 0.46704253554344177 4.6636319893877953e-05
0.43963369727134705 0.46702009439468384 6.8652361733256839e-06
0.48446640372276306 0.46756634116172791 0
0.53573781251907349 0.47321569919586182 0
0.58017128705978394 0.47731739282608032 0
0.6158486008644104 0.47400417923927307 0
0.64623129367828369 0.47007173299789429 0
0.6779167652130127 0.46574828028678894 0
0.70569777488708496 0.46194759011268616 0
0.73590570688247681 0.45834425091743469 0
0.76498514413833618 0.4552915096282959 0
0.79082292318344116 0.45302030444145203 0
0.81805539131164551 0.45305991172790527 0
0.84301328659057617 0.45655602216720581 0
0.86842060089111328 0.4624495804309845 0
0.89214920997619629 0.46878156065940857 0
