LUTs/Fuji Provia 400X.cube
# Created by: G'MIC (https://gmic.eu)
TITLE "Fuji Provia 400X"
# LUT size
LUT_3D_SIZE 32
# Data domain
DOMAIN_MIN 0.0 0.0 0.0
DOMAIN_MAX 1.0 1.0 1.0
# LUT data points
0.014811976812779903 0.014081714674830437 0.010314651764929295
0.045293018221855164 0.013000383041799068 0.010314651764929295
0.081355161964893341 0.012283113785088062 0.01030009426176548
0.11493286490440369 0.011615753173828125 0.010226249694824219
0.14899100363254547 0.010798866860568523 0.010225462727248669
0.17954650521278381 0.010237732902169228 0.010225462727248669
0.21164028346538544 0.0092891044914722443 0.010225462727248669
0.24493813514709473 0.0084699131548404694 0.01010105200111866
0.27851420640945435 0.0081060947850346565 0.0097212651744484901
0.3112797737121582 0.0080228392034769058 0.0096104331314563751
0.34785667061805725 0.007495109923183918 0.0095509923994541168
0.38771280646324158 0.0059054233133792877 0.0093847038224339485
0.42522644996643066 0.0045357826165854931 0.0093728667125105858
0.46735432744026184 0.0039400369860231876 0.0090694352984428406
0.50734823942184448 0.0031606943812221289 0.0083104223012924194
0.55192947387695312 0.0021803108975291252 0.0078764650970697403
0.59569793939590454 0.0016133831813931465 0.0070518860593438148
0.64013993740081787 0.0014186734333634377 0.0058988905511796474
0.67914927005767822 0.00087733980035409331 0.0049643879756331444
0.71974456310272217 0.00054866343270987272 0.0040210522711277008
0.75453323125839233 0.00052856700494885445 0.0031431610696017742
0.7909245491027832 0.00032235743128694594 0.0020591560751199722
0.82514446973800659 3.6558794818120077e-05 0.0011364354286342859
0.85553818941116333 0 0.00049806293100118637
0.88625383377075195 0 0.00018508717766962945
0.91435235738754272 0 2.5826609999057837e-05
0.94363415241241455 0 0
0.97109013795852661 0 0
0.9948575496673584 0 0
1 0 0
1 0 0
1 0 0
0.021683882921934128 0.045381896197795868 0.016483930870890617
0.046792905777692795 0.043329577893018723 0.016286291182041168
0.080403737723827362 0.042007759213447571 0.016150172799825668
0.11378225684165955 0.040734592825174332 0.015908302739262581
0.14756175875663757 0.038790095597505569 0.015928087756037712
0.1777992844581604 0.037953365594148636 0.016014942899346352
0.2110631912946701 0.036014508455991745 0.016004571691155434
0.24422009289264679 0.034533284604549408 0.015771277248859406
0.2774384617805481 0.033121418207883835 0.015355981886386871
0.31076112389564514 0.031884528696537018 0.015000609681010246
0.34753790497779846 0.030470384284853935 0.014913582243025303
0.38746970891952515 0.027457669377326965 0.01446964219212532
0.42496591806411743 0.024856626987457275 0.014320811256766319
0.46728536486625671 0.023008702322840691 0.014113080687820911
0.50778853893280029 0.020460406318306923 0.013426576741039753
0.55295872688293457 0.018050167709589005 0.012324194423854351
0.597037672996521 0.015934154391288757 0.011276106350123882
0.64181381464004517 0.014035752974450588 0.010125930421054363
0.68120485544204712 0.01178285013884306 0.0088805267587304115
0.72211372852325439 0.0097533008083701134 0.0078226635232567787
0.75694948434829712 0.0088677685707807541 0.0064505557529628277
0.79337799549102783 0.0069162705913186073 0.0050014262087643147
0.82789736986160278 0.0042665437795221806 0.0035576657392084599
0.85857820510864258 0.0030062450096011162 0.0020401750225573778
0.88979482650756836 0.0025194312911480665 0.0010187892476096749
0.9180598258972168 0.0013835456920787692 0.00039544998435303569
0.94723314046859741 0.00067407183814793825 6.8869048845954239e-05
0.97448194026947021 0.00042627347283996642 1.4807374100200832e-06
0.99601101875305176 0.0001202636631205678 0
1 5.8040232033818029e-06 0
1 0 0
1 0 0
0.034577179700136185 0.081003174185752869 0.024138567969202995
0.055219646543264389 0.079432085156440735 0.024000434204936028
0.081229157745838165 0.078407026827335358 0.023529797792434692
0.11262186616659164 0.07657206803560257 0.023159341886639595
0.14595431089401245 0.07513873279094696 0.023104554042220116
0.17599008977413177 0.073643431067466736 0.023201875388622284
0.20952038466930389 0.071557186543941498 0.023254383355379105
0.24305261671543121 0.069835655391216278 0.023054452612996101
0.27701643109321594 0.067766211926937103 0.022704346105456352
0.31025809049606323 0.06650097668170929 0.022456977516412735
0.34741625189781189 0.064185470342636108 0.02225877158343792
0.38730782270431519 0.061175212264060974 0.021495822817087173
0.42485478520393372 0.05843815952539444 0.021175788715481758
0.46752876043319702 0.055751018226146698 0.020852701738476753
0.50782805681228638 0.052544932812452316 0.019732944667339325
0.5538906455039978 0.049144718796014786 0.01862025074660778
0.59849762916564941 0.045878935605287552 0.017285602167248726
0.64398646354675293 0.042454477399587631 0.0153901232406497
0.68383383750915527 0.039191018790006638 0.013981105759739876
0.72512292861938477 0.035291962325572968 0.012162554077804089
0.76019161939620972 0.032576244324445724 0.010976547375321388
0.79690396785736084 0.028631718829274178 0.0087507916614413261
0.83144217729568481 0.023971714079380035 0.0070619136095046997
0.86234396696090698 0.020514419302344322 0.0053041824139654636
0.8939821720123291 0.018102105706930161 0.0036309638526290655
0.92304235696792603 0.014482380822300911 0.0019440382020547986
0.95253145694732666 0.010888704098761082 0.0010159417288377881
0.98016071319580078 0.0085986917838454247 0.00028352884692139924
0.99776303768157959 0.0053297034464776516 1.4517844647343736e-05
1 0.002811686135828495 0
1 0.0011563323205336928 0
1 0.0005561315338127315 0
0.050074506551027298 0.11495578289031982 0.033564060926437378
0.067667149007320404 0.11415791511535645 0.033241908997297287
0.088564656674861908 0.11275743693113327 0.033010948449373245
0.11354400217533112 0.11122827231884003 0.032701682299375534
0.14396786689758301 0.10992200672626495 0.032524317502975464
0.17396368086338043 0.10825184732675552 0.032472275197505951
0.20851267874240875 0.10657653212547302 0.032459300011396408
0.24165821075439453 0.10438642650842667 0.032384086400270462
0.27584019303321838 0.10263004153966904 0.031894370913505554
0.308765709400177 0.10061545670032501 0.031560581177473068
0.34682935476303101 0.098400339484214783 0.031428780406713486
0.38723942637443542 0.095738090574741364 0.030422363430261612
0.42471301555633545 0.092864379286766052 0.02990274503827095
0.46758794784545898 0.090327903628349304 0.029479363933205605
0.50828254222869873 0.087178044021129608 0.028441455215215683
0.55459749698638916 0.083618372678756714 0.026777734979987144
0.59950220584869385 0.080188527703285217 0.025012530386447906
0.64530938863754272 0.076513789594173431 0.023192709311842918
0.68546706438064575 0.07308485358953476 0.02109655924141407
0.72729009389877319 0.068648882210254669 0.0188407301902771
0.7628588080406189 0.064978815615177155 0.01683487556874752
0.80002349615097046 0.060423657298088074 0.014208256267011166
0.83476662635803223 0.055167265236377716 0.012034540064632893
0.86565738916397095 0.050375808030366898 0.0098883900791406631
0.89734268188476562 0.046189103275537491 0.0074795512482523918
0.92688876390457153 0.041004735976457596 0.0054734190925955772
0.95727390050888062 0.03528105840086937 0.0040595531463623047
0.98498624563217163 0.030495477840304375 0.0030953031964600086
0.99902600049972534 0.024085169658064842 0.0022393218241631985
1 0.018491603434085846 0.0018878162372857332
1 0.013226600363850594 0.0014862442621961236
1 0.009640377014875412 0.0010608137818053365
0.066934876143932343 0.14722834527492523 0.044944729655981064
0.081385239958763123 0.14639671146869659 0.044671732932329178
0.099618934094905853 0.14523862302303314 0.044477324932813644
0.12027403712272644 0.14394605159759521 0.044216223061084747
0.14359591901302338 0.14261844754219055 0.043586060404777527
0.1725231260061264 0.14113666117191315 0.043382890522480011
0.20799501240253448 0.13939787447452545 0.043462559580802917
0.24036763608455658 0.13739225268363953 0.043490029871463776
0.27463448047637939 0.13542522490024567 0.043145135045051575
0.30827981233596802 0.13348148763179779 0.04260832816362381
0.34629836678504944 0.13115748763084412 0.042543035000562668
0.38698294758796692 0.12872104346752167 0.041386973112821579
0.42504367232322693 0.12616343796253204 0.040653400123119354
0.46804821491241455 0.12335356324911118 0.040311459451913834
0.50897812843322754 0.12024050205945969 0.039292380213737488
0.55542516708374023 0.11691202223300934 0.037270329892635345
0.60089260339736938 0.11353074014186859 0.035049624741077423
0.64663159847259521 0.10979251563549042 0.033003997057676315
0.68687361478805542 0.10643690824508667 0.030594481155276299
0.72883325815200806 0.10196290910243988 0.027639392763376236
0.76471352577209473 0.097964160144329071 0.025209464132785797
0.80194181203842163 0.093588784337043762 0.021401556208729744
0.83747005462646484 0.088569648563861847 0.018433168530464172
0.86845839023590088 0.083477377891540527 0.015402705408632755
0.90058606863021851 0.078655719757080078 0.012252379208803177
0.93022465705871582 0.07333943247795105 0.0094119925051927567
0.96130698919296265 0.067083418369293213 0.00659544812515378
0.98894596099853516 0.060979314148426056 0.0047297230921685696
0.99964046478271484 0.053201667964458466 0.0040153353475034237
1 0.045407984405755997 0.0039059631526470184
1 0.037416715174913406 0.0038964017294347286
1 0.029994700103998184 0.003886272432282567
0.082548975944519043 0.17685675621032715 0.057208102196455002
0.094840988516807556 0.17618817090988159 0.056757189333438873
0.11080494523048401 0.17516814172267914 0.056546777486801147
0.12926365435123444 0.17408820986747742 0.056237518787384033
0.14925183355808258 0.17277197539806366 0.055595323443412781
0.17377765476703644 0.17148452997207642 0.05517173558473587
0.20740275084972382 0.16973854601383209 0.054915040731430054
0.23922571539878845 0.16808895766735077 0.054892558604478836
0.27404859662055969 0.16602332890033722 0.054829511791467667
0.3079129159450531 0.16417038440704346 0.054540850222110748
0.34633967280387878 0.16177400946617126 0.054394803941249847
0.38742774724960327 0.15935857594013214 0.05344097688794136
0.42566949129104614 0.15710704028606415 0.052416317164897919
0.46905213594436646 0.15441824495792389 0.051718641072511673
0.51013994216918945 0.15147720277309418 0.050569809973239899
0.5566069483757019 0.14816254377365112 0.04872487485408783
0.60241109132766724 0.14480166137218475 0.046303156763315201
0.64835256338119507 0.14110244810581207 0.044202376157045364
0.68859565258026123 0.13796529173851013 0.041655600070953369
0.73062717914581299 0.13365109264850616 0.038214024156332016
0.76634764671325684 0.12955009937286377 0.035403862595558167
0.8038596510887146 0.12530526518821716 0.031153289601206779
0.83926659822463989 0.12069256603717804 0.027368675917387009
0.87052470445632935 0.11554072797298431 0.0236212108284235
0.90321272611618042 0.11079849302768707 0.019091799855232239
0.9333767294883728 0.10562244802713394 0.015299691818654537
0.9648822546005249 0.099349066615104675 0.011369242332875729
0.99165970087051392 0.093163304030895233 0.008091227151453495
0.99976420402526855 0.085516802966594696 0.0058504459448158741
1 0.077607326209545135 0.0049270610325038433
1 0.068851470947265625 0.0045031043700873852
1 0.060106407850980759 0.0042874282225966454
0.088596858084201813 0.20955142378807068 0.067916326224803925
0.10036525130271912 0.20875169336795807 0.067789658904075623
0.11566786468029022 0.2079816460609436 0.067683592438697815
0.13268947601318359 0.2070821076631546 0.067587718367576599
0.15266403555870056 0.2059946209192276 0.06748528778553009
0.17610885202884674 0.20468486845493317 0.06720270961523056
0.20584581792354584 0.20314623415470123 0.066742703318595886
0.23796945810317993 0.20160230994224548 0.066707335412502289
0.27340567111968994 0.19972436130046844 0.06704142689704895
0.3075580894947052 0.19787397980690002 0.066657021641731262
0.34630998969078064 0.19551590085029602 0.066441170871257782
0.38781839609146118 0.19301868975162506 0.065580733120441437
0.42639213800430298 0.19102916121482849 0.064405135810375214
0.47020119428634644 0.18846802413463593 0.063452854752540588
0.51153850555419922 0.18588767945766449 0.062754452228546143
0.55825519561767578 0.18274052441120148 0.060968503355979919
0.60433882474899292 0.17943122982978821 0.058592524379491806
0.65068286657333374 0.17576934397220612 0.056276172399520874
0.69087117910385132 0.17290060222148895 0.054069459438323975
0.73288297653198242 0.16889750957489014 0.050421286374330521
0.76865899562835693 0.16466166079044342 0.047331817448139191
0.8063475489616394 0.16064243018627167 0.042983502149581909
0.84168893098831177 0.15662586688995361 0.038448579609394073
0.87314063310623169 0.15162394940853119 0.034411616623401642
0.90581029653549194 0.14685103297233582 0.028945887461304665
0.93623471260070801 0.14213097095489502 0.024036206305027008
0.9683678150177002 0.13612224161624908 0.018490422517061234
0.99400758743286133 0.12994390726089478 0.013886339962482452
0.9999319314956665 0.1229357123374939 0.010068760253489017
1 0.11529771238565445 0.0082480693235993385
1 0.10632046312093735 0.0077598597854375839
1 0.097547426819801331 0.0073138396255671978
0.086351022124290466 0.23958328366279602 0.078084103763103485
0.095604419708251953 0.23897881805896759 0.078023806214332581
0.10800106823444366 0.23835436999797821 0.078014664351940155
0.12463860958814621 0.23751327395439148 0.077952682971954346
0.1466856449842453 0.23648077249526978 0.077702902257442474
0.17236454784870148 0.23518405854701996 0.077276796102523804
0.20366875827312469 0.2339586615562439 0.077109090983867645
0.23693521320819855 0.23252421617507935 0.077064208686351776
0.27238059043884277 0.23081699013710022 0.076991766691207886
0.30742248892784119 0.22903543710708618 0.07647174596786499
0.34673058986663818 0.22676797211170197 0.075999639928340912
0.38859221339225769 0.22431416809558868 0.07532934844493866
0.42753326892852783 0.22234536707401276 0.074525468051433563
0.47173315286636353 0.21984605491161346 0.073429509997367859
0.51337271928787231 0.21765026450157166 0.072410985827445984
0.56029081344604492 0.2146708071231842 0.071045100688934326
0.60651665925979614 0.21144673228263855 0.06887836754322052
0.6531028151512146 0.20774003863334656 0.066683843731880188
0.69338047504425049 0.20487684011459351 0.064304865896701813
0.73522323369979858 0.20105463266372681 0.061118811368942261
0.77101051807403564 0.19707860052585602 0.058068953454494476
0.80883723497390747 0.19323290884494781 0.054028552025556564
0.84411358833312988 0.1895928829908371 0.049539033323526382
0.87568378448486328 0.18508808314800262 0.045070946216583252
0.90832901000976562 0.18018266558647156 0.039441343396902084
0.93885844945907593 0.17573575675487518 0.03393356129527092
0.97109544277191162 0.1701933741569519 0.027411505579948425
0.99530112743377686 0.1640620231628418 0.02136879600584507
0.99998849630355835 0.15765821933746338 0.015674760565161705
1 0.15041843056678772 0.011874428950250149
1 0.14184233546257019 0.010277393274009228
1 0.13336737453937531 0.0097502544522285461
0.094055257737636566 0.27351847290992737 0.089322485029697418
0.10004091262817383 0.27300631999969482 0.089321732521057129
0.10890824347734451 0.27254554629325867 0.089268617331981659
0.12134750932455063 0.27169337868690491 0.089116983115673065
0.1398807168006897 0.27054178714752197 0.088952183723449707
0.1665760725736618 0.26948624849319458 0.088871575891971588
0.20078378915786743 0.26836985349655151 0.088834680616855621
0.23520737886428833 0.26698920130729675 0.0887799933552742
0.27134150266647339 0.26552212238311768 0.088747784495353699
0.30722483992576599 0.26385089755058289 0.088270232081413269
0.34742259979248047 0.26182320713996887 0.087575949728488922
0.38938316702842712 0.25952723622322083 0.086876697838306427
0.42875894904136658 0.25756260752677917 0.086056552827358246
0.47349169850349426 0.25514081120491028 0.084946818649768829
0.51561492681503296 0.25298866629600525 0.083711527287960052
0.56306976079940796 0.25025826692581177 0.081891871988773346
0.60937058925628662 0.24712939560413361 0.079961568117141724
0.65600854158401489 0.24348011612892151 0.077576912939548492
0.69652163982391357 0.24048548936843872 0.074978992342948914
0.73819780349731445 0.23683574795722961 0.071994282305240631
0.77396982908248901 0.23320479691028595 0.068748250603675842
0.81153374910354614 0.22948145866394043 0.064557000994682312
0.84700113534927368 0.22585110366344452 0.060057003051042557
0.87883782386779785 0.22181603312492371 0.055478144437074661
0.91148561239242554 0.21685788035392761 0.050306759774684906
0.94212090969085693 0.21262362599372864 0.04452020674943924
0.97412657737731934 0.20747397840023041 0.037503853440284729
0.99645555019378662 0.20150446891784668 0.030542692169547081
1 0.19560824334621429 0.02316463366150856
1 0.18888098001480103 0.017182508483529091
1 0.180426225066185 0.01392445620149374
1 0.17252837121486664 0.013007855042815208
0.073630407452583313 0.30807194113731384 0.0986061692237854
0.080782458186149597 0.30758336186408997 0.098606124520301819
0.091777220368385315 0.30703750252723694 0.098604053258895874
0.10716566443443298 0.30639639496803284 0.098608680069446564
0.12839294970035553 0.3054700493812561 0.098615929484367371
0.15969201922416687 0.30439722537994385 0.098634727299213409
0.197341188788414 0.30326071381568909 0.098586790263652802
0.23250451683998108 0.30216288566589355 0.098392456769943237
0.27001768350601196 0.30073386430740356 0.098205767571926117
0.30632853507995605 0.29929870367050171 0.09792625904083252
0.34711450338363647 0.29736277461051941 0.097143478691577911
0.38968226313591003 0.29528796672821045 0.096165582537651062
0.42972755432128906 0.29346466064453125 0.095723845064640045
0.47531139850616455 0.2909940779209137 0.09495900571346283
0.51788437366485596 0.28873598575592041 0.093913286924362183
0.56606948375701904 0.2859891951084137 0.091931171715259552
0.6124565601348877 0.28329488635063171 0.09016205370426178
0.65914839506149292 0.27985897660255432 0.087986364960670471
0.69976568222045898 0.27668458223342896 0.085488803684711456
0.74138611555099487 0.27315738797187805 0.082760587334632874
0.77710098028182983 0.26986998319625854 0.079520098865032196
0.81476753950119019 0.26625758409500122 0.075420990586280823
0.85030335187911987 0.26248705387115479 0.071030296385288239
0.88200998306274414 0.25859999656677246 0.066401749849319458
0.91485887765884399 0.25393417477607727 0.061297409236431122
0.94549208879470825 0.24974726140499115 0.055355075746774673
0.97743165493011475 0.24476335942745209 0.048306562006473541
0.99799948930740356 0.23911717534065247 0.040705647319555283
1 0.23322433233261108 0.032330211251974106
1 0.22658444941043854 0.023940578103065491
1 0.21867929399013519 0.018466727808117867
1 0.211088627576828 0.017107978463172913
0.047119878232479095 0.34686583280563354 0.10906900465488434
0.051813509315252304 0.34655001759529114 0.10906900465488434
0.060007043182849884 0.34597161412239075 0.10906900465488434
0.07909189909696579 0.34517779946327209 0.10908964276313782
0.1127580851316452 0.34430408477783203 0.1092294305562973
0.15159329771995544 0.34350475668907166 0.10942311584949493
0.19159077107906342 0.34259685873985291 0.1092500239610672
0.22806887328624725 0.34163269400596619 0.10867443680763245
0.26736199855804443 0.34032925963401794 0.1080765500664711
0.30485674738883972 0.33906325697898865 0.1077105700969696
0.34638327360153198 0.33726584911346436 0.10722985118627548
0.38996261358261108 0.33551463484764099 0.10655990242958069
0.4304719865322113 0.33372929692268372 0.10593961924314499
0.47742053866386414 0.33114418387413025 0.10459337383508682
0.52088135480880737 0.3289344310760498 0.1033729761838913
0.5693475604057312 0.32633447647094727 0.10182052850723267
0.61605185270309448 0.32366150617599487 0.099859699606895447
0.66283917427062988 0.32072240114212036 0.097656413912773132
0.70340925455093384 0.31748276948928833 0.095371253788471222
0.74497765302658081 0.31425091624259949 0.092350147664546967
0.78085029125213623 0.31122785806655884 0.089075170457363129
0.81851494312286377 0.30775007605552673 0.085403129458427429
0.85414683818817139 0.30405539274215698 0.081093110144138336
0.88583266735076904 0.30039447546005249 0.076979950070381165
0.9187324047088623 0.2959839403629303 0.072006829082965851
0.949657142162323 0.29185569286346436 0.066304750740528107
0.98112750053405762 0.28701502084732056 0.059534762054681778
0.9990120530128479 0.28167107701301575 0.051987830549478531
1 0.27601143717765808 0.043473061174154282
1 0.26928812265396118 0.03388620913028717
1 0.26202392578125 0.025018446147441864
1 0.25442579388618469 0.022080998867750168
0.010949333198368549 0.38647335767745972 0.11781414598226547
0.017200110480189323 0.38622882962226868 0.11781414598226547
0.037759900093078613 0.38583186268806458 0.11781414598226547
0.072715342044830322 0.38524430990219116 0.11781414598226547
0.11158198118209839 0.38440877199172974 0.11782206594944
0.14786083996295929 0.38355550169944763 0.1178305521607399
0.18488617241382599 0.38276079297065735 0.11782785505056381
0.22229911386966705 0.38180026412010193 0.11754880100488663
0.26318714022636414 0.3806421160697937 0.11670155823230743
0.30253535509109497 0.37935596704483032 0.11628224700689316
0.34545928239822388 0.37795954942703247 0.11574564874172211
0.38992652297019958 0.37614694237709045 0.11511635780334473
0.43141847848892212 0.37454712390899658 0.11428868770599365
0.47914800047874451 0.37219730019569397 0.11331065744161606
0.52353334426879883 0.37017029523849487 0.11203322559595108
0.57276910543441772 0.36762440204620361 0.11058198660612106
0.62003910541534424 0.36500605940818787 0.10877189785242081
0.66668742895126343 0.36243084073066711 0.10670974850654602
0.70714265108108521 0.35958254337310791 0.10448402166366577
0.74873363971710205 0.35649481415748596 0.10165657103061676
0.78453958034515381 0.35381942987442017 0.098578713834285736
0.82222104072570801 0.35048836469650269 0.095137454569339752
0.85796821117401123 0.34714594483375549 0.090800680220127106
0.88975745439529419 0.34371200203895569 0.086994059383869171
0.92285072803497314 0.33952823281288147 0.082214459776878357
0.95383816957473755 0.33565962314605713 0.076789014041423798
0.98539048433303833 0.33113840222358704 0.070009209215641022
0.99964213371276855 0.32629853487014771 0.06274721771478653
1 0.32084822654724121 0.054153133183717728
1 0.31467035412788391 0.044086497277021408
1 0.3074975311756134 0.033097662031650543
1 0.3004801869392395 0.027631873264908791
0.01609485037624836 0.42211112380027771 0.12458179146051407
0.030606875196099281 0.42185965180397034 0.12452826648950577
0.053754013031721115 0.42156660556793213 0.12445734441280365
0.08082958310842514 0.42125257849693298 0.12445650994777679
0.1100764125585556 0.42087939381599426 0.12444829940795898
0.14021977782249451 0.42024374008178711 0.12445397675037384
0.17600037157535553 0.4192105233669281 0.12438111007213593
0.21512293815612793 0.41802740097045898 0.12415184825658798
0.2585812509059906 0.41699510812759399 0.12345042824745178
0.29954269528388977 0.41575869917869568 0.12312842160463333
0.3440684974193573 0.41407784819602966 0.12279048562049866
0.38982132077217102 0.41278618574142456 0.1218876913189888
0.4323270320892334 0.41134357452392578 0.12102442234754562
0.48054906725883484 0.40938317775726318 0.12012610584497452
0.52581614255905151 0.40732976794242859 0.11901894956827164
0.57580900192260742 0.40488019585609436 0.11764636635780334
0.6234620213508606 0.40247803926467896 0.1158917024731636
0.67025882005691528 0.39999637007713318 0.11400096863508224
0.71038883924484253 0.39768874645233154 0.11164872348308563
0.75201857089996338 0.39473181962966919 0.10869263857603073
0.78796607255935669 0.39205622673034668 0.10601942241191864
0.82553333044052124 0.3890841007232666 0.10275977849960327
0.86135423183441162 0.38614785671234131 0.098796747624874115
0.89336204528808594 0.38307410478591919 0.094961225986480713
