LUTs/Fuji Superia 400 2.cube
# Created by: G'MIC (https://gmic.eu)
TITLE "Fuji Superia 400 2"
# LUT size
LUT_3D_SIZE 32
# Data domain
DOMAIN_MIN 0.0 0.0 0.0
DOMAIN_MAX 1.0 1.0 1.0
# LUT data points
0.0039611472748219967 0.043624661862850189 0.039593875408172607
0.0096631357446312904 0.044647462666034698 0.039594464004039764
0.02045302651822567 0.04600292444229126 0.039770025759935379
0.038595050573348999 0.04814784973859787 0.039885833859443665
0.061593305319547653 0.05074290931224823 0.039684627205133438
0.08572009950876236 0.053549882024526596 0.039572738111019135
0.11345177888870239 0.056542251259088516 0.039126750081777573
0.14247643947601318 0.058214001357555389 0.03829624131321907
0.17604929208755493 0.059471908956766129 0.037335269153118134
0.21120502054691315 0.059586904942989349 0.036247964948415756
0.25299277901649475 0.057376004755496979 0.034552589058876038
0.29974612593650818 0.051907986402511597 0.032492388039827347
0.34546095132827759 0.042518511414527893 0.03003290668129921
0.39929449558258057 0.026381649076938629 0.027070987969636917
0.44958105683326721 0.0084260115399956703 0.02322988398373127
0.50454270839691162 0.00036681623896583915 0.018937274813652039
0.55685502290725708 0 0.013685738667845726
0.60983628034591675 0 0.0075623658485710621
0.66155046224594116 0 0.0022429930977523327
0.71356523036956787 0 0.00014641507004853338
0.75441634654998779 0 0
0.79453778266906738 0 0
0.83078575134277344 0 0
0.8630058765411377 0 0
0.89574897289276123 5.7718455082067521e-07 0
0.92537283897399902 0.00065786071354523301 0
0.95506823062896729 0.024541765451431274 0
0.98182004690170288 0.070997290313243866 0
0.99834150075912476 0.11122662574052811 0
0.99993103742599487 0.1458289623260498 0
0.99998176097869873 0.17852076888084412 0
0.99998986721038818 0.20790091156959534 0
0.0040307710878551006 0.049795128405094147 0.041424594819545746
0.0086524887010455132 0.051673594862222672 0.040790397673845291
0.020854363217949867 0.054523583501577377 0.03993992879986763
0.039796121418476105 0.057042285799980164 0.039470162242650986
0.063021622598171234 0.059655584394931793 0.039107169955968857
0.086737886071205139 0.06194000318646431 0.038494035601615906
0.11455461382865906 0.064631305634975433 0.038072045892477036
0.14367286860942841 0.066393576562404633 0.037427980452775955
0.17786325514316559 0.067919433116912842 0.036622583866119385
0.21312546730041504 0.067870333790779114 0.035381350666284561
0.25507184863090515 0.066385023295879364 0.03346996009349823
0.30206406116485596 0.062157202512025833 0.031422510743141174
0.34739789366722107 0.05429932102560997 0.0288521908223629
0.40078237652778625 0.040470998734235764 0.025658398866653442
0.45034351944923401 0.022743098437786102 0.022121170535683632
0.50417816638946533 0.0048409351147711277 0.01739930547773838
0.55609810352325439 0.00017270889657083899 0.012212770059704781
0.60994744300842285 0 0.0060677872970700264
0.66139662265777588 0 0.0012584143551066518
0.71266895532608032 0 5.5894372053444386e-05
0.75380402803421021 0 0
0.79377138614654541 0 0
0.82978302240371704 0 0
0.86243182420730591 1.1154879757668823e-06 0
0.8951345682144165 0.00049438007408753037 0
0.92436295747756958 0.009800557978451252 0
0.95393174886703491 0.049831535667181015 0
0.980995774269104 0.090518757700920105 0
0.99804413318634033 0.12486807256937027 0
0.99999791383743286 0.15645818412303925 0
0.9999803900718689 0.18720932304859161 0
0.9999890923500061 0.21510204672813416 0
0.0030880025587975979 0.061193414032459259 0.044221539050340652
0.0068733235821127892 0.063167236745357513 0.043840255588293076
0.016851240769028664 0.067834407091140747 0.041812334209680557
0.038105890154838562 0.072668842971324921 0.039239265024662018
0.064937122166156769 0.074223645031452179 0.03759746253490448
0.090710096061229706 0.075246147811412811 0.036923795938491821
0.11951630562543869 0.076990321278572083 0.036596283316612244
0.14884914457798004 0.078438028693199158 0.035819873213768005
0.18292765319347382 0.079641498625278473 0.034688301384449005
0.21797381341457367 0.079935550689697266 0.033645201474428177
0.25965702533721924 0.079125717282295227 0.031867660582065582
0.30600327253341675 0.075797110795974731 0.029428603127598763
0.35179999470710754 0.070196934044361115 0.027210881933569908
0.40443655848503113 0.060012143105268478 0.023988023400306702
0.45354762673377991 0.046599529683589935 0.020200410857796669
0.50729095935821533 0.026359479874372482 0.015247984789311886
0.55917119979858398 0.0084058120846748352 0.0095785874873399734
0.61467200517654419 0.00082694890443235636 0.0034694778732955456
0.66541808843612671 2.0210251022945158e-05 0.00056608271552249789
0.71538800001144409 0 1.1362162695149891e-05
0.75518733263015747 0 0
0.79492038488388062 6.9749803515151143e-06 0
0.83140170574188232 0.0005881877732463181 0
0.86351770162582397 0.0043373266234993935 0
0.8959689736366272 0.020319264382123947 0
0.92551028728485107 0.050088744610548019 0
0.95474231243133545 0.085869774222373962 0
0.9813997745513916 0.11634388566017151 0
0.99808573722839355 0.14511464536190033 0
0.99993586540222168 0.17311595380306244 0
0.99999356269836426 0.20098838210105896 0
0.99999642372131348 0.22723691165447235 0
0.00077627587597817183 0.077200353145599365 0.047896824777126312
0.0038879800122231245 0.078500300645828247 0.047879893332719803
0.011293895542621613 0.082432784140110016 0.045648090541362762
0.029900042340159416 0.088644184172153473 0.041854977607727051
0.062488503754138947 0.094982437789440155 0.037658218294382095
0.093803666532039642 0.096619792282581329 0.035696443170309067
0.12445436418056488 0.095348738133907318 0.034571029245853424
0.15415845811367035 0.094813823699951172 0.033593446016311646
0.18829329311847687 0.095214776694774628 0.032420407980680466
0.22420346736907959 0.095649950206279755 0.031105481088161469
0.26637217402458191 0.095221623778343201 0.02942519448697567
0.31277230381965637 0.093116603791713715 0.026896897703409195
0.35827091336250305 0.089098505675792694 0.024489354342222214
0.41107437014579773 0.08207741379737854 0.020686887204647064
0.46024811267852783 0.072767108678817749 0.0163713488727808
0.51375061273574829 0.059047266840934753 0.011097399517893791
0.56671249866485596 0.042854383587837219 0.0053071705624461174
0.62451142072677612 0.026493223384022713 0.0010165567509829998
0.67319542169570923 0.018162522464990616 5.6639000831637532e-05
0.72133374214172363 0.014969031326472759 8.4372494768558681e-08
0.7602771520614624 0.015755375847220421 0
0.79883718490600586 0.020449541509151459 0
0.83423203229904175 0.030729232355952263 0
0.86599612236022949 0.048310771584510803 0
0.8985176682472229 0.073491930961608887 0
0.92757606506347656 0.09768802672624588 0
0.95688831806182861 0.12300587445497513 0
0.98360240459442139 0.14696274697780609 0
0.99877595901489258 0.17146168649196625 0
0.99999392032623291 0.19507637619972229 0
0.99997442960739136 0.22037325799465179 0
1 0.24455311894416809 0
8.612067176727578e-06 0.093909651041030884 0.052508335560560226
0.0010948443086817861 0.09452451765537262 0.052776414901018143
0.0063740159384906292 0.097624354064464569 0.051537349820137024
0.019581237807869911 0.10330498963594437 0.047756433486938477
0.047727212309837341 0.11044972389936447 0.042300563305616379
0.087765716016292572 0.11909699440002441 0.036232069134712219
0.12650236487388611 0.12207488715648651 0.03240596130490303
0.15890005230903625 0.1195833832025528 0.030766697600483894
0.19341637194156647 0.11638408154249191 0.029634919017553329
0.22912625968456268 0.11506727337837219 0.028180152177810669
0.27208191156387329 0.11501932889223099 0.026268700137734413
0.31836441159248352 0.11358146369457245 0.023094791918992996
0.36385208368301392 0.1115434393286705 0.02036333829164505
0.41562375426292419 0.10715429484844208 0.01637982577085495
0.4636894166469574 0.10135956853628159 0.012219540774822235
0.51682895421981812 0.093786194920539856 0.0066504627466201782
0.57242989540100098 0.085604123771190643 0.0018170253606513143
0.628528892993927 0.078063398599624634 0.00011877186625497416
0.6753125786781311 0.073467850685119629 1.0431509167574404e-07
0.72203701734542847 0.072109617292881012 0
0.75954455137252808 0.074009411036968231 0
0.79756557941436768 0.080415450036525726 0
0.83306622505187988 0.090424090623855591 0
0.8645666241645813 0.10301877558231354 0
0.89693582057952881 0.1190611869096756 0
0.92581015825271606 0.13596229255199432 0
0.95524966716766357 0.15542522072792053 0
0.98157721757888794 0.17481078207492828 0
0.99820470809936523 0.19535298645496368 0
0.99999779462814331 0.21609996259212494 0
0.99999940395355225 0.23892129957675934 0
1 0.26139023900032043 0
0 0.11497319489717484 0.058555860072374344
0.00012377876555547118 0.11539126932621002 0.059088312089443207
0.0032448763959109783 0.11636920273303986 0.058842990547418594
0.013703873381018639 0.12141462415456772 0.055390305817127228
0.036539338529109955 0.12852036952972412 0.050202127546072006
0.073682196438312531 0.13749510049819946 0.043208487331867218
0.12218412011861801 0.14875331521034241 0.033665619790554047
0.16450183093547821 0.15261133015155792 0.027793090790510178
0.20272991061210632 0.14949437975883484 0.025121226906776428
0.23802357912063599 0.14485366642475128 0.023218577727675438
0.27841797471046448 0.14005668461322784 0.021500105038285255
0.3242262601852417 0.13742521405220032 0.018353573977947235
0.3697015643119812 0.13598214089870453 0.014787926338613033
0.42131581902503967 0.13351459801197052 0.01037044171243906
0.47041159868240356 0.1306365579366684 0.005780405830591917
0.52770340442657471 0.12769629061222076 0.0017779826885089278
0.58316588401794434 0.12477903813123703 0.00016948289703577757
0.63617569208145142 0.12223704159259796 3.9495271266787313e-06
0.68084704875946045 0.12147685885429382 0
0.72561824321746826 0.12252724915742874 0
0.76245474815368652 0.12556900084018707 0
0.79968738555908203 0.13046729564666748 0
0.83457493782043457 0.1378597766160965 0
0.86574047803878784 0.14725132286548615 0
0.89791417121887207 0.15961350500583649 0
0.92688894271850586 0.17332008481025696 0
0.9558531641960144 0.18926571309566498 0
0.9820559024810791 0.20556372404098511 0
0.9983484148979187 0.22331234812736511 0
0.99999481439590454 0.2416677325963974 0
1 0.26182401180267334 0
0.99997460842132568 0.28236415982246399 0
0 0.13769689202308655 0.065078526735305786
8.2263177318964154e-06 0.13845542073249817 0.065575256943702698
0.0010476254392415285 0.13822123408317566 0.066344916820526123
0.0089859310537576675 0.14179883897304535 0.064066916704177856
0.027333388105034828 0.14866039156913757 0.059088338166475296
0.059489104896783829 0.15733344852924347 0.052580483257770538
0.10310991853475571 0.16820995509624481 0.043235346674919128
0.15551485121250153 0.18214264512062073 0.030202751979231834
0.2092360258102417 0.19058667123317719 0.019141918048262596
0.24970734119415283 0.18720558285713196 0.015321061015129089
0.29264804720878601 0.18105973303318024 0.012364211492240429
0.33561164140701294 0.17311878502368927 0.010122775100171566
0.37663227319717407 0.16736350953578949 0.0076660783961415291
0.42976677417755127 0.16540096700191498 0.0031484153587371111
0.48371976613998413 0.16614381968975067 0.00055888370843604207
0.54120731353759766 0.1664000004529953 3.523045961628668e-05
0.59303992986679077 0.16594663262367249 1.3192790504490404e-07
0.6431623101234436 0.16596868634223938 0
0.68541592359542847 0.16689345240592957 0
0.728282630443573 0.16879566013813019 0
0.76381856203079224 0.17154744267463684 0
0.80020570755004883 0.17588566243648529 0
0.83476376533508301 0.18194006383419037 0
0.86569052934646606 0.18976609408855438 0
0.89768922328948975 0.19976913928985596 0
0.92624592781066895 0.21079732477664948 0
0.95522654056549072 0.22421145439147949 0
0.98136919736862183 0.23815129697322845 0
0.99825108051300049 0.25351515412330627 0
1 0.26950696110725403 0
1 0.28723368048667908 0
0.99999904632568359 0.30623435974121094 0
0 0.16148543357849121 0.072040356695652008
0 0.162307009100914 0.072784803807735443
0.00017996302631217986 0.16179700195789337 0.073021292686462402
0.0053200223483145237 0.16317763924598694 0.072338007390499115
0.020720504224300385 0.16958649456501007 0.068270355463027954
0.048920284956693649 0.17848204076290131 0.062086652964353561
0.088665731251239777 0.18969890475273132 0.053278848528862
0.13531199097633362 0.20283690094947815 0.040786474943161011
0.19727449119091034 0.22137220203876495 0.021293645724654198
0.255706787109375 0.23270821571350098 0.0067880786955356598
0.30649766325950623 0.23094514012336731 0.0027526784688234329
0.354684978723526 0.2243589460849762 0.001414734055288136
0.39905700087547302 0.21745401620864868 0.00078961387043818831
0.44760656356811523 0.2093563973903656 0.0002303329820279032
0.49405968189239502 0.20465543866157532 4.8362694542447571e-06
0.5475122332572937 0.20385740697383881 0
0.5979267954826355 0.20447947084903717 0
0.6459273099899292 0.20575940608978271 0
0.68639534711837769 0.20681504905223846 0
0.72794103622436523 0.20905227959156036 0
0.76271885633468628 0.21156612038612366 0
0.79883033037185669 0.21523377299308777 0
0.8330916166305542 0.22038531303405762 0
0.86389100551605225 0.22693963348865509 0
0.89558261632919312 0.23560804128646851 0
0.92421644926071167 0.24489662051200867 0
0.95311260223388672 0.25653162598609924 0
0.97904253005981445 0.26813134551048279 0
0.99749678373336792 0.28137698769569397 0
0.99998539686203003 0.29568096995353699 0
1 0.31149443984031677 0
0.99997496604919434 0.3282315731048584 0
0 0.19261515140533447 0.080370381474494934
0 0.19382770359516144 0.081279344856739044
1.7664718825471937e-06 0.19297611713409424 0.081617280840873718
0.0023780351039022207 0.19277770817279816 0.081939846277236938
0.014807350933551788 0.19702564179897308 0.079203523695468903
0.039763841778039932 0.20594823360443115 0.073123149573802948
0.076801508665084839 0.21720246970653534 0.064742594957351685
0.11930885910987854 0.23039157688617706 0.052609622478485107
0.17383931577205658 0.24757096171379089 0.034267563372850418
0.2410377562046051 0.26984983682632446 0.010849674232304096
0.32118865847587585 0.29271703958511353 0.00016605934069957584
0.37876850366592407 0.29183673858642578 5.5989248721743934e-06
0.42588678002357483 0.28533050417900085 1.1045126058206733e-07
0.47503787279129028 0.27588436007499695 0
0.51639425754547119 0.26511436700820923 0
0.55866175889968872 0.25306794047355652 0
0.60240328311920166 0.24774631857872009 0
0.64940798282623291 0.248613640666008 0
0.68985235691070557 0.25018808245658875 0
0.73071044683456421 0.25250610709190369 0
0.76490920782089233 0.25489768385887146 0
0.80033087730407715 0.25796347856521606 0
0.8339608907699585 0.26212766766548157 0
0.86442071199417114 0.26752084493637085 0
0.89591425657272339 0.27497026324272156 0
0.92428231239318848 0.28306242823600769 0
0.95291316509246826 0.29283741116523743 0
0.97893089056015015 0.30330416560173035 0
0.99757933616638184 0.31493848562240601 0
0.99993604421615601 0.3273455798625946 0
0.99999147653579712 0.34091794490814209 0
0.99999874830245972 0.35663110017776489 0
0 0.22202111780643463 0.08794962614774704
0 0.2243351936340332 0.089068509638309479
0 0.22376678884029388 0.089614555239677429
0.00045432336628437042 0.22307898104190826 0.090088270604610443
0.0078775361180305481 0.2249365895986557 0.089198037981987
0.02966700866818428 0.23381872475147247 0.083888448774814606
0.065265104174613953 0.24702872335910797 0.075768977403640747
0.10750944912433624 0.26246276497840881 0.06428615003824234
0.16085855662822723 0.28220662474632263 0.04590967670083046
0.22253435850143433 0.30326923727989197 0.019764009863138199
0.30552724003791809 0.33133283257484436 0.00084887625416740775
0.39269909262657166 0.3559383749961853 3.0431627351390489e-07
0.44874364137649536 0.35619598627090454 0
0.49792477488517761 0.34607896208763123 0
0.53923505544662476 0.33458727598190308 0
0.57953649759292603 0.31960189342498779 0
0.614463210105896 0.30387324094772339 0
0.6510583758354187 0.29234713315963745 0
0.68743056058883667 0.28913688659667969 0
0.72777104377746582 0.29026627540588379 0
0.76213067770004272 0.29218468070030212 0
0.79764449596405029 0.29467520117759705 0
0.83144432306289673 0.29864305257797241 0
0.86192655563354492 0.30328717827796936 0
0.89329785108566284 0.30966031551361084 0
0.92142975330352783 0.31614631414413452 0
0.95017170906066895 0.32477986812591553 0
0.97618931531906128 0.33381974697113037 0
0.99641573429107666 0.34377458691596985 0
0.99996572732925415 0.35447782278060913 0
0.99999773502349854 0.36704471707344055 0
1 0.38124626874923706 0
0 0.26345741748809814 0.097696118056774139
0 0.26611721515655518 0.09901745617389679
0 0.26605591177940369 0.099501192569732666
4.177466962573817e-06 0.26616367697715759 0.10049456357955933
0.0016963665839284658 0.26661533117294312 0.10150541365146637
0.017621448263525963 0.27371397614479065 0.098023988306522369
0.053237881511449814 0.28743144869804382 0.089860670268535614
0.096353061497211456 0.30301520228385925 0.078456103801727295
0.14843994379043579 0.32198959589004517 0.061304721981287003
0.20602290332317352 0.3415774405002594 0.034927286207675934
0.27873191237449646 0.36505460739135742 0.0050519551150500774
0.36719879508018494 0.39342817664146423 4.3415489926701412e-05
0.45495507121086121 0.42140531539916992 0
0.51656711101531982 0.42149403691291809 0
0.55754935741424561 0.40960383415222168 0
0.59763330221176147 0.3943621814250946 0
0.63334310054779053 0.37853878736495972 0
0.66606837511062622 0.36109820008277893 0
0.69319421052932739 0.34504580497741699 0
0.72502785921096802 0.33360123634338379 0
0.75780254602432251 0.33236825466156006 0
0.79387098550796509 0.33394753932952881 0
0.82822531461715698 0.33731424808502197 0
0.85909956693649292 0.34116858243942261 0
0.88994067907333374 0.34627547860145569 0
0.91838669776916504 0.35216709971427917 0
0.94707250595092773 0.35919782519340515 0
0.97299826145172119 0.366646409034729 0
0.99476867914199829 0.3754003643989563 0
0.99993294477462769 0.38485908508300781 0
0.99995476007461548 0.39583835005760193 0
0.99995768070220947 0.40801206231117249 0
0 0.31023699045181274 0.10898873955011368
0 0.31582063436508179 0.11112901568412781
0 0.31571224331855774 0.11147832870483398
0 0.31491321325302124 0.11234817653894424
5.9205503930570558e-05 0.31381779909133911 0.1133221834897995
0.0065364036709070206 0.31601813435554504 0.11239472776651382
0.037388529628515244 0.32689794898033142 0.10508911311626434
0.083096727728843689 0.34096625447273254 0.094497807323932648
0.13504678010940552 0.35858055949211121 0.079259388148784637
0.19007711112499237 0.37724900245666504 0.056532539427280426
0.25716358423233032 0.39924132823944092 0.021302331238985062
0.33491083979606628 0.42297855019569397 0.0012446593027561903
0.41472893953323364 0.44684913754463196 3.0546678431164764e-07
0.51100730895996094 0.47692948579788208 0
0.57279795408248901 0.48346367478370667 0
0.61428040266036987 0.46948772668838501 0
0.64918172359466553 0.45345839858055115 0
0.68251651525497437 0.43610662221908569 0
0.71036583185195923 0.41984930634498596 0
0.73800206184387207 0.40131345391273499 0
0.76173096895217896 0.3857215940952301 0
0.79129898548126221 0.37607434391975403 0
0.8247830867767334 0.3763982355594635 0
0.85630309581756592 0.37975502014160156 0
0.88818037509918213 0.38438540697097778 0
0.91660875082015991 0.38912162184715271 0
0.94502228498458862 0.39497193694114685 0
0.97097408771514893 0.40130770206451416 0
0.99377971887588501 0.40888482332229614 0
0.999988853931427 0.41713619232177734 0
0.9999929666519165 0.42683508992195129 0
0.99999457597732544 0.43791481852531433 0
0 0.35229730606079102 0.11944974958896637
0 0.3585781455039978 0.12208934128284454
0 0.3581138551235199 0.12266432493925095
0 0.35710936784744263 0.12335031479597092
0 0.3559526801109314 0.12410395592451096
0.0017780339112505317 0.35518375039100647 0.12484309077262878
0.025011554360389709 0.36239323019981384 0.12066081911325455
0.072941437363624573 0.37622064352035522 0.11103381216526031
0.12629073858261108 0.39335757493972778 0.097269929945468903
0.17983770370483398 0.41109615564346313 0.078385911881923676
0.24390420317649841 0.43175294995307922 0.047439523041248322
0.31600260734558105 0.45379197597503662 0.010165238752961159
0.38767337799072266 0.47416183352470398 0.00022784483735449612
0.47457039356231689 0.49839702248573303 2.1796229532355937e-07
0.5619397759437561 0.526161789894104 0
0.62509447336196899 0.53123807907104492 0
0.66161227226257324 0.517292320728302 0
0.69415110349655151 0.49988368153572083 0
0.72138053178787231 0.48324987292289734 0
0.74961572885513306 0.46510046720504761 0
0.77288299798965454 0.44816407561302185 0
0.79728621244430542 0.43004879355430603 0
0.82315999269485474 0.41658365726470947 0
0.85123848915100098 0.41329237818717957 0
0.88285583257675171 0.41599372029304504 0
0.91201114654541016 0.42001062631607056 0
0.94110053777694702 0.42521128058433533 0
0.96707379817962646 0.4306027889251709 0
0.99152302742004395 0.43708112835884094 0
0.99997568130493164 0.44458505511283875 0
0.99994194507598877 0.45333293080329895 0
0.99994724988937378 0.46348610520362854 0
0 0.39705005288124084 0.13299009203910828
0 0.40294039249420166 0.1357516348361969
0 0.40299579501152039 0.13658902049064636
0 0.40230786800384521 0.13741007447242737
0 0.40111511945724487 0.13803869485855103
0.00033861197880469263 0.40006867051124573 0.13920082151889801
0.016851995140314102 0.40199390053749084 0.13869141042232513
0.066208727657794952 0.41293150186538696 0.13089212775230408
0.11939845234155655 0.4279060959815979 0.11899883300065994
0.17101800441741943 0.44401901960372925 0.10371460020542145
0.23091858625411987 0.46289744973182678 0.080940380692481995
0.29736813902854919 0.48290848731994629 0.043845750391483307
0.36333855986595154 0.50178539752960205 0.0097528230398893356
0.44104579091072083 0.52234220504760742 0.00031380556174553931
0.51631206274032593 0.54193997383117676 0
0.60464668273925781 0.5681380033493042 0
0.66980165243148804 0.5787813663482666 0
0.70577394962310791 0.56532192230224609 0
0.73295301198959351 0.54935389757156372 0
0.76079732179641724 0.53168267011642456 0
0.7846340537071228 0.51553761959075928 0
0.80993342399597168 0.4980202317237854 0
0.83393198251724243 0.48093262314796448 0
0.85545724630355835 0.46622094511985779 0
0.88054788112640381 0.45603039860725403 0
0.90727365016937256 0.45475012063980103 0
0.93675380945205688 0.45865675806999207 0
0.96357673406600952 0.46321669220924377 0
0.98936480283737183 0.4690805971622467 0
0.99990910291671753 0.47593319416046143 0
0.9999963641166687 0.48375421762466431 0
0.99999594688415527 0.4923727810382843 0
0 0.43520310521125793 0.14687024056911469
0 0.44223731756210327 0.15045437216758728
0 0.44219523668289185 0.15134446322917938
0 0.44149917364120483 0.15216206014156342
0 0.44009268283843994 0.1526067703962326
1.0218468560196925e-05 0.43877443671226501 0.15370285511016846
0.01276511512696743 0.43750172853469849 0.15458045899868011
0.06608254462480545 0.44414600729942322 0.15050674974918365
0.11795885860919952 0.45806190371513367 0.14042915403842926
0.16716335713863373 0.47295543551445007 0.12802062928676605
0.22419235110282898 0.49093902111053467 0.11043696105480194
0.28648710250854492 0.50939136743545532 0.084736354649066925
0.34753620624542236 0.52662527561187744 0.049623217433691025
0.41933426260948181 0.54554468393325806 0.010754536837339401
0.48760643601417542 0.56284528970718384 0.00061938061844557524
0.56480234861373901 0.58181846141815186 6.5896879277715925e-06
0.646930992603302 0.60621374845504761 0
0.71252942085266113 0.61825501918792725 0
0.74250274896621704 0.60542947053909302 0
0.76964014768600464 0.58803009986877441 0
0.79358553886413574 0.57248246669769287 0
0.81866598129272461 0.55532687902450562 0
0.84314680099487305 0.53887581825256348 0
0.8656238317489624 0.52446258068084717 0
0.88779741525650024 0.50952070951461792 0
0.90810590982437134 0.49653074145317078 0
0.93286794424057007 0.49045035243034363 0
0.95943814516067505 0.4927133321762085 0
0.98667252063751221 0.49825519323348999 0
