LUTs/Fuji Provia 400X.cube
# Created by: G'MIC (https://gmic.eu)
TITLE "Fuji Provia 400X"
# LUT size
LUT_3D_SIZE 5
# Data domain
# LUT data points
DOMAIN_MIN 0.000000 0.000000 0.000000
DOMAIN_MAX 0.903226 0.903226 0.903226
0.014811976812779903 0.014081714674830437 0.010314651764929295
0.24493813514709473 0.0084699131548404694 0.01010105200111866
0.50734823942184448 0.0031606943812221289 0.0083104223012924194
0.7909245491027832 0.00032235743128694594 0.0020591560751199722
0.9948575496673584 0 0
0.086351022124290466 0.23958328366279602 0.078084103763103485
0.23693521320819855 0.23252421617507935 0.077064208686351776
0.51337271928787231 0.21765026450157166 0.072410985827445984
0.80883723497390747 0.19323290884494781 0.054028552025556564
0.99998849630355835 0.15765821933746338 0.015674760565161705
0.011279413476586342 0.49494239687919617 0.13440167903900146
0.19720113277435303 0.49177286028862 0.13377410173416138
0.53114020824432373 0.48337042331695557 0.1290304958820343
0.83257192373275757 0.46946662664413452 0.11349711567163467
1 0.4485090970993042 0.077096082270145416
0 0.70323950052261353 0.12366215139627457
0.12863118946552277 0.70089751482009888 0.12274959683418274
0.56161504983901978 0.69499045610427856 0.11880472302436829
0.8582003116607666 0.68728488683700562 0.10764040797948837
1 0.67761701345443726 0.077819928526878357
0 0.88950395584106445 0.0076921815052628517
0.076525449752807617 0.8875504732131958 0.009263322688639164
0.58842724561691284 0.88267630338668823 0.011268402449786663
0.90283381938934326 0.87713605165481567 0.010264488868415356
1 0.87003952264785767 0.010048855096101761
0.0010660655098035932 0.0018698348430916667 0.15280556678771973
0.20240195095539093 0.00035502717946656048 0.15069580078125
0.46352061629295349 0 0.1456831693649292
0.73513352870941162 0 0.12710212171077728
0.95738857984542847 0 0.085920087993144989
0.069619722664356232 0.2108263224363327 0.20400086045265198
0.20393732190132141 0.20338727533817291 0.20337726175785065
0.4783112108707428 0.18834348022937775 0.19928601384162903
0.75683724880218506 0.16352440416812897 0.18161399662494659
0.97672790288925171 0.12571088969707489 0.13904912769794464
0.0053090010769665241 0.48237770795822144 0.25331202149391174
0.14371265470981598 0.47909018397331238 0.25312808156013489
0.49605557322502136 0.46994766592979431 0.24964495003223419
0.78363990783691406 0.4551558792591095 0.23357406258583069
0.9976697564125061 0.43280979990959167 0.19273312389850616
0 0.6974794864654541 0.27215036749839783
0.039292450994253159 0.69537580013275146 0.27139252424240112
0.51583218574523926 0.68920385837554932 0.26657098531723022
0.80450326204299927 0.68160659074783325 0.24970158934593201
0.99999892711639404 0.67156827449798584 0.20302760601043701
0 0.88584089279174805 0.21820798516273499
0.0062103131785988808 0.88425374031066895 0.21655428409576416
0.52629727125167847 0.87960296869277954 0.20959874987602234
0.83882445096969604 0.87400233745574951 0.18433408439159393
1 0.86800891160964966 0.10123691707849503
0 0 0.30291873216629028
0.16028591990470886 0 0.30482691526412964
0.41751489043235779 0 0.30421739816665649
0.66902607679367065 0 0.29360693693161011
0.88203227519989014 0 0.26384502649307251
0.043677162379026413 0.16370633244514465 0.36499452590942383
0.16440576314926147 0.15584911406040192 0.36647722125053406
0.4274560809135437 0.13823398947715759 0.36620607972145081
0.67895328998565674 0.11019072681665421 0.35562300682067871
0.88540822267532349 0.067663304507732391 0.32616269588470459
0 0.4527536928653717 0.43673422932624817
0.10693938285112381 0.44906681776046753 0.43782588839530945
0.43906423449516296 0.43854856491088867 0.43897745013237
0.69971382617950439 0.4219394326210022 0.43222710490226746
0.91560822725296021 0.39547157287597656 0.40925478935241699
0 0.68295186758041382 0.48866945505142212
0.0036829151213169098 0.68062973022460938 0.48973023891448975
0.42952615022659302 0.67454850673675537 0.49012893438339233
0.70074218511581421 0.66681867837905884 0.48497387766838074
0.93433034420013428 0.65573960542678833 0.46470910310745239
0 0.87721085548400879 0.49956223368644714
0 0.87555110454559326 0.49980923533439636
0.38141301274299622 0.87131422758102417 0.49945002794265747
0.7004052996635437 0.86608684062957764 0.49193742871284485
0.96930718421936035 0.85955566167831421 0.46422487497329712
0 0 0.4556327760219574
0.14678239822387695 0 0.46073874831199646
0.38417384028434753 0 0.46489626169204712
0.60386562347412109 0 0.46460273861885071
0.79888641834259033 0 0.45536619424819946
0.031972147524356842 0.074126817286014557 0.50754833221435547
0.16687741875648499 0.063988536596298218 0.51004081964492798
0.3929678201675415 0.044509198516607285 0.51205259561538696
0.60527986288070679 0.020098106935620308 0.50945198535919189
0.79098045825958252 0.0018692759331315756 0.49768534302711487
0.0050438526086509228 0.39207136631011963 0.58048754930496216
0.16147105395793915 0.38759809732437134 0.58199870586395264
0.4244091808795929 0.37522575259208679 0.58462321758270264
0.64244681596755981 0.35445773601531982 0.58341628313064575
0.83691507577896118 0.3206619918346405 0.574909508228302
0 0.65911960601806641 0.63863414525985718
0.04204995185136795 0.65671336650848389 0.64050418138504028
0.40834864974021912 0.65104532241821289 0.64245790243148804
0.64320486783981323 0.64299565553665161 0.642741858959198
0.85947883129119873 0.63046330213546753 0.63794910907745361
0 0.86477267742156982 0.6752045750617981
0 0.86343026161193848 0.67613470554351807
0.32506480813026428 0.85970348119735718 0.67808026075363159
0.61931902170181274 0.8550795316696167 0.67879867553710938
0.87456130981445312 0.84753680229187012 0.67350029945373535
0.0049498453736305237 0 0.57195985317230225
0.19104574620723724 0 0.57722651958465576
0.38710400462150574 0 0.58232057094573975
0.57407510280609131 0 0.58484381437301636
0.75377124547958374 0 0.58358335494995117
0.087264493107795715 1.8032516891253181e-05 0.60320359468460083
0.20569045841693878 0 0.60606116056442261
0.38318714499473572 0 0.61006051301956177
0.56296592950820923 0 0.61304730176925659
0.74036800861358643 0 0.61274796724319458
0.18370167911052704 0.27071774005889893 0.6801457405090332
0.2802768349647522 0.26402181386947632 0.68141472339630127
0.44403603672981262 0.24756349623203278 0.68403416872024536
0.61193108558654785 0.21957147121429443 0.68417048454284668
0.78270798921585083 0.17522287368774414 0.67959970235824585
0.072007089853286743 0.61471223831176758 0.75680327415466309
0.23293650150299072 0.61209672689437866 0.75834321975708008
0.43889057636260986 0.60606324672698975 0.7619815468788147
0.62389987707138062 0.59622800350189209 0.7641560435295105
0.81897544860839844 0.57998758554458618 0.76415622234344482
0 0.84181028604507446 0.81464403867721558
0.031028918921947479 0.84069913625717163 0.81597834825515747
0.36076867580413818 0.83744579553604126 0.81909102201461792
0.59158152341842651 0.83253049850463867 0.82270067930221558
0.8244972825050354 0.82414001226425171 0.82429236173629761
