LUTs/Fuji Superia Reala 100.cube
# Created by: G'MIC (https://gmic.eu)
TITLE "Fuji Superia Reala 100"
# LUT size
LUT_3D_SIZE 32
# Data domain
DOMAIN_MIN 0.0 0.0 0.0
DOMAIN_MAX 1.0 1.0 1.0
# LUT data points
0.020154943689703941 0.020162537693977356 0.017008708789944649
0.055468861013650894 0.016877342015504837 0.014821269549429417
0.0937785804271698 0.014802205376327038 0.012879561632871628
0.12957049906253815 0.012633422389626503 0.011350482702255249
0.16478225588798523 0.011303664185106754 0.0098814070224761963
0.19571851193904877 0.0091913836076855659 0.0089169256389141083
0.2279897928237915 0.0074096866883337498 0.0078156040981411934
0.26067569851875305 0.0063635064288973808 0.006561164278537035
0.29379838705062866 0.0057652164250612259 0.0055176564492285252
0.32606112957000732 0.0044613154605031013 0.0046122712083160877
0.36129871010780334 0.0028405175544321537 0.0037151668220758438
0.39780902862548828 0.0015730093000456691 0.0031777063850313425
0.4302380383014679 0.00092937360750511289 0.0030584598425775766
0.46538561582565308 0.00046465228660963476 0.00277169537730515
0.49828094244003296 9.4665934739168733e-05 0.0025593203026801348
0.53437864780426025 0 0.0025709273759275675
0.56949067115783691 0 0.0028957775793969631
0.60585027933120728 0 0.0033005210570991039
0.63778150081634521 0 0.0040632695890963078
0.67250877618789673 0 0.0056707998737692833
0.70255666971206665 0 0.0074029592797160149
0.73404854536056519 0 0.010779004544019699
0.76388537883758545 0 0.015264942310750484
0.79094237089157104 0 0.019770760089159012
0.81846749782562256 0 0.026892077177762985
0.84420466423034668 0 0.035132437944412231
0.87027722597122192 0 0.045680638402700424
0.89485055208206177 0 0.056833762675523758
0.91983836889266968 0 0.070778608322143555
0.94416451454162598 0 0.08586110919713974
0.96909826993942261 0 0.10244268923997879
0.98942339420318604 0 0.11699118465185165
0.031734190881252289 0.059019200503826141 0.025730937719345093
0.060539301484823227 0.055077798664569855 0.023168599233031273
0.09664878249168396 0.051002185791730881 0.02084997296333313
0.13252490758895874 0.047176428139209747 0.018757659941911697
0.16746446490287781 0.043190509080886841 0.016606137156486511
0.19809165596961975 0.039716437458992004 0.015016813762485981
0.23086889088153839 0.036168016493320465 0.013271394185721874
0.26343628764152527 0.032809913158416748 0.011734693311154842
0.29655054211616516 0.028958769515156746 0.010105583816766739
0.32870525121688843 0.025463636964559555 0.0088012460619211197
0.36414909362792969 0.021509351208806038 0.0075891027227044106
0.4005468487739563 0.016780706122517586 0.0063240812160074711
0.43293610215187073 0.013219106942415237 0.0057867756113409996
0.46814191341400146 0.0097563574090600014 0.0053094970062375069
0.50070470571517944 0.0063171298243105412 0.0046856272965669632
0.53654664754867554 0.0035637393593788147 0.0040496028959751129
0.57129311561584473 0.0017429523868486285 0.0034849136136472225
0.60707056522369385 0.00074927060632035136 0.003445648355409503
0.63892537355422974 0.00029949881718493998 0.0034602577798068523
0.67302215099334717 1.8191534763900563e-05 0.0047895037569105625
0.70295780897140503 0 0.0058775576762855053
0.7344246506690979 0 0.0091038774698972702
0.76425272226333618 0 0.012746888212859631
0.79112714529037476 0 0.017225660383701324
0.81899130344390869 0 0.023978205397725105
0.84477388858795166 0 0.032097887247800827
0.87050092220306396 0 0.042727477848529816
0.89521229267120361 0 0.053932998329401016
0.92009341716766357 0 0.067795038223266602
0.94441014528274536 0 0.083385556936264038
0.96930801868438721 0 0.099555321037769318
0.98950082063674927 0 0.1147046685218811
0.050182107836008072 0.10006729513406754 0.036052398383617401
0.072517454624176025 0.096761278808116913 0.033641349524259567
0.10076717287302017 0.093238502740859985 0.030816102400422096
0.13442325592041016 0.089643016457557678 0.028129199519753456
0.16928800940513611 0.085533618927001953 0.025724342092871666
0.19957681000232697 0.081982329487800598 0.023738885298371315
0.23274189233779907 0.07766309380531311 0.021557789295911789
0.26560112833976746 0.073438316583633423 0.019358275458216667
0.29873576760292053 0.068907864391803741 0.017103066667914391
0.33118891716003418 0.064143292605876923 0.015305629000067711
0.36700072884559631 0.058505948632955551 0.013537146151065826
0.40348935127258301 0.052192632108926773 0.012045733630657196
0.43598896265029907 0.046123437583446503 0.011032171547412872
0.47133541107177734 0.039773471653461456 0.010102421976625919
0.50394624471664429 0.033257484436035156 0.0092102540656924248
0.53990095853805542 0.026088083162903786 0.0083731450140476227
0.5745694637298584 0.019564740359783173 0.0080344881862401962
0.61035889387130737 0.013359256088733673 0.0075070583261549473
0.64210659265518188 0.0086734844371676445 0.0074524134397506714
0.67561447620391846 0.0043287975713610649 0.0080189108848571777
0.70483744144439697 0.0014809753047302365 0.0083444789052009583
0.7358095645904541 0.00032320371246896684 0.0097821718081831932
0.76468354463577271 4.1529394366079941e-05 0.01251944899559021
0.79143041372299194 0 0.016344122588634491
0.81937289237976074 0 0.022999241948127747
0.84491819143295288 0 0.030912600457668304
0.87065732479095459 0 0.041998740285634995
0.89526987075805664 0 0.053453728556632996
0.92017006874084473 0 0.067319720983505249
0.94452738761901855 0 0.082289315760135651
0.96929222345352173 0 0.099319793283939362
0.98951447010040283 0 0.11455774307250977
0.06993769109249115 0.13775521516799927 0.048367444425821304
0.088618658483028412 0.13515248894691467 0.04610145092010498
0.11089861392974854 0.13183380663394928 0.043281745165586472
0.1379399299621582 0.12862202525138855 0.040283706039190292
0.1703246682882309 0.12496735900640488 0.037613179534673691
0.20059145987033844 0.12171272188425064 0.035215858370065689
0.23483504354953766 0.11746275424957275 0.032625392079353333
0.26714047789573669 0.11321792006492615 0.030207304283976555
0.3009011447429657 0.10873328149318695 0.027333004400134087
0.33319365978240967 0.1041383370757103 0.024969497695565224
0.36923456192016602 0.098158113658428192 0.02286173589527607
0.40585577487945557 0.092213615775108337 0.020370567217469215
0.43858256936073303 0.086211986839771271 0.018849454820156097
0.47399181127548218 0.079096972942352295 0.017486564815044403
0.50664705038070679 0.071912400424480438 0.016364825889468193
0.54255348443984985 0.063290059566497803 0.014908924698829651
0.57747954130172729 0.05413561686873436 0.014112223871052265
0.61333876848220825 0.0443284772336483 0.013519475236535072
0.64538329839706421 0.035534903407096863 0.013383110053837299
0.67894583940505981 0.025135280564427376 0.013876081444323063
0.70807307958602905 0.01660129614174366 0.014832238666713238
0.73882371187210083 0.0097521413117647171 0.016337381675839424
0.76724046468734741 0.0053997966460883617 0.018885714933276176
0.79320859909057617 0.0017623630119487643 0.021163627505302429
0.81994587182998657 0.00022599265503231436 0.025619400665163994
0.84496819972991943 0 0.032108943909406662
0.87088191509246826 0 0.042673572897911072
0.89516299962997437 0 0.05409592017531395
0.92019778490066528 0 0.068151503801345825
0.9443395733833313 0 0.082971550524234772
0.96910518407821655 0 0.10000528395175934
0.98961919546127319 0 0.11483777314424515
0.090792551636695862 0.172533318400383 0.062583193182945251
0.10646183788776398 0.17022429406642914 0.060277853161096573
0.12528510391712189 0.16772189736366272 0.05770111083984375
0.14687240123748779 0.16451361775398254 0.054617766290903091
0.17230509221553802 0.1613362729549408 0.051556307822465897
0.20184393227100372 0.15839101374149323 0.048955280333757401
0.236673504114151 0.15448518097400665 0.04636991024017334
0.26836118102073669 0.15037375688552856 0.043575100600719452
0.30233874917030334 0.14609068632125854 0.040849607437849045
0.33526787161827087 0.14154177904129028 0.038265414535999298
0.37162631750106812 0.13552126288414001 0.035752508789300919
0.4083479642868042 0.12992872297763824 0.032425493001937866
0.44101214408874512 0.12405098229646683 0.030013833194971085
0.47670766711235046 0.11735342442989349 0.028458734974265099
0.50938475131988525 0.11012886464595795 0.02698102593421936
0.5453953742980957 0.102277472615242 0.025349197909235954
0.58048206567764282 0.092593245208263397 0.024033060297369957
0.61615592241287231 0.082700975239276886 0.023470953106880188
0.64805728197097778 0.072326205670833588 0.02337639220058918
0.68187010288238525 0.060003116726875305 0.023783482611179352
0.71097391843795776 0.047346416860818863 0.025086138397455215
0.74182033538818359 0.035418488085269928 0.026616664603352547
0.77025836706161499 0.024190519005060196 0.029920820146799088
0.7959434986114502 0.013848880305886269 0.033127684146165848
0.82251578569412231 0.0053863860666751862 0.036984171718358994
0.84666687250137329 0.0011764769442379475 0.040988046675920486
0.87155407667160034 0.00010502111399546266 0.046997293829917908
0.89509314298629761 0 0.056813601404428482
0.92033064365386963 0 0.070365078747272491
0.94440561532974243 0 0.085208840668201447
0.96940356492996216 0 0.1017797514796257
0.98969739675521851 0 0.11619386821985245
0.10218074917793274 0.20337776839733124 0.075407437980175018
0.11677102744579315 0.2026408463716507 0.07382453978061676
0.13497588038444519 0.19976945221424103 0.071413837373256683
0.15513245761394501 0.19767707586288452 0.068902023136615753
0.17657309770584106 0.19496698677539825 0.066242143511772156
0.20394293963909149 0.19195128977298737 0.063445255160331726
0.23869508504867554 0.18826924264431 0.060528542846441269
0.2698952853679657 0.18458375334739685 0.058092985302209854
0.3040204644203186 0.18028396368026733 0.055461745709180832
0.33695438504219055 0.17567236721515656 0.052785187959671021
0.37352943420410156 0.17020143568515778 0.050201535224914551
0.41035491228103638 0.1645471602678299 0.046944562345743179
0.44321140646934509 0.15897195041179657 0.044018641114234924
0.47891753911972046 0.15274342894554138 0.04224884882569313
0.51161450147628784 0.14626863598823547 0.040715914219617844
0.54759937524795532 0.13810825347900391 0.038909327238798141
0.58298927545547485 0.12913674116134644 0.037449739873409271
0.61893206834793091 0.1189236119389534 0.037213053554296494
0.65082406997680664 0.10917457193136215 0.037265468388795853
0.68456363677978516 0.097174994647502899 0.037374034523963928
0.71379989385604858 0.084688246250152588 0.038555353879928589
0.74452358484268188 0.071412459015846252 0.040407687425613403
0.77323257923126221 0.057398859411478043 0.043565955013036728
0.79896944761276245 0.042777519673109055 0.047283794730901718
0.8254665732383728 0.027198471128940582 0.051217678934335709
0.84963428974151611 0.015098985284566879 0.056059636175632477
0.8742673397064209 0.0064814863726496696 0.060815025120973587
0.89694619178771973 0.001955332001671195 0.066284388303756714
0.920937180519104 0.00026183505542576313 0.07501385360956192
0.94491207599639893 0 0.087681524455547333
0.96960157155990601 0 0.10408317297697067
0.98992937803268433 0 0.11850551515817642
0.10120835900306702 0.23854337632656097 0.087608329951763153
0.1149328202009201 0.23735412955284119 0.086211875081062317
0.13306362926959991 0.23521669209003448 0.084349028766155243
0.1526513397693634 0.23352557420730591 0.082273237407207489
0.17536821961402893 0.23099681735038757 0.079766660928726196
0.20565378665924072 0.22828292846679688 0.076994433999061584
0.24004586040973663 0.22481884062290192 0.074230268597602844
0.27132371068000793 0.22154355049133301 0.071899987757205963
0.30565398931503296 0.21760793030261993 0.069608435034751892
0.33895629644393921 0.21332955360412598 0.067323245108127594
0.37565937638282776 0.20816972851753235 0.064964301884174347
0.41268333792686462 0.20281742513179779 0.062104791402816772
0.44579508900642395 0.19733904302120209 0.059368196874856949
0.48164919018745422 0.19168747961521149 0.057435713708400726
0.51417237520217896 0.18560031056404114 0.056029576808214188
0.55038255453109741 0.17786228656768799 0.05515545979142189
0.58607149124145508 0.16918042302131653 0.052761118859052658
0.62208336591720581 0.15968017280101776 0.052424293011426926
0.65402203798294067 0.14983655512332916 0.053105410188436508
0.68774080276489258 0.13868013024330139 0.053419120609760284
0.716957688331604 0.1267232745885849 0.055292360484600067
0.7477339506149292 0.11341594904661179 0.057233113795518875
0.77662330865859985 0.099448390305042267 0.060237035155296326
0.80241978168487549 0.083818495273590088 0.063909657299518585
0.82909488677978516 0.065974049270153046 0.067435711622238159
0.85333251953125 0.04880039393901825 0.07206745445728302
0.87802398204803467 0.03079533763229847 0.077178940176963806
0.90066850185394287 0.01631133072078228 0.082377016544342041
0.9239957332611084 0.0054577919654548168 0.087474040687084198
0.94641315937042236 0.00056851725094020367 0.093783996999263763
0.97003328800201416 0 0.10577633231878281
0.99024885892868042 0 0.1203174814581871
0.10976913571357727 0.2694639265537262 0.099114611744880676
0.11812228709459305 0.26870259642601013 0.0978664830327034
0.13021263480186462 0.26787534356117249 0.096779599785804749
0.1480565071105957 0.26544862985610962 0.095076292753219604
0.17547895014286041 0.26382714509963989 0.092843152582645416
0.20833286643028259 0.26070573925971985 0.090295903384685516
0.24145253002643585 0.2577815055847168 0.087691143155097961
0.27325311303138733 0.25521349906921387 0.085652515292167664
0.30772668123245239 0.25132322311401367 0.083242364227771759
0.34128659963607788 0.24718664586544037 0.080870211124420166
0.37814602255821228 0.24248141050338745 0.077983319759368896
0.41512072086334229 0.23763087391853333 0.075426444411277771
0.44818723201751709 0.23288390040397644 0.072775252163410187
0.48416665196418762 0.2271839827299118 0.071094654500484467
0.5169188380241394 0.22139638662338257 0.069761328399181366
0.55312353372573853 0.21424078941345215 0.068772129714488983
0.58875387907028198 0.20597979426383972 0.067646689713001251
0.62497931718826294 0.19658423960208893 0.067650467157363892
0.65712982416152954 0.18760548532009125 0.068507939577102661
0.690715491771698 0.17685866355895996 0.069549873471260071
0.71995264291763306 0.16553208231925964 0.071427732706069946
0.75084829330444336 0.15281355381011963 0.073657110333442688
0.77987313270568848 0.13919901847839355 0.076415084302425385
0.80570352077484131 0.12424932420253754 0.07991325855255127
0.8325391411781311 0.10693081468343735 0.08341604471206665
0.85682392120361328 0.090197153389453888 0.087580300867557526
0.88173013925552368 0.070220060646533966 0.092403098940849304
0.90461933612823486 0.049523994326591492 0.097498379647731781
0.92775863409042358 0.028630420565605164 0.10287343710660934
0.95011693239212036 0.011528202332556248 0.10832506418228149
0.97274166345596313 0.0021888643968850374 0.11409170180559158
0.99133974313735962 0.00016423562192358077 0.12305203825235367
0.10338218510150909 0.30449172854423523 0.10870678722858429
0.11146508157253265 0.30309632420539856 0.10768467932939529
0.1239921823143959 0.30097925662994385 0.10696230083703995
0.14663848280906677 0.30045560002326965 0.10553605854511261
0.17942710220813751 0.29765221476554871 0.10398732125759125
0.21102172136306763 0.29626676440238953 0.1022329106926918
0.24323724210262299 0.29296383261680603 0.10017786920070648
0.27587181329727173 0.29087835550308228 0.098310694098472595
0.31003895401954651 0.28778854012489319 0.096345938742160797
0.34397038817405701 0.28388425707817078 0.094085358083248138
0.38083520531654358 0.27956178784370422 0.0912666916847229
0.41771149635314941 0.27505782246589661 0.089174404740333557
0.45084428787231445 0.27072009444236755 0.087423987686634064
0.48688182234764099 0.26536110043525696 0.08577631413936615
0.51991605758666992 0.26011607050895691 0.084268964827060699
0.55639034509658813 0.25314095616340637 0.082842059433460236
0.59196370840072632 0.24562875926494598 0.082406409084796906
0.62814068794250488 0.23666951060295105 0.08228563517332077
0.66061341762542725 0.22811450064182281 0.082622677087783813
0.69406569004058838 0.2182701975107193 0.084537386894226074
0.72328740358352661 0.20783427357673645 0.086960397660732269
0.75430244207382202 0.19564564526081085 0.08979005366563797
0.78345781564712524 0.18258644640445709 0.093283176422119141
0.809548020362854 0.16916678845882416 0.096731901168823242
0.83637124300003052 0.15280130505561829 0.10070904344320297
0.86086475849151611 0.1365215927362442 0.10449479520320892
0.88591939210891724 0.11695800721645355 0.10892842710018158
0.90897804498672485 0.096013963222503662 0.11397771537303925
0.93233799934387207 0.071429632604122162 0.11955145746469498
0.95488721132278442 0.045151196420192719 0.12499566376209259
0.97727411985397339 0.02024327777326107 0.13008719682693481
0.99422174692153931 0.0057324259541928768 0.13456904888153076
0.082952208817005157 0.33578866720199585 0.11759631335735321
0.096803508698940277 0.33458429574966431 0.1168610081076622
0.12029570341110229 0.33441254496574402 0.11594668030738831
0.1508609801530838 0.33297401666641235 0.11481676995754242
0.18317048251628876 0.33062043786048889 0.11343499273061752
0.21279299259185791 0.32981663942337036 0.1119951605796814
0.24589748680591583 0.32669401168823242 0.11027161777019501
0.27809393405914307 0.32503688335418701 0.10819473117589951
0.312967449426651 0.32234376668930054 0.10616301745176315
0.346628338098526 0.31878086924552917 0.1040351390838623
0.38351356983184814 0.31495130062103271 0.10153501480817795
0.42024633288383484 0.31101536750793457 0.09934253990650177
0.4534696638584137 0.30681797862052917 0.097983524203300476
0.48985135555267334 0.30159127712249756 0.096703991293907166
0.52307546138763428 0.29686233401298523 0.095815978944301605
0.55980426073074341 0.29053869843482971 0.094937652349472046
0.59542232751846313 0.28371182084083557 0.095170579850673676
0.63154512643814087 0.27558454871177673 0.095751941204071045
0.66397660970687866 0.26705154776573181 0.096434861421585083
0.69744926691055298 0.25777903199195862 0.098206795752048492
0.7265784740447998 0.24858835339546204 0.10047018527984619
0.75756537914276123 0.23702031373977661 0.10323160886764526
0.78692084550857544 0.22473667562007904 0.10710005462169647
0.81311702728271484 0.21222344040870667 0.11112838238477707
0.84002012014389038 0.1969032883644104 0.11616916209459305
0.86472910642623901 0.18159292638301849 0.12041833996772766
0.88992965221405029 0.16293074190616608 0.12531636655330658
0.91328138113021851 0.14282326400279999 0.12979990243911743
0.93680906295776367 0.1192384734749794 0.13553893566131592
0.95955049991607666 0.092543333768844604 0.14087150990962982
0.9820435643196106 0.062262479215860367 0.14633095264434814
0.99711936712265015 0.034255057573318481 0.15080255270004272
0.092229418456554413 0.37067699432373047 0.12495018541812897
0.10992711037397385 0.37045559287071228 0.12446682155132294
0.13276796042919159 0.36887261271476746 0.12378770858049393
0.15822687745094299 0.3672059178352356 0.12280642986297607
0.18582653999328613 0.36682781577110291 0.12147105485200882
0.21589586138725281 0.36484435200691223 0.12035868316888809
0.24914020299911499 0.36305442452430725 0.11877353489398956
0.28107884526252747 0.36108496785163879 0.11677202582359314
0.31656929850578308 0.35883301496505737 0.11465765535831451
0.35022091865539551 0.35565957427024841 0.11311625689268112
0.38673639297485352 0.35215383768081665 0.11135639995336533
0.42331436276435852 0.34873461723327637 0.10954394936561584
0.45661616325378418 0.34501880407333374 0.10850740224123001
0.49341979622840881 0.34042122960090637 0.10716705769300461
0.52675414085388184 0.33565008640289307 0.1066308319568634
0.56352382898330688 0.32999938726425171 0.10641762614250183
0.59926420450210571 0.32394617795944214 0.10648090392351151
0.63552969694137573 0.31680759787559509 0.10683751851320267
0.66762048006057739 0.30940809845924377 0.10843779146671295
0.70128035545349121 0.30056363344192505 0.11091261357069016
0.73029816150665283 0.29207873344421387 0.11355973780155182
0.76112514734268188 0.28174760937690735 0.11730005592107773
0.7907179594039917 0.2705361545085907 0.12115303426980972
0.81688636541366577 0.25893914699554443 0.12531328201293945
0.84387856721878052 0.24481098353862762 0.13055454194545746
0.86881250143051147 0.23048108816146851 0.13544785976409912
0.89418983459472656 0.21322418749332428 0.14159712195396423
0.91782283782958984 0.19425229728221893 0.14731971919536591
0.94164645671844482 0.17240232229232788 0.15313856303691864
0.96456557512283325 0.1471761167049408 0.15839019417762756
0.98706537485122681 0.11685042083263397 0.16404728591442108
0.99886459112167358 0.08592861145734787 0.16863894462585449
0.11437713354825974 0.40440329909324646 0.13025018572807312
0.12773196399211884 0.40390241146087646 0.1297956258058548
0.14490988850593567 0.4035610556602478 0.12960481643676758
0.16618187725543976 0.40291431546211243 0.12907423079013824
0.19160129129886627 0.40107506513595581 0.12779723107814789
0.22026504576206207 0.39981231093406677 0.12615662813186646
0.25286069512367249 0.39859423041343689 0.12521323561668396
0.28573590517044067 0.39620167016983032 0.1237003281712532
0.32097616791725159 0.39420923590660095 0.12143077701330185
0.35477432608604431 0.39163720607757568 0.12014312297105789
0.39101776480674744 0.38843739032745361 0.11861637234687805
0.42745649814605713 0.38545310497283936 0.1169736459851265
0.4604647159576416 0.382528156042099 0.11611675471067429
0.49711725115776062 0.37801611423492432 0.11501113325357437
0.53074288368225098 0.37385872006416321 0.11452297866344452
0.56783163547515869 0.36903011798858643 0.1147627979516983
0.60372495651245117 0.36312660574913025 0.11526529490947723
0.63980239629745483 0.35698696970939636 0.11654296517372131
0.67157822847366333 0.35045412182807922 0.11894960701465607
0.70501989126205444 0.34250375628471375 0.12163359671831131
0.73416167497634888 0.33488106727600098 0.12452127784490585
0.76484382152557373 0.32596540451049805 0.12867295742034912
0.79441612958908081 0.31577956676483154 0.13299673795700073
0.820670485496521 0.30513378977775574 0.13807488977909088
0.84785348176956177 0.29251778125762939 0.14397001266479492
0.8728715181350708 0.27953174710273743 0.14969572424888611
0.89847999811172485 0.26346144080162048 0.15597438812255859
0.92224425077438354 0.24613650143146515 0.16246460378170013
0.94639110565185547 0.22615097463130951 0.16935813426971436
0.96959990262985229 0.20302066206932068 0.17580246925354004
0.99131923913955688 0.17424437403678894 0.18226560950279236
0.99956619739532471 0.14528673887252808 0.18740707635879517
0.12777771055698395 0.43514510989189148 0.13336905837059021
0.13646706938743591 0.43467792868614197 0.1328003853559494
0.14973063766956329 0.43396848440170288 0.1321294754743576
0.16948926448822021 0.43307855725288391 0.1313319206237793
0.19593055546283722 0.43267011642456055 0.13039146363735199
0.22469049692153931 0.43128931522369385 0.12947067618370056
0.25788915157318115 0.42931166291236877 0.12811534106731415
0.29068085551261902 0.42811685800552368 0.12689904868602753
0.32597687840461731 0.42544052004814148 0.12525518238544464
0.35934314131736755 0.42368009686470032 0.12400510162115097
0.39547958970069885 0.42106735706329346 0.12283774465322495
0.43188008666038513 0.41811954975128174 0.1215280219912529
0.46498081088066101 0.41525447368621826 0.12026866525411606
0.50141334533691406 0.41136181354522705 0.11969290673732758
0.53512322902679443 0.40791395306587219 0.11980525404214859
0.57225501537322998 0.40313959121704102 0.1208638921380043
0.60818886756896973 0.39809626340866089 0.12155544757843018
0.64400678873062134 0.39247232675552368 0.12346771359443665
0.67548757791519165 0.3868752121925354 0.12574753165245056
0.70888662338256836 0.37975400686264038 0.12865063548088074
0.73781657218933105 0.37280899286270142 0.13210658729076385
0.76843607425689697 0.3649539053440094 0.13691957294940948
0.7978891134262085 0.35572430491447449 0.1420121043920517
