LUTs/Fuji Provia 400F.cube
# Created by: G'MIC (https://gmic.eu)
TITLE "Fuji Provia 400F"
# LUT size
LUT_3D_SIZE 5
# Data domain
# LUT data points
DOMAIN_MIN 0.000000 0.000000 0.000000
DOMAIN_MAX 0.903226 0.903226 0.903226
0.0035128695890307426 0.0037637327332049608 0.0030508190393447876
0.12438841909170151 0.0022788390051573515 0
0.37649902701377869 0.016093447804450989 0
0.61915373802185059 0.049377512186765671 0
0.81325811147689819 0.078830145299434662 0
0.098611526191234589 0.18467353284358978 0.10279932618141174
0.20176756381988525 0.17255581915378571 0.066001072525978088
0.42603063583374023 0.14541515707969666 0.0056793908588588238
0.63204783201217651 0.099190562963485718 0
0.79783862829208374 0.063014380633831024 0
0.17281645536422729 0.46365758776664734 0.26220354437828064
0.30653148889541626 0.46389380097389221 0.2419237345457077
0.50762772560119629 0.45659750699996948 0.1960175633430481
0.70308947563171387 0.40766391158103943 0.13782306015491486
0.83679461479187012 0.24370315670967102 0.045699983835220337
0.36185985803604126 0.70199793577194214 0.43279978632926941
0.43323484063148499 0.70387363433837891 0.42319631576538086
0.58819210529327393 0.70608413219451904 0.39818596839904785
0.75798147916793823 0.69693142175674438 0.36519351601600647
0.91134762763977051 0.65129560232162476 0.32442480325698853
0.53020715713500977 0.89129388332366943 0.58906656503677368
0.57614493370056152 0.89413309097290039 0.58273810148239136
0.679432213306427 0.89895504713058472 0.56782227754592896
0.81114214658737183 0.90141338109970093 0.54782205820083618
0.95613092184066772 0.89254117012023926 0.52397698163986206
0.00035889295395463705 0.0043768296018242836 0.076918751001358032
0.11530584841966629 0.0026007811538875103 0.043005626648664474
0.35894009470939636 0.0057373666204512119 0.0035255895927548409
0.59112036228179932 0.02236328087747097 0
0.77618145942687988 0.046482250094413757 0
0.079475760459899902 0.19431349635124207 0.216915562748909
0.18547137081623077 0.18354612588882446 0.18380589783191681
0.4065229594707489 0.1511843204498291 0.11631067097187042
0.60420233011245728 0.087560020387172699 0.037497233599424362
0.76243835687637329 0.032874356955289841 0.0033555340487509966
0.14188937842845917 0.45951852202415466 0.37088114023208618
0.28278213739395142 0.45983535051345825 0.3515218198299408
0.4840647280216217 0.45288082957267761 0.31061649322509766
0.67943400144577026 0.4089910089969635 0.25031211972236633
0.81558054685592651 0.25199565291404724 0.15514427423477173
0.3388139009475708 0.69284749031066895 0.51568543910980225
0.41179102659225464 0.69500553607940674 0.50603193044662476
0.56923073530197144 0.69830143451690674 0.47962555289268494
0.73920851945877075 0.69071447849273682 0.44423979520797729
0.89447122812271118 0.64862227439880371 0.39934098720550537
0.51626020669937134 0.88408750295639038 0.6464502215385437
0.56213724613189697 0.88668352365493774 0.64027601480484009
0.66470742225646973 0.89168733358383179 0.62571871280670166
0.79605525732040405 0.89471733570098877 0.60560673475265503
0.94181007146835327 0.88639837503433228 0.58043885231018066
0 0.0016169835580512881 0.23775763809680939
0.084892697632312775 0.00070934253744781017 0.20335173606872559
0.32392874360084534 0.00066561909625306726 0.14599668979644775
0.54813504219055176 0.0022862385958433151 0.098806001245975494
0.73346328735351562 0.013154306448996067 0.074695557355880737
0.048887133598327637 0.20536330342292786 0.38282179832458496
0.16203776001930237 0.19734425842761993 0.35004681348800659
0.38018140196800232 0.16778859496116638 0.28489810228347778
0.57186615467071533 0.08284122496843338 0.19677908718585968
0.72298896312713623 0.0082824937999248505 0.12285065650939941
0.11032141745090485 0.45870679616928101 0.51440823078155518
0.25246831774711609 0.4597562849521637 0.49508139491081238
0.4551885724067688 0.45507863163948059 0.45491591095924377
0.65158390998840332 0.41882210969924927 0.3957371711730957
0.79351752996444702 0.28007897734642029 0.30148991942405701
0.30856031179428101 0.68323910236358643 0.63687843084335327
0.3835960328578949 0.68609726428985596 0.62678319215774536
0.54225713014602661 0.6900978684425354 0.60111194849014282
0.71011590957641602 0.6839146614074707 0.56638127565383911
0.86674278974533081 0.6467134952545166 0.52043777704238892
0.49397328495979309 0.87269812822341919 0.74671280384063721
0.53904247283935547 0.8752632737159729 0.74074393510818481
0.64017570018768311 0.88067841529846191 0.72555607557296753
0.77136111259460449 0.88470858335494995 0.70335924625396729
0.91866171360015869 0.87827050685882568 0.67406368255615234
0 0.004302335437387228 0.40844768285751343
0.06747833639383316 0.0017346693202853203 0.36546778678894043
0.29856348037719727 0.00071103236405178905 0.30619528889656067
0.50846916437149048 0 0.2438197135925293
0.69202208518981934 8.4466030614294141e-08 0.21414799988269806
0.037908583879470825 0.24225996434688568 0.54780071973800659
0.14269791543483734 0.23768025636672974 0.51572650671005249
0.36365750432014465 0.21191920340061188 0.45478704571723938
0.55312800407409668 0.12121684849262238 0.36446866393089294
0.69095748662948608 0.0062714391387999058 0.26913362741470337
0.08752884715795517 0.47126981616020203 0.65590393543243408
0.22979737818241119 0.4746500551700592 0.63802868127822876
0.43218141794204712 0.47086170315742493 0.60015672445297241
0.62722522020339966 0.44139853119850159 0.54314517974853516
0.77635687589645386 0.33260801434516907 0.45786508917808533
0.28788831830024719 0.68065780401229858 0.75529110431671143
0.36407193541526794 0.68410688638687134 0.74566954374313354
0.52123886346817017 0.68849879503250122 0.7199251651763916
0.68514680862426758 0.68523913621902466 0.68525981903076172
0.84268587827682495 0.65404456853866577 0.63790136575698853
0.48002141714096069 0.8657030463218689 0.84558588266372681
0.52295953035354614 0.86839812994003296 0.83970087766647339
0.62035197019577026 0.87400555610656738 0.82500660419464111
0.74945038557052612 0.87839215993881226 0.80260348320007324
0.8967321515083313 0.87392950057983398 0.7714536190032959
0 0.052668053656816483 0.58018732070922852
0.07966005802154541 0.040241770446300507 0.5262715220451355
0.29667878150939941 0.01877952367067337 0.46005618572235107
0.49016806483268738 0.00039817244396544993 0.3847956657409668
0.65757143497467041 0 0.3328058123588562
0.030562974512577057 0.29825422167778015 0.69101744890213013
0.13022254407405853 0.30004134774208069 0.66219288110733032
0.36141282320022583 0.28644466400146484 0.60977447032928467
0.5543096661567688 0.21438023447990417 0.52819329500198364
0.67964845895767212 0.033864960074424744 0.40909990668296814
0.061582397669553757 0.50220930576324463 0.77808272838592529
0.22475698590278625 0.50534981489181519 0.76279199123382568
0.42368102073669434 0.50530296564102173 0.72788828611373901
0.61330568790435791 0.48400437831878662 0.67651700973510742
0.76713788509368896 0.40323510766029358 0.6024513840675354
0.28850471973419189 0.69055283069610596 0.86394482851028442
0.36208039522171021 0.6934470534324646 0.85479170083999634
0.51082742214202881 0.69895672798156738 0.83116734027862549
0.6675269603729248 0.69741839170455933 0.79886031150817871
0.82302838563919067 0.67345339059829712 0.7537846565246582
0.47696214914321899 0.86460655927658081 0.94589745998382568
0.51609033346176147 0.8669782280921936 0.94053012132644653
0.60746031999588013 0.87248778343200684 0.92706716060638428
0.73122125864028931 0.87841784954071045 0.90601241588592529
0.87575685977935791 0.87560397386550903 0.8755948543548584
