LUTs/Fuji Superia 400 3 +.cube
# Created by: G'MIC (https://gmic.eu)
TITLE "Fuji Superia 400 3 +"
# LUT size
LUT_3D_SIZE 32
# Data domain
DOMAIN_MIN 0.0 0.0 0.0
DOMAIN_MAX 1.0 1.0 1.0
# LUT data points
0.012427635490894318 0.057298999279737473 0.051106467843055725
0.017639679834246635 0.057972721755504608 0.051317580044269562
0.028309512883424759 0.059530965983867645 0.051500625908374786
0.047062359750270844 0.060841262340545654 0.051470257341861725
0.069622613489627838 0.062824122607707977 0.051306277513504028
0.093031026422977448 0.0650743767619133 0.051228862255811691
0.11983882635831833 0.067243784666061401 0.050984185189008713
0.14680302143096924 0.06866668164730072 0.050415866076946259
0.17849457263946533 0.069499984383583069 0.049607686698436737
0.21231432259082794 0.069525018334388733 0.048940569162368774
0.25251927971839905 0.068133920431137085 0.047791782766580582
0.29825320839881897 0.064313851296901703 0.045741338282823563
0.34323975443840027 0.057178828865289688 0.04370831698179245
0.39685767889022827 0.044045161455869675 0.040917973965406418
0.44755861163139343 0.026444880291819572 0.037290457636117935
0.50334018468856812 0.0064183371141552925 0.032257016748189926
0.55624067783355713 0.0001202494531753473 0.027004854753613472
0.61006766557693481 0 0.020225157961249352
0.66240835189819336 0 0.012313566170632839
0.71499741077423096 0 0.0039612781256437302
0.75632190704345703 0 0.00051368499407544732
0.79667317867279053 0 7.9490400821669027e-06
0.83325004577636719 0 0
0.86509335041046143 2.8901415589643875e-06 0
0.89799869060516357 0.0013702497817575932 0
0.92747640609741211 0.020283088088035583 0
0.95718950033187866 0.064259231090545654 0
0.98396605253219604 0.10094445943832397 0
0.99885904788970947 0.13315895199775696 0
0.99993103742599487 0.16300903260707855 0
0.99998176097869873 0.19239644706249237 0
0.99998986721038818 0.21908389031887054 0
0.011801431886851788 0.062700137495994568 0.052757810801267624
0.016299618408083916 0.064318835735321045 0.052381113171577454
0.028666339814662933 0.066935986280441284 0.051454480737447739
0.048507347702980042 0.068779587745666504 0.051069203764200211
0.07149621844291687 0.07068808376789093 0.050907235592603683
0.094140268862247467 0.072348758578300476 0.050439205020666122
0.12042997777462006 0.074269071221351624 0.050092078745365143
0.14789445698261261 0.075727447867393494 0.049521405249834061
0.18030817806720734 0.076957836747169495 0.048856303095817566
0.21408045291900635 0.077062815427780151 0.047942083328962326
0.2546040415763855 0.075947262346744537 0.046653814613819122
0.30033999681472778 0.073093622922897339 0.045094501227140427
0.3451630175113678 0.067090652883052826 0.042682401835918427
0.39836496114730835 0.056319039314985275 0.039441067725419998
0.44802442193031311 0.041935335844755173 0.035536844283342361
0.50293993949890137 0.021032053977251053 0.031015381217002869
0.55554115772247314 0.004325775895267725 0.025419512763619423
0.61022281646728516 0.00018275341426488012 0.01842200942337513
0.66251379251480103 0 0.010065531358122826
0.71429884433746338 0 0.0026327967643737793
0.75562971830368042 0 0.00023544629220850766
0.79581969976425171 0 1.6107476241700169e-08
0.83215296268463135 3.7983096262905747e-05 0
0.86463421583175659 0.0013169577578082681 0
0.89721524715423584 0.014685334637761116 0
0.92661315202713013 0.047921478748321533 0
0.95616042613983154 0.085047356784343719 0
0.98304831981658936 0.11596788465976715 0
0.99863898754119873 0.14471499621868134 0
0.99999791383743286 0.17238481342792511 0
0.9999803900718689 0.20028881728649139 0
0.9999890923500061 0.22579143941402435 0
0.010165812447667122 0.072811596095561981 0.055425152182579041
0.013970383442938328 0.074628010392189026 0.054973237216472626
0.02457546629011631 0.078702107071876526 0.05311192199587822
0.047345925122499466 0.082961529493331909 0.050924740731716156
0.073325842618942261 0.08390440046787262 0.04973313957452774
0.097814053297042847 0.084147371351718903 0.049219105392694473
0.12499470263719559 0.085374988615512848 0.049105692654848099
0.15276753902435303 0.086578190326690674 0.048325054347515106
0.18489077687263489 0.087601155042648315 0.047399479895830154
0.21852794289588928 0.088052034378051758 0.046756640076637268
0.25896814465522766 0.087625287473201752 0.04529310017824173
0.30446407198905945 0.085064448416233063 0.043108075857162476
0.3492010235786438 0.080866709351539612 0.040881864726543427
0.40217146277427673 0.073282048106193542 0.037504736334085464
0.4514574408531189 0.062887020409107208 0.033724900335073471
0.50602734088897705 0.046867191791534424 0.028617860749363899
0.55862534046173096 0.027713313698768616 0.022708164528012276
0.61502385139465332 0.010311025194823742 0.014850623905658722
0.6664893627166748 0.0034549061674624681 0.006914548110216856
0.71679228544235229 0.001936105196364224 0.0012117956066504121
0.75704145431518555 0.0023831576108932495 4.8515405069338158e-05
0.79709911346435547 0.0049017700366675854 0
0.83356291055679321 0.012863983400166035 0
0.86548119783401489 0.028890987858176231 0
0.89807653427124023 0.056509166955947876 0
0.9274107813835144 0.084624722599983215 0
0.9569435715675354 0.11212591081857681 0
0.98334777355194092 0.13723631203174591 0
0.99859476089477539 0.16259531676769257 0
0.99993586540222168 0.18756717443466187 0
0.99999356269836426 0.21308538317680359 0
0.99999642372131348 0.23711641132831573 0
0.0065723937004804611 0.087381936609745026 0.058839283883571625
0.011296964250504971 0.088324762880802155 0.058743998408317566
0.019249439239501953 0.091985836625099182 0.056901685893535614
0.039505094289779663 0.097544409334659576 0.053595442324876785
0.071228787302970886 0.1031063050031662 0.049809791147708893
0.1006690040230751 0.1038946732878685 0.048197377473115921
0.12929417192935944 0.10252682119607925 0.047321949154138565
0.15764018893241882 0.1016889363527298 0.046477943658828735
0.19017915427684784 0.10198834538459778 0.045417755842208862
0.22433151304721832 0.10257998108863831 0.044614527374505997
0.26521944999694824 0.10261064022779465 0.043015528470277786
0.31088212132453918 0.10098929703235626 0.040874365717172623
0.3559969961643219 0.098112873733043671 0.038253691047430038
0.4086456298828125 0.092697180807590485 0.034510750323534012
0.45807123184204102 0.085622169077396393 0.030239861458539963
0.51243650913238525 0.07505536824464798 0.024546273052692413
0.56621086597442627 0.063203632831573486 0.0177774578332901
0.6249697208404541 0.050330612808465958 0.0090928021818399429
0.67438220977783203 0.042095612734556198 0.0026158471591770649
0.72289371490478516 0.038806606084108353 0.00013351382222026587
0.76213198900222778 0.042098712176084518 2.0364451813748019e-07
0.80088335275650024 0.050603125244379044 0
0.83628153800964355 0.064514167606830597 0
0.86819672584533691 0.08129621297121048 0
0.90059953927993774 0.1013423278927803 0
0.92948561906814575 0.1210065484046936 0
0.95897597074508667 0.1428208202123642 0
0.98525649309158325 0.16414369642734528 0
0.99910300970077515 0.1863367110490799 0
0.99999392032623291 0.20796953141689301 0
0.99997442960739136 0.23099598288536072 0
1 0.25371429324150085 0
0.0036589780356734991 0.10250906646251678 0.062867648899555206
0.0084115061908960342 0.10314896702766418 0.063215672969818115
0.01549047976732254 0.10575920343399048 0.062211189419031143
0.029762823134660721 0.11100915819406509 0.058963712304830551
0.057636123150587082 0.11761628836393356 0.054134026169776917
0.094991125166416168 0.12498077750205994 0.048989977687597275
0.13112436234951019 0.12739084661006927 0.04589906707406044
0.16162958741188049 0.12506158649921417 0.044191423803567886
0.1944250762462616 0.12183821201324463 0.043005209416151047
0.22900794446468353 0.12095150351524353 0.042259145528078079
0.27054491639137268 0.12108667194843292 0.039972260594367981
0.31651020050048828 0.12030661851167679 0.037346452474594116
0.36142235994338989 0.11898741126060486 0.034633278846740723
0.41352477669715881 0.11571105569601059 0.030493272468447685
0.4614788293838501 0.1114182248711586 0.025605088099837303
0.51553988456726074 0.1055944561958313 0.01956644095480442
0.5719495415687561 0.10003766417503357 0.011676820926368237
0.62934523820877075 0.095236539840698242 0.003527545602992177
0.67623317241668701 0.092981398105621338 0.00040144228842109442
0.72343522310256958 0.093658022582530975 2.4221649255196098e-06
0.76134777069091797 0.097033992409706116 0
0.79977113008499146 0.10337679088115692 0
0.83503192663192749 0.11269884556531906 0
0.86706244945526123 0.12415554374456406 0
0.89892899990081787 0.13873952627182007 0
0.92811590433120728 0.15395046770572662 0
0.95735496282577515 0.17161485552787781 0
0.98369318246841431 0.18949298560619354 0
0.9987872838973999 0.20840549468994141 0
0.99999779462814331 0.22761064767837524 0
0.99999940395355225 0.24873676896095276 0
1 0.26945129036903381 0
0.0013818142469972372 0.12168294191360474 0.068702399730682373
0.0058190915733575821 0.1218184158205986 0.069091632962226868
0.01373408455401659 0.12294381856918335 0.068798258900642395
0.025400912389159203 0.12758046388626099 0.065967239439487457
0.048012759536504745 0.1340196430683136 0.06139862909913063
0.081983976066112518 0.14242227375507355 0.055426504462957382
0.12690404057502747 0.15271611511707306 0.047187715768814087
0.16690067946910858 0.15636707842350006 0.042047742754220963
0.20342724025249481 0.15338915586471558 0.039332311600446701
0.23754473030567169 0.14909055829048157 0.037662096321582794
0.27689909934997559 0.14485904574394226 0.035735420882701874
0.32200345396995544 0.14272919297218323 0.032590456306934357
0.36713412404060364 0.1422751396894455 0.02917998842895031
0.41907727718353271 0.14082919061183929 0.024049390107393265
0.46831440925598145 0.13909713923931122 0.018638567999005318
0.52648341655731201 0.13738560676574707 0.010840152390301228
0.58296561241149902 0.13618814945220947 0.0040392507798969746
0.63676518201828003 0.13507723808288574 0.00055274012265726924
0.68183052539825439 0.13564515113830566 2.9545712095568888e-05
0.7270888090133667 0.13790117204189301 0
0.76428306102752686 0.1414942741394043 0
0.8018379807472229 0.14695620536804199 0
0.83654630184173584 0.15439966320991516 0
0.86796778440475464 0.16342228651046753 0
0.89976489543914795 0.17516344785690308 0
0.92873966693878174 0.18791823089122772 0
0.95766043663024902 0.20277614891529083 0
0.98376321792602539 0.21798624098300934 0
0.99882382154464722 0.2347937673330307 0
0.99999481439590454 0.25168099999427795 0
1 0.27045392990112305 0
0.99997460842132568 0.28952392935752869 0
0.00016266388411168009 0.1425309032201767 0.074846193194389343
0.0027878689579665661 0.14308410882949829 0.07549179345369339
0.011339573189616203 0.14308108389377594 0.07579127699136734
0.022410066798329353 0.14638394117355347 0.07387833297252655
0.040888987481594086 0.15280744433403015 0.069594241678714752
0.069524586200714111 0.16082510352134705 0.064037144184112549
0.10900906473398209 0.1709773987531662 0.055990532040596008
0.1583419144153595 0.18428988754749298 0.044706791639328003
0.2096126526594162 0.19276930391788483 0.034433688968420029
0.24873159825801849 0.19004017114639282 0.030504528433084488
0.29088705778121948 0.18447551131248474 0.027368612587451935
0.33311772346496582 0.1774841845035553 0.02450273185968399
0.37393400073051453 0.17232786118984222 0.02165369875729084
0.42750874161720276 0.17162759602069855 0.015052810311317444
0.48168590664863586 0.17323382198810577 0.0076251048594713211
0.53999114036560059 0.17468103766441345 0.0019364829640835524
0.59299331903457642 0.17529712617397308 0.00017696488066576421
0.6436963677406311 0.17639480531215668 1.7445836419938132e-06
0.68644469976425171 0.17828507721424103 0
0.72977054119110107 0.18084070086479187 0
0.76564484834671021 0.18420550227165222 0
0.80226367712020874 0.18900975584983826 0
0.83661264181137085 0.19509129226207733 0
0.86803847551345825 0.20274539291858673 0
0.89963918924331665 0.21263004839420319 0
0.92826288938522339 0.223179891705513 0
0.9569212794303894 0.23566892743110657 0
0.98311561346054077 0.24878181517124176 0
0.99877989292144775 0.26326557993888855 0
1 0.27826201915740967 0
1 0.2946927547454834 0
0.99999904632568359 0.31234320998191833 0
7.9703240771777928e-06 0.16478787362575531 0.081391565501689911
0.00075421598739922047 0.16573937237262726 0.081898108124732971
0.0072777182795107365 0.16510158777236938 0.082363173365592957
0.019676864147186279 0.16644634306430817 0.081738293170928955
0.035917133092880249 0.17254416644573212 0.078043393790721893
0.061037924140691757 0.18084800243377686 0.072799928486347198
0.096103906631469727 0.19176103174686432 0.06495317816734314
0.13951250910758972 0.2044052928686142 0.054387401789426804
0.19801896810531616 0.22214053571224213 0.03684220090508461
0.25472787022590637 0.23388801515102386 0.020936461165547371
0.30440661311149597 0.23296032845973969 0.013728838413953781
0.3522326648235321 0.22755756974220276 0.0096549913287162781
0.39651751518249512 0.22157804667949677 0.0067528919316828251
0.44580864906311035 0.21452061831951141 0.0040603503584861755
0.49280613660812378 0.2107216864824295 0.001056609908118844
0.546791672706604 0.21114794909954071 5.0590544560691342e-05
0.59801465272903442 0.21257969737052917 1.1543691158522051e-07
0.64683330059051514 0.21442992985248566 0
0.68773561716079712 0.21669416129589081 0
0.72943180799484253 0.21941013634204865 0
0.76457774639129639 0.22231194376945496 0
0.80088710784912109 0.22642442584037781 0
0.83507645130157471 0.23154449462890625 0
0.86614620685577393 0.23810674250125885 0
0.89765715599060059 0.2464926540851593 0
0.92618066072463989 0.25540298223495483 0
0.95500123500823975 0.26646178960800171 0
0.98102247714996338 0.27756932377815247 0
0.99807941913604736 0.29007062315940857 0
0.99998539686203003 0.30327910184860229 0
1 0.3178260326385498 0
0.99997496604919434 0.33321413397789001 0
0 0.19422350823879242 0.088902071118354797
1.3868402675143443e-05 0.19567239284515381 0.089638806879520416
0.0019125781254842877 0.19488722085952759 0.089983716607093811
0.014210308901965618 0.19449600577354431 0.09044182300567627
0.031314168125391006 0.19875848293304443 0.08803858608007431
0.054104030132293701 0.20734167098999023 0.082586370408535004
0.086104653775691986 0.21822911500930786 0.074734345078468323
0.124970942735672 0.23122702538967133 0.064800910651683807
0.17580685019493103 0.24793733656406403 0.049231592565774918
0.24097593128681183 0.27016985416412354 0.023836633190512657
0.31930989027023315 0.2935546338558197 0.0018118935404345393
0.37709558010101318 0.29365825653076172 0.00025360033032484353
0.42401367425918579 0.28819605708122253 6.0657828726107255e-05
0.47343266010284424 0.28005173802375793 2.6526911824475974e-05
0.51534515619277954 0.27010196447372437 3.9359861148113851e-06
0.5583299994468689 0.25936350226402283 7.9770359207032016e-08
0.60261571407318115 0.25493693351745605 0
0.65040332078933716 0.25636717677116394 0
0.69110661745071411 0.25870919227600098 0
0.73218554258346558 0.26152682304382324 0
0.76669049263000488 0.26432844996452332 0
0.80236279964447021 0.26749980449676514 0
0.83587795495986938 0.27157199382781982 0
0.86649411916732788 0.27697992324829102 0
0.8982279896736145 0.28433820605278015 0
0.92636591196060181 0.2919476330280304 0
0.95501303672790527 0.30123800039291382 0
0.98078405857086182 0.31098279356956482 0
0.99809706211090088 0.32202571630477905 0
0.99993604421615601 0.33352681994438171 0
0.99999147653579712 0.34599572420120239 0
0.99999874830245972 0.36043527722358704 0
0 0.22279252111911774 0.095771379768848419
0 0.22501949965953827 0.096742995083332062
0.00013573546311818063 0.22462370991706848 0.097340799868106842
0.0060828151181340218 0.22378513216972351 0.097779877483844757
0.02377009205520153 0.22559389472007751 0.096926547586917877
0.045311998575925827 0.23421785235404968 0.092218987643718719
0.076232314109802246 0.24724587798118591 0.084603659808635712
0.11408822238445282 0.26253741979598999 0.074626058340072632
0.16388285160064697 0.28230983018875122 0.058773279190063477
0.22346821427345276 0.30342721939086914 0.033932056277990341
0.30448770523071289 0.33177521824836731 0.0045959055423736572
0.39127922058105469 0.35721656680107117 1.5835094018257223e-05
0.44758749008178711 0.35833966732025146 0
0.49714916944503784 0.34950530529022217 0
0.5388791561126709 0.3388131856918335 0
0.57973015308380127 0.32494214177131653 0
0.61492925882339478 0.31007677316665649 0
0.6519283652305603 0.29930400848388672 0
0.68859106302261353 0.29658535122871399 0
0.72937536239624023 0.29828000068664551 0
0.76393085718154907 0.30045622587203979 0
0.79950439929962158 0.30314165353775024 0
0.833404541015625 0.30698829889297485 0
0.86385226249694824 0.31156101822853088 0
0.89529138803482056 0.31777521967887878 0
0.92337983846664429 0.32405516505241394 0
0.95204567909240723 0.33194613456726074 0
0.97782343626022339 0.34034234285354614 0
0.99710088968276978 0.3496435284614563 0
0.99996572732925415 0.35973274707794189 0
0.99999773502349854 0.37099403142929077 0
1 0.38398703932762146 0
0 0.26342242956161499 0.10451505333185196
0 0.26620519161224365 0.10543938726186752
2.8379838568071136e-07 0.26617914438247681 0.10587717592716217
0.00050272338557988405 0.26617094874382019 0.10686567425727844
0.0095064183697104454 0.26659911870956421 0.10769075900316238
0.032737676054239273 0.27376431226730347 0.10454671084880829
0.064968787133693695 0.28745853900909424 0.096774503588676453
0.10352549701929092 0.30295339226722717 0.086524538695812225
0.15215785801410675 0.32203206419944763 0.071198932826519012
0.20785699784755707 0.3418658971786499 0.047382071614265442
0.27891498804092407 0.36571967601776123 0.01293373666703701
0.36678546667098999 0.39441001415252686 0.00028602106613107026
0.45498937368392944 0.4231584370136261 0
0.51690113544464111 0.42394685745239258 0
0.55825144052505493 0.41283619403839111 0
0.59848690032958984 0.3985399603843689 0
0.63415521383285522 0.38351824879646301 0
0.66727679967880249 0.36680403351783752 0
0.69478213787078857 0.35127952694892883 0
0.72673124074935913 0.34033995866775513 0
0.75972217321395874 0.33935046195983887 0
0.79588854312896729 0.34122458100318909 0
0.83049643039703369 0.34449616074562073 0
0.86100625991821289 0.34830135107040405 0
0.89203023910522461 0.35315400362014771 0
0.9206201434135437 0.35867825150489807 0
0.94909399747848511 0.36537602543830872 0
0.97462749481201172 0.37223917245864868 0
0.99583017826080322 0.38008198142051697 0
0.99993294477462769 0.38877919316291809 0
0.99995476007461548 0.3983214795589447 0
0.99995768070220947 0.40935817360877991 0
0 0.31020352244377136 0.11418526619672775
0 0.3157651424407959 0.11584383994340897
0 0.31566217541694641 0.11662965267896652
9.2617989366772235e-07 0.31488898396492004 0.11711305379867554
0.00080475793220102787 0.31380248069763184 0.11800683289766312
0.014757887460291386 0.31602650880813599 0.11712059378623962
0.048277612775564194 0.32691666483879089 0.11032349616289139
0.089439213275909424 0.34113681316375732 0.10022521018981934
0.13860234618186951 0.35893374681472778 0.085891842842102051
0.19196793437004089 0.3778764009475708 0.06524001806974411
0.25808647274971008 0.39996248483657837 0.030766207724809647
0.33554881811141968 0.42400786280632019 0.0028642648831009865
0.41531965136528015 0.44808501005172729 1.2218671372465906e-06
0.51239418983459473 0.478354811668396 0
0.57487326860427856 0.48481947183609009 0
0.61607617139816284 0.47184079885482788 0
0.65114814043045044 0.45633876323699951 0
0.68446260690689087 0.43986305594444275 0
0.71245282888412476 0.4240727424621582 0
0.74008834362030029 0.40631979703903198 0
0.76390522718429565 0.39146283268928528 0
0.79338109493255615 0.38220170140266418 0
0.82699722051620483 0.38243493437767029 0
0.8584740161895752 0.38572493195533752 0
0.89051258563995361 0.38972276449203491 0
0.91883093118667603 0.39425411820411682 0
0.94728630781173706 0.39965850114822388 0
0.97297108173370361 0.40521997213363647 0
0.9949878454208374 0.41204154491424561 0
0.999988853931427 0.41958221793174744 0
0.9999929666519165 0.4283575713634491 0
0.99999457597732544 0.438120037317276 0
0 0.35242119431495667 0.12344306707382202
0 0.35869497060775757 0.12569496035575867
0 0.3583732545375824 0.1261335015296936
0 0.35735151171684265 0.1267031729221344
1.5376886040030513e-06 0.35614573955535889 0.12770040333271027
0.0038104837294667959 0.3554781973361969 0.12824837863445282
0.032231871038675308 0.36260190606117249 0.12427820265293121
0.077812090516090393 0.37678009271621704 0.11482995748519897
0.12885741889476776 0.3940315842628479 0.10153793543577194
0.18129965662956238 0.41197061538696289 0.083558492362499237
0.24490372836589813 0.43295937776565552 0.054317235946655273
0.31728187203407288 0.45507675409317017 0.014068328775465488
0.38917204737663269 0.47544592618942261 0.00040255868225358427
0.4769136905670166 0.49954640865325928 8.718491812942375e-07
0.56492036581039429 0.52642053365707397 0
0.62844419479370117 0.53136652708053589 0
0.66463041305541992 0.51774841547012329 0
0.697154700756073 0.50126093626022339 0
0.72408825159072876 0.48533305525779724 0
0.75240546464920044 0.46802076697349548 0
0.77566099166870117 0.45158877968788147 0
0.79990696907043457 0.4341241717338562 0
0.82561540603637695 0.42098012566566467 0
0.85367381572723389 0.41781550645828247 0
0.88537752628326416 0.42037478089332581 0
0.91429060697555542 0.42368000745773315 0
0.94357001781463623 0.42841082811355591 0
0.96961009502410889 0.43301725387573242 0
0.99296963214874268 0.4390265941619873 0
0.99998146295547485 0.44586661458015442 0
0.99994194507598877 0.45364809036254883 0
0.99994724988937378 0.46242183446884155 0
0 0.39782717823982239 0.13547293841838837
0 0.40383094549179077 0.13787204027175903
0 0.40376615524291992 0.13856472074985504
0 0.40303781628608704 0.13933917880058289
0 0.40181106328964233 0.14006221294403076
0.00053916446631774306 0.40080031752586365 0.14123238623142242
0.018962355330586433 0.402862548828125 0.14084425568580627
0.067776940762996674 0.41394522786140442 0.13296617567539215
0.12021181732416153 0.42899376153945923 0.12094990164041519
0.17183022201061249 0.44527870416641235 0.10609504580497742
0.23206079006195068 0.46435236930847168 0.084011450409889221
0.2991030216217041 0.48415037989616394 0.048083193600177765
0.36574265360832214 0.50293397903442383 0.011985915713012218
0.44400611519813538 0.52292346954345703 0.00043616114999167621
0.51997661590576172 0.54176390171051025 0
0.60940384864807129 0.56678789854049683 0
0.67493700981140137 0.57657235860824585 0
0.71060687303543091 0.56365782022476196 0
0.73728233575820923 0.54865097999572754 0
0.76492166519165039 0.53145581483840942 0
0.78840935230255127 0.51566499471664429 0
0.81347203254699707 0.49902394413948059 0
0.8372122049331665 0.48268556594848633 0
0.85817098617553711 0.46845734119415283 0
0.88329637050628662 0.45872265100479126 0
0.91016185283660889 0.45693203806877136 0
0.93945574760437012 0.46035590767860413 0
0.9661223292350769 0.46444043517112732 0
0.99137681722640991 0.46958357095718384 0
0.99999207258224487 0.4757172167301178 0
0.9999963641166687 0.48211684823036194 0
0.99999594688415527 0.4898621141910553 0
0 0.43629235029220581 0.14786694943904877
0 0.4435652494430542 0.15128572285175323
0 0.4435703456401825 0.15195678174495697
0 0.4428863525390625 0.15270067751407623
0 0.44136923551559448 0.15334759652614594
1.1953950888710096e-05 0.4398837685585022 0.1543852835893631
0.011977941729128361 0.43864956498146057 0.15529321134090424
0.064899496734142303 0.44551002979278564 0.15120592713356018
0.11776580661535263 0.45935830473899841 0.1410822868347168
0.16751496493816376 0.47453877329826355 0.12860025465488434
0.2254098653793335 0.49180060625076294 0.11139842122793198
0.28859192132949829 0.51021569967269897 0.086293444037437439
0.35035485029220581 0.52718937397003174 0.052182625979185104
0.42310130596160889 0.54566258192062378 0.012169908732175827
0.49209171533584595 0.56218278408050537 0.00074054201832041144
0.57007718086242676 0.58017557859420776 9.0643934527179226e-06
0.65291357040405273 0.60299301147460938 0
