LUTs/Fuji Superia 100 3+.cube
# Created by: G'MIC (https://gmic.eu)
TITLE "Fuji Superia 100 3+"
# LUT size
LUT_3D_SIZE 32
# Data domain
DOMAIN_MIN 0.0 0.0 0.0
DOMAIN_MAX 1.0 1.0 1.0
# LUT data points
0.00027219054754823446 0.035957172513008118 0.045081254094839096
0.0033669474069029093 0.039514545351266861 0.046932820230722427
0.013922390528023243 0.048213377594947815 0.05011456087231636
0.03254452720284462 0.06236986443400383 0.056377895176410675
0.05532396212220192 0.077718406915664673 0.064376190304756165
0.084910452365875244 0.095738537609577179 0.076332956552505493
0.11919278651475906 0.11454974114894867 0.090997450053691864
0.15591526031494141 0.1327088326215744 0.10647359490394592
0.19397205114364624 0.14952895045280457 0.12226756662130356
0.2332121878862381 0.16449156403541565 0.1381586492061615
0.27368447184562683 0.17820166051387787 0.15336009860038757
0.31532114744186401 0.19110240042209625 0.16783298552036285
0.35793977975845337 0.20322966575622559 0.18161645531654358
0.40111881494522095 0.2143089771270752 0.19461262226104736
0.44447979331016541 0.2240447998046875 0.20673647522926331
0.48762816190719604 0.23253318667411804 0.21827587485313416
0.52942228317260742 0.23952512443065643 0.22953644394874573
0.57030618190765381 0.24489311873912811 0.24036964774131775
0.61172711849212646 0.2496265321969986 0.25127053260803223
0.65191096067428589 0.25476318597793579 0.26207402348518372
0.68702304363250732 0.25789952278137207 0.26869148015975952
0.71851867437362671 0.25907233357429504 0.27174463868141174
0.74694573879241943 0.25966945290565491 0.27313384413719177
0.76996886730194092 0.25921115279197693 0.27259308099746704
0.78870099782943726 0.25693818926811218 0.26982948184013367
0.80539858341217041 0.25347539782524109 0.26578295230865479
0.82135379314422607 0.24925406277179718 0.26098227500915527
0.8373187780380249 0.2445780485868454 0.25574624538421631
0.85363364219665527 0.23983959853649139 0.25048226118087769
0.87047654390335083 0.23510198295116425 0.24526157975196838
0.88793754577636719 0.23052527010440826 0.24027010798454285
0.90611034631729126 0.22588402032852173 0.23530958592891693
0.0006549544632434845 0.042312737554311752 0.04702763631939888
0.0019819352310150862 0.043493587523698807 0.047044035047292709
0.010349652729928493 0.049365080893039703 0.048983406275510788
0.027269927784800529 0.063514284789562225 0.054615002125501633
0.051241345703601837 0.081328295171260834 0.06324353814125061
0.082527369260787964 0.10125167667865753 0.076219126582145691
0.11798404902219772 0.12203164398670197 0.091635532677173615
0.15530446171760559 0.1418524831533432 0.10795269906520844
0.19398023188114166 0.1592877209186554 0.12500894069671631
0.23401437699794769 0.17508254945278168 0.14148204028606415
0.27538692951202393 0.19007891416549683 0.15712037682533264
0.31802815198898315 0.20445398986339569 0.17202655971050262
0.36161372065544128 0.21797110140323639 0.1861146092414856
0.40572771430015564 0.23022438585758209 0.19923673570156097
0.4498506486415863 0.24120533466339111 0.21169082820415497
0.4923270046710968 0.25041553378105164 0.22378957271575928
0.53312700986862183 0.25735199451446533 0.2352292537689209
0.57423931360244751 0.26308628916740417 0.24647171795368195
0.61629736423492432 0.26875093579292297 0.2584669291973114
0.65583765506744385 0.27423128485679626 0.26932042837142944
0.69040709733963013 0.27723708748817444 0.27537411451339722
0.72195887565612793 0.27872079610824585 0.27839085459709167
0.74976438283920288 0.279916912317276 0.28005686402320862
0.77168065309524536 0.27930912375450134 0.27904132008552551
0.78971117734909058 0.27697286009788513 0.27590742707252502
0.80587375164031982 0.27352166175842285 0.27153626084327698
0.82141602039337158 0.26938426494598389 0.26644077897071838
0.83704394102096558 0.26494452357292175 0.26102688908576965
0.85303151607513428 0.26055073738098145 0.2556910514831543
0.86954712867736816 0.25625073909759521 0.25050148367881775
0.88669699430465698 0.25202906131744385 0.24549950659275055
0.90465539693832397 0.24766062200069427 0.24039857089519501
0.0036056074313819408 0.059353690594434738 0.05160551518201828
0.0031056154984980822 0.060096479952335358 0.050357848405838013
0.010368311777710915 0.063247129321098328 0.05137045681476593
0.024053985252976418 0.071046441793441772 0.053713679313659668
0.049351591616868973 0.087550036609172821 0.062150578945875168
0.082503557205200195 0.10883542895317078 0.075644455850124359
0.1190498024225235 0.13148674368858337 0.092132873833179474
0.15760186314582825 0.15193066000938416 0.11080262064933777
0.19769741594791412 0.17056001722812653 0.12924383580684662
0.23922914266586304 0.18828323483467102 0.14656080305576324
0.28211095929145813 0.20526853203773499 0.16286030411720276
0.32613247632980347 0.22134844958782196 0.1781332939863205
0.37092974781990051 0.23615965247154236 0.19228853285312653
0.4158722460269928 0.2494935542345047 0.20557783544063568
0.4588906466960907 0.2607370913028717 0.21842914819717407
0.49952632188796997 0.26931259036064148 0.23060248792171478
0.54013276100158691 0.27643188834190369 0.24246598780155182
0.58182328939437866 0.28285768628120422 0.25465145707130432
0.62377184629440308 0.28894636034965515 0.26739683747291565
0.66200065612792969 0.29388755559921265 0.27728953957557678
0.69601690769195557 0.2966609001159668 0.28265112638473511
0.72719907760620117 0.29856249690055847 0.2857373058795929
0.75334471464157104 0.29971399903297424 0.28700196743011475
0.77384442090988159 0.29879000782966614 0.28533965349197388
0.7909923791885376 0.29634913802146912 0.28177323937416077
0.8065636157989502 0.29294410347938538 0.27706581354141235
0.82171154022216797 0.28900757431983948 0.27171456813812256
0.83701354265213013 0.28501886129379272 0.26627340912818909
0.85268992185592651 0.28112134337425232 0.2609499990940094
0.86887669563293457 0.27737665176391602 0.25590544939041138
0.8858380913734436 0.2735004723072052 0.25076684355735779
0.9035457968711853 0.26999455690383911 0.24604406952857971
0.012190330773591995 0.088753640651702881 0.064050368964672089
0.010601118206977844 0.089821204543113708 0.063119783997535706
0.012781055644154549 0.091448910534381866 0.061777651309967041
0.028102517127990723 0.097301706671714783 0.063938677310943604
0.052877943962812424 0.1058829054236412 0.06784646213054657
0.087083369493484497 0.12281561642885208 0.078141100704669952
0.12611651420593262 0.1445356011390686 0.096563078463077545
0.1666942834854126 0.16618442535400391 0.11715611070394516
0.20822848379611969 0.18669469654560089 0.13638338446617126
0.25092151761054993 0.20613792538642883 0.15414480865001678
0.29495358467102051 0.22466784715652466 0.17068161070346832
0.34013137221336365 0.24205432832241058 0.18595415353775024
0.3856205940246582 0.25770914554595947 0.20007318258285522
0.42912667989730835 0.27073600888252258 0.2134968489408493
0.46970915794372559 0.28092601895332336 0.22633494436740875
0.50972765684127808 0.28961208462715149 0.23896715044975281
0.55054682493209839 0.29746121168136597 0.25175181031227112
0.59219419956207275 0.30409902334213257 0.26463386416435242
0.63318490982055664 0.30946367979049683 0.27692604064941406
0.67009568214416504 0.31362235546112061 0.28559944033622742
0.70334601402282715 0.31613388657569885 0.29023277759552002
0.73319548368453979 0.31829464435577393 0.29328876733779907
0.75715428590774536 0.31891381740570068 0.29365813732147217
0.77619701623916626 0.31766703724861145 0.29135182499885559
0.79243797063827515 0.31517064571380615 0.28735452890396118
0.80746239423751831 0.31193813681602478 0.28234377503395081
0.82227486371994019 0.30844265222549438 0.27687913179397583
0.83728253841400146 0.30508774518966675 0.27151191234588623
0.85264414548873901 0.30191206932067871 0.26642921566963196
0.86861550807952881 0.29865121841430664 0.26135268807411194
0.88552558422088623 0.29557302594184875 0.25635647773742676
0.90286499261856079 0.29316574335098267 0.25239545106887817
0.025026224553585052 0.12574101984500885 0.080692432820796967
0.02200826071202755 0.12484926730394363 0.078282468020915985
0.01953231543302536 0.12615582346916199 0.077257424592971802
0.033882133662700653 0.13339895009994507 0.082343317568302155
0.059133388102054596 0.14111447334289551 0.086374729871749878
0.09475022554397583 0.15180638432502747 0.091882087290287018
0.1387389749288559 0.1679978221654892 0.10766587406396866
0.18176105618476868 0.1873021125793457 0.126951664686203
0.22431482374668121 0.20770351588726044 0.14581035077571869
0.26805585622787476 0.22826908528804779 0.16365648806095123
0.31335246562957764 0.24819831550121307 0.18009805679321289
0.35927316546440125 0.2663344144821167 0.19521835446357727
0.40302050113677979 0.2811797559261322 0.20943711698055267
0.4435393214225769 0.29277989268302917 0.22278831899166107
0.48301777243614197 0.30294877290725708 0.23598183691501617
0.52285027503967285 0.31221157312393188 0.24937885999679565
0.56338798999786377 0.32014396786689758 0.26255345344543457
0.6043248176574707 0.32587230205535889 0.27508071064949036
0.64407789707183838 0.33004102110862732 0.28643712401390076
0.67950242757797241 0.33334717154502869 0.29380202293395996
0.71149545907974243 0.33569464087486267 0.29789638519287109
0.73914384841918945 0.33758270740509033 0.30044794082641602
0.76093202829360962 0.33758825063705444 0.29988685250282288
0.7786024808883667 0.33610942959785461 0.29699233174324036
0.79403221607208252 0.33371672034263611 0.29261821508407593
0.80863112211227417 0.3308880627155304 0.28739359974861145
0.82318651676177979 0.32814496755599976 0.28203049302101135
0.83792787790298462 0.32566559314727783 0.27695158123970032
0.85304754972457886 0.32318338751792908 0.27202263474464417
0.86903458833694458 0.32067850232124329 0.26694941520690918
0.88583886623382568 0.31893488764762878 0.26276233792304993
0.90279090404510498 0.3169616162776947 0.2590535581111908
0.040258772671222687 0.16357976198196411 0.09835468977689743
0.040152903646230698 0.16362112760543823 0.098558686673641205
0.039655279368162155 0.16725306212902069 0.10151936113834381
0.044848702847957611 0.17454943060874939 0.10667321085929871
0.06391385942697525 0.18223428726196289 0.11016931384801865
0.10007187724113464 0.19100286066532135 0.11334117501974106
0.14847692847251892 0.20250946283340454 0.1239057332277298
0.19686324894428253 0.21734578907489777 0.13981200754642487
0.24320101737976074 0.23603880405426025 0.15736144781112671
0.28943341970443726 0.25670015811920166 0.17451757192611694
0.33584606647491455 0.27638289332389832 0.19078429043292999
0.37989982962608337 0.29256349802017212 0.20603726804256439
0.42045196890830994 0.30548250675201416 0.22009627521038055
0.45948341488838196 0.31702953577041626 0.2336663156747818
0.49835732579231262 0.32772150635719299 0.24735544621944427
0.53767126798629761 0.33699321746826172 0.26077508926391602
0.5774722695350647 0.34421586990356445 0.27354878187179565
0.61733758449554443 0.34814736247062683 0.28512001037597656
0.65562963485717773 0.35076150298118591 0.29538765549659729
0.68936401605606079 0.35311278700828552 0.30145540833473206
0.71963244676589966 0.35533717274665833 0.30536210536956787
0.74470698833465576 0.35648712515830994 0.30696997046470642
0.76455605030059814 0.35601538419723511 0.30561304092407227
0.78104239702224731 0.35452193021774292 0.30222985148429871
0.79585617780685425 0.35250753164291382 0.29758152365684509
0.81020659208297729 0.350444495677948 0.29235747456550598
0.82458579540252686 0.3487626314163208 0.28734681010246277
0.83910363912582397 0.34724241495132446 0.28264737129211426
0.85421931743621826 0.34555304050445557 0.27773532271385193
0.87037050724029541 0.34435641765594482 0.27321675419807434
0.88689577579498291 0.34356021881103516 0.26979953050613403
0.90351265668869019 0.34158271551132202 0.26586097478866577
0.061309117823839188 0.20326408743858337 0.11934948712587357
0.064418934285640717 0.20467491447925568 0.12216771394014359
0.064444757997989655 0.20925404131412506 0.12626984715461731
0.064102843403816223 0.21643505990505219 0.1307423859834671
0.071734830737113953 0.22472080588340759 0.13333837687969208
0.1013495996594429 0.23470951616764069 0.13573122024536133
0.15173226594924927 0.24568583071231842 0.14287491142749786
0.20799891650676727 0.25786963105201721 0.15495985746383667
0.26219388842582703 0.27336025238037109 0.17022809386253357
0.31163519620895386 0.29092314839363098 0.18671733140945435
0.35662391781806946 0.30691272020339966 0.20289720594882965
0.39779764413833618 0.32096663117408752 0.21795687079429626
0.43689796328544617 0.3339366614818573 0.23210687935352325
0.47533094882965088 0.34594285488128662 0.24584592878818512
0.51374226808547974 0.35632842779159546 0.25928136706352234
0.55245029926300049 0.36466237902641296 0.27196696400642395
0.59116107225418091 0.36998087167739868 0.28361165523529053
0.62972301244735718 0.37202101945877075 0.29397723078727722
0.66643905639648438 0.3730137050151825 0.30311673879623413
0.69884121417999268 0.3737366795539856 0.30849537253379822
0.72714865207672119 0.37500688433647156 0.31216269731521606
0.74978667497634888 0.375416100025177 0.31280010938644409
0.7680169939994812 0.37477812170982361 0.31082069873809814
0.78362077474594116 0.37362602353096008 0.30709978938102722
0.79811233282089233 0.37236616015434265 0.30235186219215393
0.81240576505661011 0.37148839235305786 0.29747813940048218
0.82665467262268066 0.37104812264442444 0.29306921362876892
0.84113293886184692 0.37042126059532166 0.28851529955863953
0.85654789209365845 0.36989155411720276 0.28386580944061279
0.87269645929336548 0.37006101012229919 0.28045657277107239
0.88886946439743042 0.36940643191337585 0.27705156803131104
0.90518134832382202 0.36742138862609863 0.27282863855361938
0.084185503423213959 0.24341718852519989 0.14010334014892578
0.088074661791324615 0.24539351463317871 0.14355415105819702
0.087893962860107422 0.25046852231025696 0.14786617457866669
0.085972920060157776 0.25788372755050659 0.15161916613578796
0.088199838995933533 0.26785436272621155 0.15366137027740479
0.10999009758234024 0.28114327788352966 0.15620142221450806
0.15549124777317047 0.29434505105018616 0.16184842586517334
0.21415945887565613 0.30603539943695068 0.17129792273044586
0.27650350332260132 0.31735634803771973 0.18401482701301575
0.32676979899406433 0.33098793029785156 0.2000737190246582
0.36900311708450317 0.34546884894371033 0.21626433730125427
0.40916085243225098 0.3591199517250061 0.23128384351730347
0.44841364026069641 0.37123975157737732 0.2451239675283432
0.48739281296730042 0.38144159317016602 0.25813707709312439
0.5261613130569458 0.38972464203834534 0.2705208957195282
0.56464976072311401 0.39560136198997498 0.28208449482917786
0.60282355546951294 0.39860239624977112 0.29260745644569397
0.64070534706115723 0.39977085590362549 0.30300626158714294
0.67580223083496094 0.39915195107460022 0.31118842959403992
0.70692342519760132 0.39685094356536865 0.31552061438560486
0.73357594013214111 0.39533722400665283 0.31803295016288757
0.75440245866775513 0.39519166946411133 0.31796962022781372
0.77144670486450195 0.39487183094024658 0.31557947397232056
0.78659653663635254 0.39449506998062134 0.31173205375671387
0.8011094331741333 0.39440357685089111 0.3072076141834259
0.8154570460319519 0.39498734474182129 0.30310720205307007
0.82966798543930054 0.39560559391975403 0.29909637570381165
0.84443908929824829 0.39597931504249573 0.29466310143470764
0.8601677417755127 0.39682906866073608 0.29098847508430481
0.87603777647018433 0.39750629663467407 0.28813445568084717
0.89186739921569824 0.39676889777183533 0.28443244099617004
0.90786677598953247 0.39475268125534058 0.27992641925811768
0.10558269917964935 0.28307333588600159 0.15842856466770172
0.10958043485879898 0.28558415174484253 0.16224795579910278
0.10941531509160995 0.29140385985374451 0.1666690856218338
0.10903783142566681 0.30005958676338196 0.16964651644229889
0.11575037240982056 0.31170535087585449 0.17148667573928833
0.13771452009677887 0.32681658864021301 0.17436714470386505
0.17696219682693481 0.34284943342208862 0.17943491041660309
0.22867488861083984 0.35628831386566162 0.18703310191631317
0.28495219349861145 0.36865308880805969 0.19839748740196228
0.33085709810256958 0.38317462801933289 0.21391122043132782
0.37125399708747864 0.39715757966041565 0.22968344390392303
0.41113534569740295 0.40905803442001343 0.24420376121997833
0.45218583941459656 0.41722571849822998 0.2569328248500824
0.49366399645805359 0.42341381311416626 0.26904547214508057
0.53368681669235229 0.42855831980705261 0.28130429983139038
0.57302582263946533 0.43068140745162964 0.29251399636268616
0.61268550157546997 0.43002426624298096 0.30286255478858948
0.65077316761016846 0.42864498496055603 0.31295716762542725
0.68435841798782349 0.42597639560699463 0.31965357065200806
0.7134702205657959 0.42201554775238037 0.32256317138671875
0.73844176530838013 0.41813617944717407 0.32312634587287903
0.75863254070281982 0.41719198226928711 0.32257485389709473
0.7751305103302002 0.41765645146369934 0.32006698846817017
0.79030942916870117 0.41839337348937988 0.31635633111000061
0.80509334802627563 0.41974535584449768 0.31258270144462585
0.81950670480728149 0.42157250642776489 0.30924877524375916
0.83394670486450195 0.4230256974697113 0.30536180734634399
0.84921079874038696 0.42441600561141968 0.30146226286888123
0.86490845680236816 0.42613083124160767 0.29892435669898987
0.88039886951446533 0.42669957876205444 0.29588404297828674
0.89590013027191162 0.42585498094558716 0.29188215732574463
0.91158241033554077 0.4237658679485321 0.28709644079208374
0.12503783404827118 0.32232624292373657 0.17454522848129272
0.12940357625484467 0.32566401362419128 0.17879757285118103
0.13159467279911041 0.33262979984283447 0.18275643885135651
0.13664822280406952 0.34238481521606445 0.18536992371082306
0.14937014877796173 0.35448852181434631 0.18762142956256866
0.17343392968177795 0.37057998776435852 0.19089236855506897
0.20882236957550049 0.38900098204612732 0.19572027027606964
0.25042307376861572 0.40701717138290405 0.20259471237659454
0.29198238253593445 0.42487397789955139 0.21380074322223663
0.33170884847640991 0.43935781717300415 0.22815914452075958
0.37288165092468262 0.44947341084480286 0.2422715425491333
0.4157865047454834 0.45601445436477661 0.25503674149513245
0.45936989784240723 0.46108055114746094 0.26774618029594421
0.50171303749084473 0.46512377262115479 0.28122404217720032
0.54210877418518066 0.46652880311012268 0.29353868961334229
0.58158886432647705 0.46482926607131958 0.30381420254707336
0.62119436264038086 0.46128731966018677 0.31297126412391663
0.65887856483459473 0.45799776911735535 0.32187929749488831
0.69125807285308838 0.45405447483062744 0.32732307910919189
0.71860450506210327 0.44961270689964294 0.32912769913673401
0.74191045761108398 0.44537451863288879 0.32819259166717529
0.76224988698959351 0.44343274831771851 0.3267543613910675
0.77917736768722534 0.44449958205223083 0.3244730532169342
0.79476618766784668 0.44637250900268555 0.32127878069877625
0.80988204479217529 0.44899147748947144 0.3186163604259491
0.82452821731567383 0.45145365595817566 0.31554174423217773
0.83952790498733521 0.4534001350402832 0.3118269145488739
0.85515910387039185 0.45559543371200562 0.30922216176986694
0.87054896354675293 0.45734402537345886 0.30692186951637268
0.8857111930847168 0.45772358775138855 0.30357828736305237
0.90090841054916382 0.456748366355896 0.29930323362350464
0.91629725694656372 0.45458546280860901 0.29425814747810364
0.14316220581531525 0.36135405302047729 0.18881766498088837
0.14966399967670441 0.36556914448738098 0.19292928278446198
0.15660914778709412 0.37285766005516052 0.19633615016937256
0.16716650128364563 0.38191339373588562 0.19882255792617798
0.18408790230751038 0.3944239616394043 0.20131808519363403
0.21008557081222534 0.41224145889282227 0.20519596338272095
0.24281144142150879 0.43332338333129883 0.21084164083003998
0.27390924096107483 0.45441403985023499 0.21839128434658051
0.30411064624786377 0.47212299704551697 0.22807255387306213
0.34174951910972595 0.48371756076812744 0.2398182600736618
0.38471224904060364 0.49088597297668457 0.25231015682220459
0.42872759699821472 0.49696147441864014 0.26604849100112915
0.47129416465759277 0.50160098075866699 0.2805824875831604
0.51198947429656982 0.50315397977828979 0.29376867413520813
0.5511515736579895 0.50166577100753784 0.30472755432128906
0.58938807249069214 0.49805718660354614 0.31365305185317993
0.6279217004776001 0.4935142993927002 0.3218618631362915
0.6647142767906189 0.48953425884246826 0.32988610863685608
0.69586610794067383 0.48532789945602417 0.33423903584480286
0.72200995683670044 0.48126325011253357 0.33520960807800293
0.74435675144195557 0.47792065143585205 0.33364835381507874
0.76460415124893188 0.47614255547523499 0.33149221539497375
0.78243201971054077 0.47687837481498718 0.32924845814704895
0.79899412393569946 0.4788627028465271 0.32667452096939087
0.81473416090011597 0.48172661662101746 0.3245340883731842
0.83008968830108643 0.48415187001228333 0.32151755690574646
0.84596598148345947 0.48628097772598267 0.31874567270278931
0.86173731088638306 0.4887077808380127 0.31714621186256409
0.87687093019485474 0.49022600054740906 0.31463384628295898
0.89179056882858276 0.49043166637420654 0.31104615330696106
0.9067264199256897 0.48935067653656006 0.30653864145278931
0.92184543609619141 0.48711404204368591 0.30125850439071655
0.16172493994235992 0.39921295642852783 0.20050175487995148
0.17167162895202637 0.40328827500343323 0.20410917699337006
0.18282881379127502 0.40933689475059509 0.20700089633464813
0.19727526605129242 0.41834920644760132 0.20947195589542389
0.21781055629253387 0.43263179063796997 0.21270674467086792
0.24470485746860504 0.45233404636383057 0.21772414445877075
0.271452397108078 0.47278997302055359 0.224068284034729
0.29649379849433899 0.49047482013702393 0.23094066977500916
0.32497474551200867 0.50642591714859009 0.23950347304344177
0.35983559489250183 0.5200042724609375 0.24999922513961792
0.40041390061378479 0.53024953603744507 0.26370808482170105
0.4421943724155426 0.53699374198913574 0.27916827797889709
0.4827180802822113 0.53988277912139893 0.29323366284370422
0.52174878120422363 0.53943610191345215 0.30505079030990601
0.55941152572631836 0.53664469718933105 0.31471586227416992
0.59624367952346802 0.53241503238677979 0.32269135117530823
0.63338059186935425 0.52764898538589478 0.33020061254501343
0.66862207651138306 0.52378576993942261 0.33745318651199341
0.69831043481826782 0.52014976739883423 0.34083178639411926
0.72384095191955566 0.51675587892532349 0.34111207723617554
0.74664312601089478 0.51401400566101074 0.33976319432258606
0.76718932390213013 0.51321983337402344 0.33860486745834351
0.78518766164779663 0.51380676031112671 0.33615222573280334
0.80229759216308594 0.51476740837097168 0.33261558413505554
0.81897956132888794 0.51671332120895386 0.32981157302856445
0.83550453186035156 0.51864564418792725 0.32706823945045471
0.85252177715301514 0.5207793116569519 0.32584211230278015
0.86844819784164429 0.52297967672348022 0.32445037364959717
0.88352078199386597 0.52425038814544678 0.32177701592445374
0.8982541561126709 0.52430373430252075 0.31800541281700134
0.91294604539871216 0.52311712503433228 0.3133014440536499
0.92780596017837524 0.52078384160995483 0.3078119158744812
0.18119308352470398 0.4337710440158844 0.20876395702362061
0.19376850128173828 0.43705445528030396 0.2121443897485733
0.20774976909160614 0.44297149777412415 0.21498757600784302
0.22567576169967651 0.45355004072189331 0.21808630228042603
0.24877256155014038 0.46959909796714783 0.22249819338321686
0.27278807759284973 0.487222820520401 0.22798296809196472
0.29563224315643311 0.50307410955429077 0.23350900411605835
0.32078444957733154 0.51877641677856445 0.2404874861240387
0.34983217716217041 0.53537827730178833 0.24982176721096039
0.38170942664146423 0.55220746994018555 0.26228049397468567
0.41644233465194702 0.56579959392547607 0.27726286649703979
0.45504561066627502 0.57309013605117798 0.29226508736610413
0.49378180503845215 0.57555198669433594 0.30518820881843567
