LUTs/Fuji 160C 2.cube
# Created by: G'MIC (https://gmic.eu)
TITLE "Fuji 160C 2"
# LUT size
LUT_3D_SIZE 32
# Data domain
DOMAIN_MIN 0.0 0.0 0.0
DOMAIN_MAX 1.0 1.0 1.0
# LUT data points
0.018054664134979248 0.018244326114654541 0.013518255203962326
0.034347426146268845 0.018821617588400841 0.013170035555958748
0.055436428636312485 0.020201176404953003 0.013955720700323582
0.077492073178291321 0.021917833015322685 0.014291498810052872
0.10349363833665848 0.022511275485157967 0.015063016675412655
0.13353507220745087 0.021529903635382652 0.015707327052950859
0.16959948837757111 0.017928356304764748 0.016212053596973419
0.20710481703281403 0.010690201073884964 0.016542030498385429
0.24980896711349487 0.0024807944428175688 0.016161629930138588
0.2925969660282135 0.00010503605881240219 0.01596689410507679
0.34023389220237732 0 0.015080639161169529
0.38942089676856995 0 0.013446937315165997
0.43489357829093933 0 0.011294419877231121
0.48497548699378967 0 0.0091737164184451103
0.52949827909469604 0 0.0062620919197797775
0.5773126482963562 0 0.0035036718472838402
0.62221860885620117 0 0.001542150741443038
0.66604912281036377 0 0.00035282858880236745
0.70322763919830322 0 3.4464246709831059e-05
0.74107027053833008 0 0
0.77333390712738037 0 0
0.80642974376678467 0 0
0.83752423524856567 0 0
0.86497563123703003 0 0
0.89258986711502075 0 0
0.91774231195449829 7.4603201937861741e-05 0
0.9429548978805542 0.014475984498858452 0
0.96640253067016602 0.068227209150791168 0
0.98912912607192993 0.11789356917142868 0
0.99970471858978271 0.15589742362499237 0
0.99998176097869873 0.18813581764698029 0
0.99998986721038818 0.21441406011581421 0
0.017091840505599976 0.034335367381572723 0.014301077462732792
0.032136585563421249 0.034564953297376633 0.014287343248724937
0.053878407925367355 0.036050803959369659 0.013919047079980373
0.07804533839225769 0.036428369581699371 0.013932710513472557
0.10548051446676254 0.036290008574724197 0.014430293813347816
0.13539561629295349 0.03438742458820343 0.01481904461979866
0.17136497795581818 0.030588310211896896 0.015473887324333191
0.20902968943119049 0.024000618606805801 0.015573544427752495
0.25137802958488464 0.014100579544901848 0.015363223850727081
0.29369980096817017 0.0040681404061615467 0.014711873605847359
0.34108641743659973 0.00032732836552895606 0.013568774797022343
0.39047977328300476 1.6445339952042559e-06 0.011991510167717934
0.43523555994033813 0 0.0098792249336838722
0.48477301001548767 0 0.0071966634131968021
0.52946537733078003 0 0.0043715224601328373
0.57715827226638794 0 0.0022213032934814692
0.62162673473358154 0 0.00075855228351429105
0.66525495052337646 0 9.313886403106153e-05
0.70222342014312744 0 2.3189013518276624e-06
0.74030834436416626 0 0
0.77254217863082886 0 0
0.80568230152130127 0 0
0.83652293682098389 0 0
0.86409270763397217 0 0
0.891978919506073 7.9945457400754094e-06 0
0.91681545972824097 0.0022895901929587126 0
0.94225484132766724 0.039932131767272949 0
0.96565848588943481 0.093315206468105316 0
0.98874533176422119 0.13455814123153687 0
0.99973034858703613 0.1681104302406311 0
0.9999803900718689 0.1982710063457489 0
0.9999890923500061 0.22312548756599426 0
0.015612585470080376 0.054329488426446915 0.015323638916015625
0.028724303469061852 0.053963731974363327 0.015598420985043049
0.048831310123205185 0.055040076375007629 0.015347538515925407
0.07506309449672699 0.056673619896173477 0.014486970379948616
0.10493949055671692 0.056113533675670624 0.013596813194453716
0.13717438280582428 0.054245173931121826 0.013603202067315578
0.17388801276683807 0.050984416157007217 0.013849740847945213
0.21111491322517395 0.045847706496715546 0.013702224008738995
0.25339770317077637 0.037528291344642639 0.013467804528772831
0.29545390605926514 0.026218073442578316 0.01251769345253706
0.34250727295875549 0.012423861771821976 0.011357343755662441
0.39115616679191589 0.0027690809220075607 0.009333588182926178
0.43588441610336304 0.00019213446648791432 0.0071805738843977451
0.48522734642028809 0 0.0047643557190895081
0.52959084510803223 0 0.0025841183960437775
0.57687324285507202 0 0.00087115331552922726
0.62140333652496338 0 0.00026757342857308686
0.66451370716094971 0 9.7070987976621836e-06
0.70154726505279541 0 0
0.73924994468688965 0 0
0.77113687992095947 0 0
0.80446308851242065 0 0
0.83543270826339722 0 0
0.86292535066604614 2.4654926164657809e-05 0
0.89058268070220947 0.0037862008903175592 0
0.91567891836166382 0.030496926978230476 0
0.94106900691986084 0.081274613738059998 0
0.96424472332000732 0.12171772122383118 0
0.98750019073486328 0.15577536821365356 0
0.99953776597976685 0.18556560575962067 0
0.99999356269836426 0.21319624781608582 0
0.99999642372131348 0.23640666902065277 0
0.0099541814997792244 0.077237159013748169 0.016113203018903732
0.021842328831553459 0.076650455594062805 0.016468891873955727
0.041109893471002579 0.077205359935760498 0.016011053696274757
0.06737285852432251 0.078469447791576385 0.015195353887975216
0.099825911223888397 0.080902166664600372 0.013733736239373684
0.13512995839118958 0.081280067563056946 0.012593658640980721
0.17399735748767853 0.078087031841278076 0.011542369611561298
0.21281725168228149 0.073739886283874512 0.010808235965669155
0.25541034340858459 0.068021781742572784 0.010244877077639103
0.2970893383026123 0.06058366596698761 0.0091588813811540604
0.34391698241233826 0.049472298473119736 0.0077065336517989635
0.39195874333381653 0.033931843936443329 0.005820445716381073
0.43644118309020996 0.019869210198521614 0.0038256514817476273
0.48520272970199585 0.0089357690885663033 0.0017763754585757852
0.52926957607269287 0.0031117575708776712 0.00068897358141839504
0.57627218961715698 0.00065068056574091315 0.00019430585962254554
0.62030363082885742 2.020849751716014e-05 2.0998204490751959e-05
0.66336023807525635 0 3.6050064267101334e-08
0.70000773668289185 0 0
0.73766618967056274 0 0
0.76982033252716064 4.5292454160517082e-06 0
0.8027423620223999 0.00043569318950176239 0
0.83359205722808838 0.0040191966108977795 0
0.86118608713150024 0.015329443849623203 0
0.88898563385009766 0.046007875353097916 0
0.91396713256835938 0.085567295551300049 0
0.9396439790725708 0.12206312268972397 0
0.96311467885971069 0.15227742493152618 0
0.98661267757415771 0.18096041679382324 0
0.99949580430984497 0.20736643671989441 0
0.99997442960739136 0.23258526623249054 0
1 0.2538323700428009 0
0.0014715533470734954 0.1044105663895607 0.014916796237230301
0.0093936612829566002 0.10351661592721939 0.015538907609879971
0.028773019090294838 0.10384627431631088 0.015748951584100723
0.056752186268568039 0.10503221303224564 0.014892696402966976
0.089599035680294037 0.10645928233861923 0.013247516006231308
0.12764397263526917 0.11007805168628693 0.011228520423173904
0.17033182084560394 0.11165136098861694 0.008866799995303154
0.21097193658351898 0.10830815881490707 0.0069737127050757408
0.25599628686904907 0.10282017290592194 0.005585948470979929
0.29872748255729675 0.097323380410671234 0.0044597475789487362
0.34520596265792847 0.091034524142742157 0.0030231133569031954
0.39271754026412964 0.082344904541969299 0.001594130415469408
0.43668055534362793 0.072694763541221619 0.00076425966108217835
0.48521304130554199 0.058922570198774338 0.00022429364616982639
0.52883803844451904 0.044795893132686615 2.8582011509570293e-05
0.57532644271850586 0.029924504458904266 1.2343951993898372e-06
0.61902248859405518 0.019477348774671555 4.397596597982556e-08
0.66171824932098389 0.013034816831350327 0
0.69822490215301514 0.011402837000787258 0
0.73579138517379761 0.012671065516769886 0
0.76752829551696777 0.018343094736337662 0
0.80070346593856812 0.030957086011767387 0
0.83141100406646729 0.053744789212942123 0
0.85900717973709106 0.080983199179172516 0
0.88669788837432861 0.10903141647577286 0
0.91180026531219482 0.13469314575195312 0
0.93749040365219116 0.16063609719276428 0
0.96101105213165283 0.18446153402328491 0
0.98442971706390381 0.20863911509513855 0
0.99911743402481079 0.23120401799678802 0
0.99999940395355225 0.25352197885513306 0
1 0.27249383926391602 0
6.8821104832750279e-06 0.13493876159191132 0.011853775009512901
0.00083721906412392855 0.13415178656578064 0.012326519936323166
0.01085760910063982 0.13363294303417206 0.012869569472968578
0.039342254400253296 0.13462011516094208 0.012101130560040474
0.077205091714859009 0.13580282032489777 0.010713665746152401
0.11569098383188248 0.13766482472419739 0.0088804410770535469
0.16114489734172821 0.14191429316997528 0.0054658153094351292
0.20586253702640533 0.14411956071853638 0.0028944697696715593
0.25232556462287903 0.14180579781532288 0.0016070553101599216
0.29661509394645691 0.1366843581199646 0.00084008328849449754
0.34485331177711487 0.13008482754230499 0.0003232826420571655
0.39293187856674194 0.12373986095190048 0.00013620352547150105
0.43695300817489624 0.11819490045309067 5.284594590193592e-05
0.48463109135627747 0.11113059520721436 3.5139225929015083e-06
0.52789193391799927 0.10427820682525635 6.7114484636476845e-08
0.57399046421051025 0.09615933895111084 0
0.61730051040649414 0.089261144399642944 0
0.65961277484893799 0.083725981414318085 0
0.69590276479721069 0.082443565130233765 0
0.73322033882141113 0.085497796535491943 0
0.76488131284713745 0.09312121570110321 0
0.79776215553283691 0.10522332787513733 0
0.82886648178100586 0.12105721235275269 0
0.85641294717788696 0.13758958876132965 0
0.88418197631835938 0.15693442523479462 0
0.90952271223068237 0.17599479854106903 0
0.93494278192520142 0.19667747616767883 0
0.95840048789978027 0.21647956967353821 0
0.98206228017807007 0.23699149489402771 0
0.99870234727859497 0.2570645809173584 0
1 0.27702495455741882 0
0.99997460842132568 0.29412552714347839 0
0 0.17011639475822449 0.0058119380846619606
2.1645005290338304e-06 0.16921746730804443 0.0064235758036375046
0.00043898780131712556 0.16841812431812286 0.0074179545044898987
0.014643042348325253 0.16881664097309113 0.0070899529382586479
0.056725148111581802 0.17011156678199768 0.0056193852797150612
0.10138052701950073 0.17175744473934174 0.0041588642634451389
0.1465422660112381 0.17319434881210327 0.0023699675220996141
0.19416113197803497 0.17773151397705078 0.00071798049611970782
0.24639470875263214 0.18233777582645416 6.5703308791853487e-05
0.29205429553985596 0.18086646497249603 6.9351103775261436e-06
0.34143725037574768 0.17620642483234406 1.8618197827890981e-06
0.39131650328636169 0.16939519345760345 3.5283044041989342e-08
0.43627536296844482 0.16315095126628876 0
0.48378729820251465 0.15814208984375 0
0.5264739990234375 0.15443262457847595 0
0.57218968868255615 0.15069858729839325 0
0.61505347490310669 0.14771881699562073 0
0.65705567598342896 0.14610575139522552 0
0.69300073385238647 0.1464836448431015 0
0.72983741760253906 0.14957882463932037 0
0.76142704486846924 0.15468035638332367 0
0.79428720474243164 0.16321024298667908 0
0.82511645555496216 0.17428578436374664 0
0.85251343250274658 0.1865609884262085 0
0.88083732128143311 0.20162595808506012 0
0.90610778331756592 0.21680131554603577 0
0.93172883987426758 0.23373043537139893 0
0.95541799068450928 0.25063326954841614 0
0.9790530800819397 0.26821061968803406 0
0.99762153625488281 0.28579592704772949 0
1 0.30336633324623108 0
0.99999904632568359 0.31868460774421692 0
0 0.20642276108264923 0.001338689005933702
0 0.2056712806224823 0.0013648603344336152
0 0.20423369109630585 0.0018158785533159971
0.0019936047028750181 0.20387394726276398 0.0019948738627135754
0.027006784453988075 0.20519353449344635 0.0014858631184324622
0.080785550177097321 0.20644837617874146 0.00075375870801508427
0.13278426229953766 0.20802842080593109 0.00029658773564733565
0.17949630320072174 0.20972760021686554 0.0001001384443952702
0.2327246218919754 0.2144770622253418 1.7201761011165217e-06
0.2846379280090332 0.21980544924736023 0
0.33620896935462952 0.21947447955608368 0
0.38653901219367981 0.21536315977573395 0
0.43206128478050232 0.20991583168506622 0
0.48116421699523926 0.20307604968547821 0
0.52407437562942505 0.19795127213001251 0
0.56956732273101807 0.19509601593017578 0
0.61180794239044189 0.19378256797790527 0
0.6536744236946106 0.19326038658618927 0
0.68935734033584595 0.19444161653518677 0
0.72631204128265381 0.19759880006313324 0
0.75746482610702515 0.20213162899017334 0
0.79043591022491455 0.20932228863239288 0
0.82130974531173706 0.21842426061630249 0
0.84907704591751099 0.22864270210266113 0
0.87723237276077271 0.24119827151298523 0
0.90262627601623535 0.25410094857215881 0
0.92847830057144165 0.26887106895446777 0
0.95218336582183838 0.28340789675712585 0
0.97610968351364136 0.29871240258216858 0
0.99610632658004761 0.31394192576408386 0
1 0.32880669832229614 0
0.99997496604919434 0.34248679876327515 0
0 0.24618326127529144 1.11861090772436e-05
0 0.24553671479225159 9.9333301477599889e-06
0 0.24435259401798248 2.2275151422945783e-05
1.2143900676164776e-05 0.24315306544303894 5.1347731641726568e-05
0.003477651160210371 0.24356111884117126 4.7644927690271288e-05
0.047738611698150635 0.24495129287242889 9.1931506176479161e-06
0.11320086568593979 0.24677903950214386 1.8490359252609778e-06
0.16463664174079895 0.24825252592563629 2.8635513515951061e-08
0.21674741804599762 0.24988412857055664 0
0.26842740178108215 0.25385299324989319 0
0.32807543873786926 0.26205292344093323 0
0.38039574027061462 0.26180383563041687 0
0.4262014627456665 0.25906574726104736 0
0.47559383511543274 0.25388506054878235 0
0.51950258016586304 0.24834978580474854 0
0.56566989421844482 0.24209928512573242 0
0.6082528829574585 0.23908385634422302 0
0.64966803789138794 0.23915925621986389 0
0.68493521213531494 0.24050229787826538 0
0.72151249647140503 0.2436937540769577 0
0.75273776054382324 0.24793428182601929 0
0.78555852174758911 0.25390204787254333 0
0.81667625904083252 0.2619265615940094 0
0.84447497129440308 0.27061593532562256 0
0.87266719341278076 0.28142914175987244 0
0.89797317981719971 0.29242751002311707 0
0.92404580116271973 0.30501359701156616 0
0.94785475730895996 0.31778547167778015 0
0.97217702865600586 0.33114227652549744 0
0.99385601282119751 0.34460079669952393 0
0.99998420476913452 0.35809719562530518 0
0.99999874830245972 0.37019073963165283 0
0 0.28485366702079773 0
0 0.28426516056060791 0
0 0.2833092212677002 0
0 0.28174135088920593 0
5.2680075896205381e-05 0.28073945641517639 0
0.017027644440531731 0.28180864453315735 0
0.08509528636932373 0.28348574042320251 0
0.14674100279808044 0.28509190678596497 0
0.20274867117404938 0.28670921921730042 0
0.25306275486946106 0.28791028261184692 0
0.31010863184928894 0.29258754849433899 0
0.37112075090408325 0.30066293478012085 0
0.41959553956985474 0.30198812484741211 0
0.46925351023674011 0.29942092299461365 0
0.51334959268569946 0.2955874502658844 0
0.55976414680480957 0.29085409641265869 0
0.60300207138061523 0.28515830636024475 0
0.64475762844085693 0.2814420759677887 0
0.68011742830276489 0.28144353628158569 0
0.71633011102676392 0.28415650129318237 0
0.74755346775054932 0.28782239556312561 0
0.78062719106674194 0.29327970743179321 0
0.81187987327575684 0.30044689774513245 0
0.83951598405838013 0.30813619494438171 0
0.86786562204360962 0.31788480281829834 0
0.89346909523010254 0.32758364081382751 0
0.91964280605316162 0.33881813287734985 0
0.94375741481781006 0.34990605711936951 0
0.96830320358276367 0.36168059706687927 0
0.99092930555343628 0.37340116500854492 0
0.99984192848205566 0.38472661375999451 0
1 0.39565920829772949 0
0 0.32663032412528992 0
0 0.32616180181503296 0
0 0.32505559921264648 0
0 0.32369431853294373 0
0 0.32169470191001892 0
0.0017370509449392557 0.32180210947990417 0
0.041891351342201233 0.32325276732444763 0
0.1208636611700058 0.32481524348258972 0
0.18535065650939941 0.32668176293373108 0
0.23838596045970917 0.32806989550590515 0
0.29370248317718506 0.3296377956867218 0
0.35113868117332458 0.33350381255149841 0
0.40793001651763916 0.34263688325881958 0
0.46140488982200623 0.34538516402244568 0
0.50583910942077637 0.34351065754890442 0
0.5524057149887085 0.34051433205604553 0
0.59558117389678955 0.33667382597923279 0
0.63772296905517578 0.3322121798992157 0
0.67358380556106567 0.32847154140472412 0
0.71056568622589111 0.32672742009162903 0
0.74183154106140137 0.32890689373016357 0
0.77441751956939697 0.33355775475502014 0
0.80581545829772949 0.34029901027679443 0
0.83392280340194702 0.34744590520858765 0
0.86222845315933228 0.35564890503883362 0
0.88798797130584717 0.36437317728996277 0
0.91446739435195923 0.37409940361976624 0
0.93860983848571777 0.38383713364601135 0
0.96343600749969482 0.39393576979637146 0
0.98691862821578979 0.40367966890335083 0
0.99935698509216309 0.41304588317871094 0
0.99995768070220947 0.42244541645050049 0
0 0.36868211627006531 0
0 0.36815142631530762 0
0 0.36693462729454041 0
0 0.36540323495864868 0
0 0.36341753602027893 0
1.5876399629632942e-05 0.36229690909385681 0
0.0086009828373789787 0.36307185888290405 0
0.081811875104904175 0.36448395252227783 0
0.16311335563659668 0.36642366647720337 0
0.22127616405487061 0.36782857775688171 0
0.27883586287498474 0.36942791938781738 0
0.3345450758934021 0.37088420987129211 0
0.38586971163749695 0.37358692288398743 0
0.44737237691879272 0.3829963207244873 0
0.49756923317909241 0.38797324895858765 0
0.54444944858551025 0.38706293702125549 0
0.58733099699020386 0.38449302315711975 0
0.62931972742080688 0.38154211640357971 0
0.66507124900817871 0.37867847084999084 0
0.70234531164169312 0.37499257922172546 0
0.73393058776855469 0.37274080514907837 0
0.7677798867225647 0.37368011474609375 0
0.79935544729232788 0.37865272164344788 0
0.82730764150619507 0.38474768400192261 0
0.85614550113677979 0.39233767986297607 0
0.88212817907333374 0.40004295110702515 0
0.90881597995758057 0.40851572155952454 0
0.93333137035369873 0.4171159565448761 0
0.9584624171257019 0.42598235607147217 0
0.98254638910293579 0.43463853001594543 0
0.99876338243484497 0.44305351376533508 0
0.99999457597732544 0.4512372612953186 0
0 0.40574327111244202 0
0 0.40546125173568726 0
0 0.40426874160766602 0
0 0.40265011787414551 0
0 0.40094301104545593 0
0 0.3988243043422699 0
0.00044836706365458667 0.3987744152545929 0
0.042427722364664078 0.39980795979499817 0
0.13855308294296265 0.40148800611495972 0
0.20398607850074768 0.40295618772506714 0
0.26511874794960022 0.40463769435882568 0
0.32204970717430115 0.40605705976486206 0
0.37202146649360657 0.4070812463760376 0
0.4271518886089325 0.40981584787368774 0
0.48313590884208679 0.41921260952949524 0
0.53630524873733521 0.42516952753067017 0
0.57973861694335938 0.42458921670913696 0
0.62141817808151245 0.42291185259819031 0
0.65688496828079224 0.42057770490646362 0
0.69404268264770508 0.41818270087242126 0
0.72613525390625 0.41600441932678223 0
0.76031744480133057 0.41425320506095886 0
0.79282283782958984 0.41449055075645447 0
0.82156199216842651 0.41811227798461914 0
0.85015875101089478 0.42409098148345947 0
0.87627708911895752 0.43113076686859131 0
0.90364426374435425 0.43878686428070068 0
0.9281238317489624 0.44627448916435242 0
0.95329302549362183 0.45398151874542236 0
0.97765785455703735 0.4609314501285553 0
0.99743598699569702 0.46839827299118042 0
0.99994724988937378 0.47582238912582397 0
0 0.44550320506095886 0
0 0.44491931796073914 0
0 0.44393324851989746 0
0 0.4428621232509613 0
0 0.44085296988487244 0
0 0.43871060013771057 0
0 0.43710654973983765 0
0.013698595575988293 0.43779200315475464 0
0.1033957302570343 0.43903860449790955 0
0.18279039859771729 0.44038724899291992 0
0.24889089167118073 0.44192636013031006 0
0.30779224634170532 0.44304561614990234 0
0.35869896411895752 0.44438770413398743 0
0.41241398453712463 0.44566211104393005 0
0.46104761958122253 0.44753965735435486 0
0.51868551969528198 0.45619821548461914 0
0.57042413949966431 0.46405717730522156 0
0.61287087202072144 0.46421509981155396 0
0.6482541561126709 0.46313750743865967 0
0.68524914979934692 0.46156448125839233 0
0.71735876798629761 0.4600939154624939 0
0.75183022022247314 0.45921653509140015 0
0.78463959693908691 0.45861712098121643 0
0.81350988149642944 0.45799359679222107 0
0.84329992532730103 0.45947304368019104 0
0.87022310495376587 0.46399673819541931 0
0.89732789993286133 0.470476895570755 0
0.92254698276519775 0.47699278593063354 0
0.94769006967544556 0.48350822925567627 0
0.97223502397537231 0.48983064293861389 0
0.9951331615447998 0.49645516276359558 0
0.99999594688415527 0.50290024280548096 0
0 0.48069697618484497 0
0 0.47980532050132751 0
0 0.47882223129272461 0
0 0.47778552770614624 0
0 0.47589829564094543 0
0 0.47380861639976501 0
0 0.4713742733001709 0
0.0026072538457810879 0.47092261910438538 0
0.063740178942680359 0.47208511829376221 0
0.16075552999973297 0.47308400273323059 0
0.23337911069393158 0.47421994805335999 0
0.29518809914588928 0.47575646638870239 0
0.34685972332954407 0.47685062885284424 0
0.40103298425674438 0.47798272967338562 0
0.4485689103603363 0.47906535863876343 0
0.49952265620231628 0.48077139258384705 0
0.55330091714859009 0.48920547962188721 0
0.60419142246246338 0.49803629517555237 0
0.64050137996673584 0.49830573797225952 0
0.67721885442733765 0.49781006574630737 0
0.70960325002670288 0.49725192785263062 0
0.74400705099105835 0.49685102701187134 0
0.77686184644699097 0.49626561999320984 0
0.80639296770095825 0.49665167927742004 0
0.83654928207397461 0.49652892351150513 0
0.8637734055519104 0.49649107456207275 0
0.89167249202728271 0.4991220235824585 0
0.91719263792037964 0.50420475006103516 0
0.94264411926269531 0.51000803709030151 0
0.96713042259216309 0.51545602083206177 0
0.99188077449798584 0.5212329626083374 0
0.99994313716888428 0.52714651823043823 0
0 0.51662880182266235 0
0 0.51599007844924927 0
0 0.51506131887435913 0
0 0.51389354467391968 0
0 0.51236516237258911 0
0 0.51047325134277344 0
0 0.50802087783813477 0
8.3110957348253578e-05 0.50627249479293823 0
0.027753734961152077 0.50615048408508301 0
0.13437956571578979 0.50737446546554565 0
0.2173723429441452 0.50862419605255127 0
0.28181561827659607 0.50944483280181885 0
0.33502951264381409 0.51057702302932739 0
0.38960725069046021 0.51176434755325317 0
0.43718650937080383 0.51234322786331177 0
0.48669201135635376 0.51336795091629028 0
0.53364557027816772 0.51508015394210815 0
0.58489280939102173 0.522014319896698 0
0.6299470067024231 0.53088408708572388 0
0.66903179883956909 0.53348666429519653 0
0.70117306709289551 0.53369748592376709 0
0.73605340719223022 0.53426855802536011 0
0.76899868249893188 0.53464645147323608 0
0.79820507764816284 0.5349469780921936 0
0.82843548059463501 0.53531450033187866 0
0.85591113567352295 0.53536880016326904 0
0.88397091627120972 0.53512156009674072 0
0.90981948375701904 0.53539156913757324 0
0.93587058782577515 0.53778040409088135 0
0.96102994680404663 0.54213303327560425 0
0.98702150583267212 0.54712432622909546 0
0.99942946434020996 0.5524783730506897 0
0 0.54950815439224243 0
0 0.54897075891494751 0
0 0.54796957969665527 0
0 0.54689013957977295 0
0 0.54554933309555054 0
0 0.54370748996734619 0
0 0.54138600826263428 0
0 0.53909462690353394 0
0.0090368427336215973 0.53771042823791504 0
0.10724880546331406 0.53857862949371338 0
0.20196206867694855 0.53955471515655518 0
0.27030292153358459 0.54041796922683716 0
0.32448366284370422 0.54105347394943237 0
0.37952294945716858 0.54211074113845825 0
0.42726704478263855 0.54276889562606812 0
0.47647133469581604 0.54352831840515137 0
0.52198714017868042 0.54438787698745728 0
0.56715697050094604 0.54575169086456299 0
0.61092418432235718 0.55182325839996338 0
0.65915071964263916 0.56252491474151611 0
0.69395160675048828 0.56640148162841797 0
0.72859030961990356 0.56781691312789917 0
0.76153039932250977 0.56896686553955078 0
0.79076623916625977 0.56961673498153687 0
0.8211829662322998 0.5702052116394043 0
0.84878891706466675 0.57067257165908813 0
0.87673211097717285 0.57054442167282104 0
0.9027131199836731 0.57024991512298584 0
0.92980659008026123 0.57004863023757935 0
0.95611029863357544 0.57064926624298096 0
0.98269367218017578 0.57342755794525146 0
0.99853026866912842 0.5778505802154541 0
0 0.58131468296051025 0
0 0.580788254737854 0
