LUTs/Fuji 160C 1-.cube
# Created by: G'MIC (https://gmic.eu)
TITLE "Fuji 160C 1-"
# LUT size
LUT_3D_SIZE 5
# Data domain
# LUT data points
DOMAIN_MIN 0.000000 0.000000 0.000000
DOMAIN_MAX 0.903226 0.903226 0.903226
0.010284588672220707 0.010500198230147362 0.011091652326285839
0.24786126613616943 0.15204940736293793 0.089026980102062225
0.50485676527023315 0.27385291457176208 0.23793187737464905
0.75543642044067383 0.32694277167320251 0.32895258069038391
0.88378852605819702 0.30438178777694702 0.30687975883483887
0.15437124669551849 0.25933706760406494 0.11200673878192902
0.3167622983455658 0.33437591791152954 0.16917906701564789
0.57862454652786255 0.43942734599113464 0.31214934587478638
0.79103279113769531 0.47068428993225098 0.38294199109077454
0.88737225532531738 0.45991900563240051 0.34412172436714172
0.28351202607154846 0.49775815010070801 0.20607809722423553
0.4261840283870697 0.55915403366088867 0.2413179874420166
0.61611133813858032 0.63766014575958252 0.33191761374473572
0.78854167461395264 0.64297699928283691 0.36793902516365051
0.8989676833152771 0.64476978778839111 0.34334471821784973
0.31517502665519714 0.65588665008544922 0.21207982301712036
0.47528868913650513 0.68431264162063599 0.26497602462768555
0.63709157705307007 0.7446514368057251 0.34259122610092163
0.79281675815582275 0.76349622011184692 0.36091095209121704
0.91459107398986816 0.76956713199615479 0.35580819845199585
0.29782980680465698 0.80271154642105103 0.20325027406215668
0.467824786901474 0.8142850399017334 0.25697606801986694
0.62110114097595215 0.83371108770370483 0.3171820342540741
0.77974635362625122 0.8572540283203125 0.34405016899108887
0.92863994836807251 0.87744945287704468 0.35551631450653076
0.099529556930065155 0.074301540851593018 0.28876879811286926
0.31869447231292725 0.18958364427089691 0.32747051119804382
0.59432625770568848 0.33810874819755554 0.41606369614601135
0.7959892749786377 0.38620582222938538 0.47240674495697021
0.88676506280899048 0.34870722889900208 0.44603529572486877
0.21521696448326111 0.30260065197944641 0.31690141558647156
0.4118812084197998 0.38667985796928406 0.36987504363059998
0.70053064823150635 0.47982621192932129 0.47753062844276428
0.8409353494644165 0.52997857332229614 0.52861905097961426
0.90267914533615112 0.51377791166305542 0.49722972512245178
0.34984672069549561 0.54791891574859619 0.37419497966766357
0.48774531483650208 0.62511008977890015 0.41585952043533325
0.68089556694030762 0.69394171237945557 0.43037149310112
0.843788743019104 0.69339472055435181 0.50176060199737549
0.92854565382003784 0.6827741265296936 0.50472438335418701
0.37565779685974121 0.68666177988052368 0.38399189710617065
0.53469204902648926 0.71620923280715942 0.40834227204322815
0.68073326349258423 0.77904456853866577 0.46007758378982544
0.82777035236358643 0.79834163188934326 0.5009458065032959
0.93070518970489502 0.80486792325973511 0.50883615016937256
0.34649425745010376 0.82382005453109741 0.36813592910766602
0.51319342851638794 0.82478326559066772 0.39593788981437683
0.65549391508102417 0.84151899814605713 0.45627704262733459
0.8004881739616394 0.86540067195892334 0.50160574913024902
0.94246876239776611 0.88363736867904663 0.51914292573928833
0.28338116407394409 0.19340434670448303 0.58305162191390991
0.40393519401550293 0.25340217351913452 0.61592024564743042
0.61672413349151611 0.36321258544921875 0.60636085271835327
0.79751646518707275 0.40709581971168518 0.58598870038986206
0.89567381143569946 0.37729170918464661 0.56801140308380127
0.34196072816848755 0.34313106536865234 0.61049646139144897
0.49140664935112 0.39599564671516418 0.6737787127494812
0.71096086502075195 0.52602148056030273 0.67072731256484985
0.85611259937286377 0.57316941022872925 0.63341861963272095
0.92362475395202637 0.5555076003074646 0.60389572381973267
0.39834088087081909 0.53696620464324951 0.62354695796966553
0.55282235145568848 0.61583209037780762 0.66973960399627686
0.7492479681968689 0.73000752925872803 0.71989870071411133
0.94642496109008789 0.72253906726837158 0.70119112730026245
0.96751350164413452 0.69908678531646729 0.6319657564163208
0.41497796773910522 0.70451343059539795 0.60167503356933594
0.58318912982940674 0.7430071234703064 0.6375577449798584
0.7123604416847229 0.81155133247375488 0.65851962566375732
0.84473162889480591 0.85197579860687256 0.6401897668838501
0.97124701738357544 0.85634392499923706 0.6241222620010376
0.37738904356956482 0.83550161123275757 0.5772252082824707
0.55239266157150269 0.84372353553771973 0.60080772638320923
0.69845080375671387 0.8686937689781189 0.61322736740112305
0.80823469161987305 0.90299797058105469 0.63817799091339111
0.95439630746841431 0.91020530462265015 0.64675402641296387
0.38993534445762634 0.2855592668056488 0.74403870105743408
0.51572126150131226 0.34034755825996399 0.78540188074111938
0.6340339183807373 0.38632535934448242 0.81357628107070923
0.75065213441848755 0.39566352963447571 0.77904516458511353
0.8817409873008728 0.37640684843063354 0.74312871694564819
0.46342176198959351 0.41932010650634766 0.78891432285308838
0.61979961395263672 0.4778016209602356 0.84284347295761108
0.71141529083251953 0.54629313945770264 0.85815876722335815
0.78815525770187378 0.56981050968170166 0.80999183654785156
0.89126110076904297 0.5555383563041687 0.77536475658416748
0.43934300541877747 0.57922947406768799 0.79836481809616089
0.58064395189285278 0.62777918577194214 0.84672671556472778
0.75921833515167236 0.70027792453765869 0.88915985822677612
0.83683443069458008 0.73053425550460815 0.8484426736831665
0.90449470281600952 0.7155613899230957 0.79871338605880737
0.42328786849975586 0.69775700569152832 0.79407179355621338
0.57111096382141113 0.71852767467498779 0.82607245445251465
0.7204781174659729 0.78783637285232544 0.84315371513366699
0.87291014194488525 0.87400102615356445 0.86593198776245117
0.94279235601425171 0.8575063943862915 0.8017544150352478
0.37710309028625488 0.81697732210159302 0.77252447605133057
0.54408955574035645 0.82291632890701294 0.78931552171707153
0.71775341033935547 0.87159794569015503 0.8056262731552124
0.82954984903335571 0.91717064380645752 0.80350381135940552
0.92681646347045898 0.94789773225784302 0.78246760368347168
0.39717176556587219 0.30743497610092163 0.87923842668533325
0.53850769996643066 0.35718482732772827 0.89372676610946655
0.66057205200195312 0.40798112750053406 0.93002974987030029
0.76035481691360474 0.40827739238739014 0.94485032558441162
0.86973178386688232 0.36321863532066345 0.93799704313278198
0.44965603947639465 0.44539731740951538 0.89598280191421509
0.61349350214004517 0.49789214134216309 0.91625535488128662
0.72009646892547607 0.56550920009613037 0.95149213075637817
0.79177761077880859 0.58447343111038208 0.96379703283309937
0.86971241235733032 0.54083722829818726 0.94803410768508911
0.41029402613639832 0.58447587490081787 0.89120185375213623
0.57156789302825928 0.62585407495498657 0.90853673219680786
0.78477251529693604 0.69622170925140381 0.98115694522857666
0.82896584272384644 0.72499221563339233 0.97739982604980469
0.88452517986297607 0.71376711130142212 0.95257282257080078
0.4073491096496582 0.69774061441421509 0.9009697437286377
0.56736338138580322 0.71966123580932617 0.90933644771575928
0.7444460391998291 0.77495485544204712 0.94591730833053589
0.87128967046737671 0.84462141990661621 0.98795783519744873
0.92345947027206421 0.85962766408920288 0.95572137832641602
0.37625196576118469 0.8223300576210022 0.90163308382034302
0.54721730947494507 0.82940995693206787 0.9101528525352478
0.72512394189834595 0.8653985857963562 0.92667794227600098
0.8495667576789856 0.90381616353988647 0.94102412462234497
0.94542431831359863 0.94917905330657959 0.94514966011047363
