LUTs/Fuji Superia 400 1 -.cube
# Created by: G'MIC (https://gmic.eu)
TITLE "Fuji Superia 400 1 -"
# LUT size
LUT_3D_SIZE 5
# Data domain
# LUT data points
DOMAIN_MIN 0.000000 0.000000 0.000000
DOMAIN_MAX 0.903226 0.903226 0.903226
0 0.01996338926255703 0.020762084051966667
0.15387746691703796 0.043123509734869003 0.019011188298463821
0.48952066898345947 0 0.0033109588548541069
0.80105441808700562 0 0
0.99889540672302246 0.112916000187397 0
0 0.17269206047058105 0.060269340872764587
0.14967720210552216 0.2240879088640213 0.01407809741795063
0.52712154388427734 0.21012304723262787 0
0.80396252870559692 0.21219496428966522 0
0.99819386005401611 0.2857339084148407 0
0 0.45801493525505066 0.1751280277967453
0.12784850597381592 0.46532899141311646 0.1808706670999527
0.49963942170143127 0.56965327262878418 0.026666522026062012
0.81907188892364502 0.55879068374633789 0
0.98838669061660767 0.50340712070465088 0
0.22889813780784607 0.67747414112091064 0.35802111029624939
0.30265653133392334 0.67536413669586182 0.36267000436782837
0.46446779370307922 0.70932513475418091 0.35140714049339294
0.75601887702941895 0.78481912612915039 0.29141494631767273
0.99405151605606079 0.80748814344406128 0.13022063672542572
0.55264610052108765 0.87310749292373657 0.60031545162200928
0.57768791913986206 0.87202978134155273 0.60302275419235229
0.6412627100944519 0.8710862398147583 0.61114263534545898
0.76384949684143066 0.90576595067977905 0.605507493019104
0.92023509740829468 0.93766558170318604 0.58659511804580688
0.00018948504293803126 0.029886262491345406 0.17244777083396912
0.16053794324398041 0.052216503769159317 0.17082345485687256
0.49019965529441833 0.000184538250323385 0.18182022869586945
0.79879117012023926 0.047844007611274719 0.20215100049972534
0.99727296829223633 0.21582390367984772 0.20062404870986938
8.6980367086653132e-07 0.21059127151966095 0.19817857444286346
0.20168125629425049 0.23386181890964508 0.21672795712947845
0.54247558116912842 0.25125241279602051 0.21618486940860748
0.80243861675262451 0.26759016513824463 0.19912093877792358
0.99643969535827637 0.33048468828201294 0.1846059262752533
0.16581200063228607 0.49618032574653625 0.32366707921028137
0.26062437891960144 0.49669435620307922 0.32449212670326233
0.52064234018325806 0.56793063879013062 0.29325354099273682
0.8027990460395813 0.53520417213439941 0.16833017766475677
0.98849433660507202 0.51844584941864014 0.10880563408136368
0.31556475162506104 0.69360053539276123 0.44088003039360046
0.37100762128829956 0.69163823127746582 0.44432413578033447
0.49507135152816772 0.70739531517028809 0.44323068857192993
0.7602611780166626 0.78431284427642822 0.41737139225006104
0.98807460069656372 0.80073255300521851 0.32480534911155701
0.57852137088775635 0.87636786699295044 0.6347159743309021
0.60152333974838257 0.87577813863754272 0.63740342855453491
0.65870010852813721 0.87284386157989502 0.64360100030899048
0.77093499898910522 0.90438485145568848 0.64506393671035767
0.92109423875808716 0.93767291307449341 0.6360136866569519
0 0.051642086356878281 0.48569092154502869
0.19261328876018524 0.067860588431358337 0.48734584450721741
0.50577163696289062 0.121377132833004 0.49371841549873352
0.76305961608886719 0.17439575493335724 0.4906623363494873
0.9927603006362915 0.22489932179450989 0.48486047983169556
0 0.2182900458574295 0.51428824663162231
0.24719029664993286 0.25909733772277832 0.52369821071624756
0.53361320495605469 0.31584247946739197 0.52068322896957397
0.77538514137268066 0.34147718548774719 0.51540493965148926
0.99321579933166504 0.3509775698184967 0.49039870500564575
0.063173346221446991 0.52864307165145874 0.52284109592437744
0.30161750316619873 0.54286259412765503 0.53689676523208618
0.55060374736785889 0.56077724695205688 0.55392259359359741
0.78441047668457031 0.55429208278656006 0.52910661697387695
0.97690320014953613 0.56713199615478516 0.50958621501922607
0.45601800084114075 0.72559136152267456 0.59996682405471802
0.51244258880615234 0.72848743200302124 0.61002784967422485
0.58116310834884644 0.7221909761428833 0.60163944959640503
0.77210056781768799 0.78303283452987671 0.60847842693328857
0.97105038166046143 0.77359980344772339 0.52901238203048706
0.63825643062591553 0.88680803775787354 0.71463793516159058
0.65262013673782349 0.88606953620910645 0.7132759690284729
0.70002084970474243 0.88289690017700195 0.71578872203826904
0.7853357195854187 0.89889878034591675 0.7234039306640625
0.92439162731170654 0.93769693374633789 0.73172104358673096
0.070500679314136505 0.092492781579494476 0.73797661066055298
0.31356316804885864 0.11202843487262726 0.74190378189086914
0.57351183891296387 0.19201231002807617 0.73698621988296509
0.78098469972610474 0.30118668079376221 0.73199623823165894
0.95227509737014771 0.37934750318527222 0.72862541675567627
0.18474030494689941 0.26968514919281006 0.74977725744247437
0.35377213358879089 0.28850749135017395 0.75057023763656616
0.58761394023895264 0.34401950240135193 0.74444377422332764
0.78430968523025513 0.42219629883766174 0.74033659696578979
0.94965767860412598 0.47279524803161621 0.73746120929718018
0 0.48603096604347229 0.74021178483963013
0.24634078145027161 0.49841567873954773 0.74615776538848877
0.57488369941711426 0.54941642284393311 0.74884456396102905
0.7807002067565918 0.60535979270935059 0.75050413608551025
0.94413608312606812 0.63385838270187378 0.75581103563308716
0.38454967737197876 0.74474674463272095 0.73972922563552856
0.45893833041191101 0.74860376119613647 0.74404478073120117
0.60914897918701172 0.75648760795593262 0.75299310684204102
0.78827762603759766 0.77580529451370239 0.77248519659042358
0.94792807102203369 0.77083081007003784 0.75370299816131592
0.69308245182037354 0.90015518665313721 0.81217676401138306
0.71471071243286133 0.90066218376159668 0.81500619649887085
0.7679218053817749 0.9012531042098999 0.82200229167938232
0.82037806510925293 0.89940214157104492 0.81912809610366821
0.93264180421829224 0.93814992904663086 0.83968603610992432
0.45039564371109009 0.23344160616397858 0.92563211917877197
0.52725958824157715 0.25658142566680908 0.92387866973876953
0.68180006742477417 0.32609078288078308 0.91878962516784668
0.84451091289520264 0.44922554492950439 0.91129505634307861
0.9683525562286377 0.54408735036849976 0.90772360563278198
0.45693984627723694 0.35676312446594238 0.92470836639404297
0.5320780873298645 0.37524914741516113 0.92402678728103638
0.68159949779510498 0.42434453964233398 0.91862547397613525
0.84176182746887207 0.51973050832748413 0.91151893138885498
0.96239787340164185 0.59907227754592896 0.90804493427276611
0.36971300840377808 0.52141022682189941 0.91940724849700928
0.48242178559303284 0.5429837703704834 0.91895824670791626
0.65896773338317871 0.57734543085098267 0.91601192951202393
0.83144450187683105 0.64398163557052612 0.91163879632949829
0.95059001445770264 0.7048877477645874 0.90988796949386597
0.27945199608802795 0.72467845678329468 0.9099963903427124
0.36132025718688965 0.7216031551361084 0.9109795093536377
0.53118783235549927 0.71287345886230469 0.91194576025009155
0.80131751298904419 0.76662200689315796 0.91243469715118408
0.9396291971206665 0.82363730669021606 0.91587251424789429
0.63751459121704102 0.91327440738677979 0.91150021553039551
0.66486412286758423 0.91358566284179688 0.91225254535675049
0.73575884103775024 0.91546612977981567 0.91480207443237305
0.83605724573135376 0.92054593563079834 0.92078274488449097
0.94205200672149658 0.93495935201644897 0.93408584594726562
