LUTs/Fuji Superia 100 3+.cube
# Created by: G'MIC (https://gmic.eu)
TITLE "Fuji Superia 100 3+"
# LUT size
LUT_3D_SIZE 5
# Data domain
# LUT data points
DOMAIN_MIN 0.000000 0.000000 0.000000
DOMAIN_MAX 0.903226 0.903226 0.903226
0.00027219054754823446 0.035957172513008118 0.045081254094839096
0.15591526031494141 0.1327088326215744 0.10647359490394592
0.44447979331016541 0.2240447998046875 0.20673647522926331
0.71851867437362671 0.25907233357429504 0.27174463868141174
0.85363364219665527 0.23983959853649139 0.25048226118087769
0.084185503423213959 0.24341718852519989 0.14010334014892578
0.21415945887565613 0.30603539943695068 0.17129792273044586
0.5261613130569458 0.38972464203834534 0.2705208957195282
0.75440245866775513 0.39519166946411133 0.31796962022781372
0.8601677417755127 0.39682906866073608 0.29098847508430481
0.21643291413784027 0.49484807252883911 0.21867907047271729
0.36648955941200256 0.56868255138397217 0.25817069411277771
0.59148579835891724 0.63527888059616089 0.35056337714195251
0.78219926357269287 0.61598247289657593 0.35698398947715759
0.89862102270126343 0.62007468938827515 0.33572566509246826
0.28295508027076721 0.66311246156692505 0.23082976043224335
0.44920006394386292 0.69451326131820679 0.29591107368469238
0.63194364309310913 0.75198215246200562 0.39055755734443665
0.79788285493850708 0.75625425577163696 0.38498622179031372
0.92007726430892944 0.75861269235610962 0.37035241723060608
0.28208982944488525 0.80976361036300659 0.2266998291015625
0.45878517627716064 0.8223576545715332 0.29228171706199646
0.62214618921279907 0.8395007848739624 0.35962361097335815
0.78650248050689697 0.85465317964553833 0.37546512484550476
0.93273919820785522 0.8715813159942627 0.37914466857910156
0.0027414194773882627 0.054563313722610474 0.31630963087081909
0.2070017009973526 0.14426088333129883 0.33643993735313416
0.53892022371292114 0.27162352204322815 0.37567624449729919
0.75534951686859131 0.30430340766906738 0.4025593101978302
0.85389178991317749 0.27701264619827271 0.38342389464378357
0.076128527522087097 0.27380910515785217 0.33089819550514221
0.30747717618942261 0.32730650901794434 0.34451305866241455
0.64231640100479126 0.37978875637054443 0.40355303883552551
0.7943156361579895 0.42868539690971375 0.4393828809261322
0.87081396579742432 0.4352511465549469 0.42886558175086975
0.29865938425064087 0.53635525703430176 0.38347521424293518
0.44517716765403748 0.62569808959960938 0.44281265139579773
0.65629541873931885 0.68754595518112183 0.45435887575149536
0.83555722236633301 0.65402501821517944 0.47842499613761902
0.92394816875457764 0.63967859745025635 0.47838291525840759
0.35796302556991577 0.686931312084198 0.40751251578330994
0.52053356170654297 0.72282814979553223 0.44849357008934021
0.67907106876373291 0.79319387674331665 0.53373235464096069
0.83717501163482666 0.79168999195098877 0.53867208957672119
0.9376257061958313 0.79311269521713257 0.53235107660293579
0.34137025475502014 0.828693687915802 0.3984338641166687
0.51071339845657349 0.83336877822875977 0.44023174047470093
0.66224771738052368 0.85087347030639648 0.51480841636657715
0.81313639879226685 0.86635017395019531 0.55491513013839722
0.94742417335510254 0.87878179550170898 0.55566036701202393
0.037488501518964767 0.10061562806367874 0.67860609292984009
0.19091275334358215 0.15156137943267822 0.70128625631332397
0.54906749725341797 0.29700466990470886 0.60461264848709106
0.75688266754150391 0.33273455500602722 0.52850788831710815
0.86587822437286377 0.31113415956497192 0.51224899291992188
0.16004173457622528 0.28158938884735107 0.68348497152328491
0.32854771614074707 0.31257778406143188 0.75543791055679321
0.65159296989440918 0.45255798101425171 0.65524792671203613
0.80960315465927124 0.47408846020698547 0.55306160449981689
0.89492714405059814 0.478046715259552 0.53719288110733032
0.32262915372848511 0.51534157991409302 0.65585541725158691
0.50396984815597534 0.59203904867172241 0.68768161535263062
0.71247225999832153 0.67301076650619507 0.69043213129043579
0.91296136379241943 0.61918783187866211 0.61358070373535156
0.95522087812423706 0.6342322826385498 0.58031809329986572
0.40358978509902954 0.6906629204750061 0.61442989110946655
0.58382904529571533 0.72746998071670532 0.65465015172958374
0.73889052867889404 0.81353563070297241 0.71320080757141113
0.86528044939041138 0.85263007879257202 0.70445942878723145
0.97352093458175659 0.84388083219528198 0.66372382640838623
0.37897688150405884 0.8278544545173645 0.59244126081466675
0.56269890069961548 0.83914393186569214 0.62810808420181274
0.71920281648635864 0.87410873174667358 0.67300212383270264
0.83843469619750977 0.91101491451263428 0.73526066541671753
0.96122640371322632 0.9092288613319397 0.71151143312454224
0.23172546923160553 0.2059791088104248 0.8017277717590332
0.36888459324836731 0.25584667921066284 0.83641600608825684
0.53395766019821167 0.32034590840339661 0.83532792329788208
0.70487344264984131 0.35095584392547607 0.77088063955307007
0.85396987199783325 0.33127638697624207 0.71496236324310303
0.33659768104553223 0.3482220470905304 0.83375817537307739
0.4641362726688385 0.38910657167434692 0.89033365249633789
0.61657613515853882 0.48050960898399353 0.87437319755554199
0.7457658052444458 0.51916730403900146 0.79845708608627319
0.86341315507888794 0.50642907619476318 0.74582046270370483
0.38466823101043701 0.5615808367729187 0.82595503330230713
0.52048605680465698 0.60819756984710693 0.87895661592483521
0.71225088834762573 0.66128706932067871 0.90554237365722656
0.81155717372894287 0.68790203332901001 0.83864986896514893
0.8884657621383667 0.6808733344078064 0.78429132699966431
0.40972152352333069 0.68765944242477417 0.80935513973236084
0.56454324722290039 0.70843964815139771 0.84376800060272217
0.73248016834259033 0.77642935514450073 0.85682255029678345
0.87574392557144165 0.84527254104614258 0.86224091053009033
0.93745303153991699 0.8426285982131958 0.81897199153900146
0.37360689043998718 0.80815762281417847 0.78227877616882324
0.54631501436233521 0.81358438730239868 0.79990935325622559
0.73860353231430054 0.86210101842880249 0.82300716638565063
0.8727298378944397 0.92131394147872925 0.86222511529922485
0.94897240400314331 0.94783854484558105 0.86407566070556641
0.30432426929473877 0.2535494863986969 0.90545517206192017
0.44344788789749146 0.29984563589096069 0.91575384140014648
0.58705896139144897 0.35836100578308105 0.93523818254470825
0.71681004762649536 0.37346151471138 0.94083887338638306
0.84074944257736206 0.33666262030601501 0.93248277902603149
0.36525553464889526 0.39672613143920898 0.91546034812927246
0.51449477672576904 0.43628606200218201 0.93182426691055298
0.63713586330413818 0.50725114345550537 0.95208221673965454
0.74410837888717651 0.54307985305786133 0.95586508512496948
0.84117919206619263 0.51290613412857056 0.94071996212005615
0.37350630760192871 0.56877142190933228 0.90871286392211914
0.53246217966079712 0.60355687141418457 0.92376512289047241
0.71272867918014526 0.63759410381317139 0.9738425612449646
0.7955009937286377 0.6911085844039917 0.96437680721282959
0.86719876527786255 0.69202464818954468 0.94392877817153931
0.39232403039932251 0.68743723630905151 0.91310983896255493
0.55872815847396851 0.70838916301727295 0.92141264677047729
0.73847818374633789 0.75907939672470093 0.94347679615020752
0.869282066822052 0.83041536808013916 0.97406160831451416
0.91641128063201904 0.84441989660263062 0.94915461540222168
0.37231636047363281 0.81536769866943359 0.90937262773513794
0.54867780208587646 0.82247352600097656 0.91565829515457153
0.73688405752182007 0.85913294553756714 0.9272305965423584
0.87140047550201416 0.8998151421546936 0.94174289703369141
0.95112061500549316 0.93854963779449463 0.94593018293380737
