LUTs/Fuji Astia 100F.cube
# Created by: G'MIC (https://gmic.eu)
TITLE "Fuji Astia 100F"
# LUT size
LUT_3D_SIZE 32
# Data domain
DOMAIN_MIN 0.0 0.0 0.0
DOMAIN_MAX 1.0 1.0 1.0
# LUT data points
0.003680775873363018 0.0052121956832706928 0.0048665879294276237
0.023053685203194618 0.0087041407823562622 0.0031330599449574947
0.051364995539188385 0.016736075282096863 0.0035337882582098246
0.082612641155719757 0.031485948711633682 0.0073885065503418446
0.11382188647985458 0.047259565442800522 0.013444574549794197
0.14405389130115509 0.064729325473308563 0.022105516865849495
0.17371679842472076 0.085520707070827484 0.034435857087373734
0.20370182394981384 0.10552489012479782 0.04917372390627861
0.23486591875553131 0.12240282446146011 0.065550312399864197
0.26752948760986328 0.13736744225025177 0.082274213433265686
0.3012959361076355 0.15159006416797638 0.098220698535442352
0.33577612042427063 0.16527765989303589 0.11247327923774719
0.37066122889518738 0.17787283658981323 0.12459242343902588
0.40573772788047791 0.18910348415374756 0.13514070212841034
0.44114714860916138 0.1994873583316803 0.14492550492286682
0.47678157687187195 0.2093784511089325 0.1545865535736084
0.51285916566848755 0.21844235062599182 0.16420497000217438
0.54908329248428345 0.22656215727329254 0.17394310235977173
0.584270179271698 0.23290303349494934 0.18327896296977997
0.61828815937042236 0.23690718412399292 0.19126367568969727
0.65155172348022461 0.2392909973859787 0.19803009927272797
0.68331301212310791 0.24117060005664825 0.20401106774806976
0.71285420656204224 0.24189825356006622 0.20845925807952881
0.7410966157913208 0.24195478856563568 0.21196812391281128
0.76660466194152832 0.24133028090000153 0.21427986025810242
0.78791117668151855 0.2394421398639679 0.21465033292770386
0.80604386329650879 0.23623026907444 0.21313007175922394
0.82278090715408325 0.23222367465496063 0.21040454506874084
0.83925563097000122 0.22775651514530182 0.20692785084247589
0.85604941844940186 0.22300441563129425 0.20295724272727966
0.87339389324188232 0.21813423931598663 0.19871664047241211
0.89143067598342896 0.21315649151802063 0.19427481293678284
0.0098829707130789757 0.017918525263667107 0.007907448336482048
0.023330070078372955 0.015870947390794754 0.0019610235467553139
0.052095547318458557 0.018570147454738617 0.0011197954881936312
0.083770930767059326 0.03225981816649437 0.0048586013726890087
0.11469703912734985 0.049500029534101486 0.011118164286017418
0.14464856684207916 0.069941483438014984 0.019715996459126472
0.17374143004417419 0.093534745275974274 0.032533209770917892
0.20381151139736176 0.11375897377729416 0.048977736383676529
0.2358107715845108 0.13101866841316223 0.067298933863639832
0.26912060379981995 0.14725299179553986 0.085352219641208649
0.30330583453178406 0.16290853917598724 0.10196395963430405
0.33814820647239685 0.17783689498901367 0.11628076434135437
0.37307807803153992 0.19120201468467712 0.12821726500988007
0.40835762023925781 0.2032666951417923 0.13872551918029785
0.44402235746383667 0.2149917334318161 0.14890694618225098
0.48008149862289429 0.22610601782798767 0.15904392302036285
0.51663351058959961 0.23637944459915161 0.16935037076473236
0.55266547203063965 0.24516838788986206 0.17971791326999664
0.58735328912734985 0.25131016969680786 0.18901637196540833
0.62113136053085327 0.25521153211593628 0.19690947234630585
0.65433067083358765 0.25783848762512207 0.20383305847644806
0.68578016757965088 0.26005646586418152 0.20989479124546051
0.71544873714447021 0.26118788123130798 0.21448437869548798
0.74370914697647095 0.26181992888450623 0.21828870475292206
0.76861381530761719 0.26141217350959778 0.22052302956581116
0.78899002075195312 0.25945049524307251 0.22050860524177551
0.8063514232635498 0.25620469450950623 0.21861910820007324
0.82251542806625366 0.25223937630653381 0.21557393670082092
0.8385617733001709 0.24788306653499603 0.2118203192949295
0.85496151447296143 0.2433735728263855 0.20768424868583679
0.87193852663040161 0.23872822523117065 0.20326440036296844
0.88970565795898438 0.23388348519802094 0.1985614001750946
0.023734332993626595 0.040594752877950668 0.013302532024681568
0.033441528677940369 0.03804435208439827 0.0064023653976619244
0.052760321646928787 0.036385655403137207 0.00072365853702649474
0.086542882025241852 0.041531357914209366 0.0017200156580656767
0.11780425161123276 0.054335765540599823 0.0066746878437697887
0.14587908983230591 0.078384160995483398 0.015542672947049141
0.17474403977394104 0.10156691819429398 0.030582290142774582
0.20640657842159271 0.1213456392288208 0.050465580075979233
0.23963877558708191 0.13988897204399109 0.070848964154720306
0.27361640334129333 0.15774789452552795 0.089998327195644379
0.3085138201713562 0.17506356537342072 0.10686683654785156
0.34341827034950256 0.19094996154308319 0.12060637027025223
0.378530353307724 0.20505957305431366 0.13210421800613403
0.41430783271789551 0.21873074769973755 0.14297784864902496
0.4505581259727478 0.23214983940124512 0.15388721227645874
0.48730570077896118 0.24467657506465912 0.16488225758075714
0.52381634712219238 0.25570160150527954 0.17599423229694366
0.55891680717468262 0.26404449343681335 0.18645359575748444
0.59289717674255371 0.26967281103134155 0.19555814564228058
0.6263548731803894 0.27333736419677734 0.20337300002574921
0.65928107500076294 0.27618774771690369 0.21045733988285065
0.69044584035873413 0.27859941124916077 0.21643945574760437
0.7204289436340332 0.28041848540306091 0.22143624722957611
0.74832642078399658 0.28133419156074524 0.22520506381988525
0.77197861671447754 0.28091967105865479 0.22704966366291046
0.79095876216888428 0.27878671884536743 0.22644631564617157
0.80734652280807495 0.27552664279937744 0.22410674393177032
0.82288503646850586 0.27169179916381836 0.22073169052600861
0.83843833208084106 0.26763623952865601 0.21680553257465363
0.85438996553421021 0.26340553164482117 0.21248525381088257
0.87103456258773804 0.25894144177436829 0.20779295265674591
0.88854670524597168 0.25427165627479553 0.20282404124736786
0.044492494314908981 0.06780330091714859 0.022141572088003159
0.055550828576087952 0.065599650144577026 0.016183605417609215
0.070449322462081909 0.068068258464336395 0.0069617126137018204
0.092878744006156921 0.072830133140087128 0.0014231204986572266
0.12084688991308212 0.070989899337291718 0.0039561358280479908
0.14895361661911011 0.088214419782161713 0.014506146311759949
0.17954942584037781 0.10928755253553391 0.032603360712528229
0.21278876066207886 0.12970633804798126 0.054487347602844238
0.24680620431900024 0.14999547600746155 0.076360814273357391
0.28177204728126526 0.16960704326629639 0.096140995621681213
0.31681874394416809 0.18805499374866486 0.11204541474580765
0.35179921984672546 0.20467087626457214 0.12481002509593964
0.38759121298789978 0.22042290866374969 0.13652831315994263
0.4242197573184967 0.23623980581760406 0.14844435453414917
0.46137633919715881 0.25136467814445496 0.16046540439128876
0.49825003743171692 0.26467344164848328 0.17232352495193481
0.5336337685585022 0.27525293827056885 0.18373236060142517
0.56752020120620728 0.28268253803253174 0.19394342601299286
0.6008073091506958 0.28781849145889282 0.20287790894508362
0.63398706912994385 0.29154983162879944 0.21084906160831451
0.66632270812988281 0.29453760385513306 0.2178959846496582
0.69756823778152466 0.29711836576461792 0.22380736470222473
0.72757631540298462 0.29944887757301331 0.22902287542819977
0.75446552038192749 0.30044421553611755 0.23246563971042633
0.77617764472961426 0.29980435967445374 0.23360113799571991
0.79356080293655396 0.297527015209198 0.23233266174793243
0.80898654460906982 0.2943817675113678 0.22956281900405884
0.82387691736221313 0.29090094566345215 0.225993812084198
0.83888322114944458 0.28718727827072144 0.22187821567058563
0.8544343113899231 0.28320163488388062 0.2172778844833374
0.87077957391738892 0.27897775173187256 0.21231785416603088
0.8880494236946106 0.27452164888381958 0.20708467066287994
0.071940571069717407 0.097049571573734283 0.033660732209682465
0.084121726453304291 0.096782669425010681 0.027874842286109924
0.097362473607063293 0.099859319627285004 0.01884286105632782
0.10614503920078278 0.10284559428691864 0.0095876017585396767
0.12322604656219482 0.10569785535335541 0.013015381991863251
0.15577700734138489 0.11202119290828705 0.025584135204553604
0.18832825124263763 0.1241941899061203 0.041832525283098221
0.22258318960666656 0.14204944670200348 0.062128100544214249
0.25785619020462036 0.16300062835216522 0.084528900682926178
0.29310062527656555 0.1831001490354538 0.10263747721910477
0.32801872491836548 0.20203386247158051 0.11667006462812424
0.36369237303733826 0.22000300884246826 0.12939096987247467
0.40063327550888062 0.23800352215766907 0.14236935973167419
0.43860512971878052 0.25596493482589722 0.15572589635848999
0.47606465220451355 0.27194806933403015 0.16869615018367767
0.51180833578109741 0.28481686115264893 0.18091274797916412
0.54552888870239258 0.29427415132522583 0.19212822616100311
0.57834881544113159 0.30102932453155518 0.20213733613491058
0.61123842000961304 0.30625146627426147 0.21124042570590973
0.64382767677307129 0.31037375330924988 0.2194964736700058
0.6755141019821167 0.31300303339958191 0.22592778503894806
0.7070389986038208 0.31583431363105774 0.23197324573993683
0.73642700910568237 0.31822949647903442 0.23690040409564972
0.76145833730697632 0.319122314453125 0.2397625744342804
0.78085625171661377 0.31817871332168579 0.24000771343708038
0.79675781726837158 0.3159429132938385 0.23814447224140167
0.81129014492034912 0.31318962574005127 0.23513360321521759
0.82550102472305298 0.31011909246444702 0.23136526346206665
0.84003144502639771 0.30673074722290039 0.22696599364280701
0.85524165630340576 0.30307027697563171 0.22210367023944855
0.87131637334823608 0.29913687705993652 0.21688663959503174
0.88835549354553223 0.29492604732513428 0.21139277517795563
0.099115155637264252 0.12797170877456665 0.046472888439893723
0.11135356873273849 0.12852133810520172 0.041234660893678665
0.12218049913644791 0.13031633198261261 0.034579690545797348
0.12916524708271027 0.13376499712467194 0.03129611536860466
0.14148631691932678 0.1427338719367981 0.037618435919284821
0.1678767204284668 0.15364199876785278 0.049487687647342682
0.20124669373035431 0.15999920666217804 0.061679709702730179
0.2363579124212265 0.1708073765039444 0.078064046800136566
0.27195721864700317 0.18307134509086609 0.09468185156583786
0.30697488784790039 0.19932948052883148 0.10866761952638626
0.34248614311218262 0.2179705798625946 0.12177566438913345
0.37950325012207031 0.23743396997451782 0.13553862273693085
0.41826039552688599 0.25792708992958069 0.1501687616109848
0.45689660310745239 0.27709311246871948 0.16473923623561859
0.49324953556060791 0.29247236251831055 0.17793266475200653
0.52711772918701172 0.3042551577091217 0.19010569155216217
0.55939048528671265 0.31296470761299133 0.20110310614109039
0.59169846773147583 0.32007256150245667 0.21130886673927307
0.62411636114120483 0.32593217492103577 0.22091232240200043
0.65565323829650879 0.329721599817276 0.22863279283046722
0.68706357479095459 0.332010418176651 0.2345786988735199
0.71836560964584351 0.33476060628890991 0.24052406847476959
0.74632835388183594 0.33688554167747498 0.24480977654457092
0.76876407861709595 0.33747512102127075 0.24683210253715515
0.78598177433013916 0.3364255428314209 0.24626000225543976
0.8006206750869751 0.33458814024925232 0.24407124519348145
0.81428831815719604 0.33231234550476074 0.24084079265594482
0.82793819904327393 0.32966384291648865 0.23678942024707794
0.84209340810775757 0.32670870423316956 0.23214438557624817
0.85701566934585571 0.32343751192092896 0.2270437628030777
0.87284821271896362 0.31983217597007751 0.22158244252204895
0.88966566324234009 0.31588765978813171 0.21583327651023865
0.12387228012084961 0.1598002016544342 0.060136239975690842
0.13516591489315033 0.16031830012798309 0.057312168180942535
0.14517045021057129 0.16268037259578705 0.056064095348119736
0.15528190135955811 0.1691008061170578 0.058499060571193695
0.16881605982780457 0.18214577436447144 0.06588628888130188
0.18973091244697571 0.19902865588665009 0.072546608746051788
0.21961888670921326 0.2105451226234436 0.082873247563838959
0.25385376811027527 0.21552671492099762 0.096049174666404724
0.28894239664077759 0.21397644281387329 0.1061994880437851
0.32462817430496216 0.21952550113201141 0.11594533175230026
0.36138364672660828 0.23644012212753296 0.12867045402526855
0.40011221170425415 0.25792938470840454 0.14389750361442566
0.43988338112831116 0.27987566590309143 0.15989989042282104
0.47733134031295776 0.29803875088691711 0.17453558743000031
0.51182061433792114 0.31228357553482056 0.18766513466835022
0.54393541812896729 0.32338491082191467 0.19972473382949829
0.57564204931259155 0.3328690230846405 0.21098615229129791
0.60763496160507202 0.3411119282245636 0.22186511754989624
0.63890230655670166 0.34668713808059692 0.23102995753288269
0.66958683729171753 0.3500342071056366 0.23796598613262177
0.70060628652572632 0.35198354721069336 0.2435663640499115
0.73084574937820435 0.35404950380325317 0.24900387227535248
0.75656473636627197 0.35562792420387268 0.25250712037086487
0.77625584602355957 0.35597223043441772 0.25363409519195557
0.79168891906738281 0.35526841878890991 0.25260424613952637
0.80521118640899658 0.35396584868431091 0.25016087293624878
0.81822139024734497 0.35222309827804565 0.24665234982967377
0.83147656917572021 0.35014024376869202 0.24238535761833191
0.84534585475921631 0.34769609570503235 0.23753586411476135
0.86003178358078003 0.34485498070716858 0.232221320271492
0.8756452202796936 0.34159696102142334 0.22652912139892578
0.89224177598953247 0.33792263269424438 0.22053007781505585
0.14581379294395447 0.19205184280872345 0.074822127819061279
0.15693223476409912 0.1930486261844635 0.075188204646110535
0.16859965026378632 0.19770099222660065 0.076733164489269257
0.18132375180721283 0.20729371905326843 0.081172913312911987
0.19680321216583252 0.22110278904438019 0.086543649435043335
0.21681216359138489 0.23869943618774414 0.092056997120380402
0.24184918403625488 0.25371548533439636 0.10099080204963684
0.27456071972846985 0.25802895426750183 0.11241474002599716
0.3092225193977356 0.25653988122940063 0.12202903628349304
0.34589323401451111 0.25637158751487732 0.12986283004283905
0.3846433162689209 0.2641434371471405 0.1399674117565155
0.42449647188186646 0.28272226452827454 0.15467727184295654
0.46314391493797302 0.30232298374176025 0.17041595280170441
0.49855071306228638 0.31848123669624329 0.18453335762023926
0.53128039836883545 0.33212494850158691 0.19778767228126526
0.56276899576187134 0.34418207406997681 0.21019740402698517
0.59441548585891724 0.35516735911369324 0.2223036140203476
0.62526476383209229 0.3632580041885376 0.23277582228183746
0.65535587072372437 0.36862844228744507 0.24099886417388916
0.68528056144714355 0.37210217118263245 0.24739934504032135
0.71523755788803101 0.3737676739692688 0.25272795557975769
0.74343520402908325 0.3741830587387085 0.25710007548332214
0.76675236225128174 0.37498959898948669 0.25990232825279236
0.78410571813583374 0.37553220987319946 0.2604672908782959
0.79809361696243286 0.37539103627204895 0.25912994146347046
0.8108552098274231 0.37474137544631958 0.25641939043998718
0.82347607612609863 0.37371766567230225 0.25274258852005005
0.83647793531417847 0.3722861111164093 0.24832360446453094
0.8501427173614502 0.37038728594779968 0.24330699443817139
0.86463218927383423 0.36798331141471863 0.23780007660388947
0.8800361156463623 0.36506262421607971 0.23188768327236176
0.8964005708694458 0.3616376519203186 0.22564229369163513
0.16649667918682098 0.22453001141548157 0.088838107883930206
0.17896954715251923 0.22687055170536041 0.090134322643280029
0.19273759424686432 0.23301580548286438 0.092865295708179474
0.20646475255489349 0.2413981705904007 0.097035668790340424
0.22273704409599304 0.25321304798126221 0.10225079953670502
0.24375201761722565 0.26981562376022339 0.10984760522842407
0.26850882172584534 0.28795674443244934 0.12030570954084396
0.29844486713409424 0.30108475685119629 0.13218399882316589
0.33328923583030701 0.30526316165924072 0.14245350658893585
0.37074080109596252 0.30634656548500061 0.15034326910972595
0.40982276201248169 0.30736255645751953 0.15750995278358459
0.44951710104942322 0.31303507089614868 0.167972132563591
0.4860338568687439 0.32572782039642334 0.18134453892707825
0.51987338066101074 0.33991912007331848 0.19502550363540649
0.55210834741592407 0.35424032807350159 0.20878288149833679
0.5839274525642395 0.36775454878807068 0.22222939133644104
0.61448150873184204 0.37840327620506287 0.23394271731376648
0.64392155408859253 0.38631212711334229 0.24331526458263397
0.67305046319961548 0.39230805635452271 0.2509017288684845
0.70196610689163208 0.39633029699325562 0.25720098614692688
0.72957009077072144 0.39741355180740356 0.26196551322937012
0.75522524118423462 0.39603063464164734 0.2648530900478363
0.77687567472457886 0.3960786759853363 0.26724740862846375
0.79250991344451904 0.39706838130950928 0.26747912168502808
0.8056405782699585 0.39767754077911377 0.26589486002922058
0.81805717945098877 0.3979000449180603 0.26308313012123108
0.83049988746643066 0.39766639471054077 0.25932633876800537
0.84336256980895996 0.3968869149684906 0.25480249524116516
0.85687583684921265 0.3955024778842926 0.24964359402656555
0.8711816668510437 0.39348971843719482 0.24395568668842316
0.88636386394500732 0.39085522294044495 0.23782689869403839
0.90246880054473877 0.38762727379798889 0.23133464157581329
0.18722349405288696 0.25690832734107971 0.10009938478469849
0.20123636722564697 0.25956481695175171 0.10241725295782089
0.21524804830551147 0.26428785920143127 0.10615204274654388
0.23011144995689392 0.27168115973472595 0.11113027483224869
0.24831679463386536 0.28328794240951538 0.11785490810871124
0.27022954821586609 0.29883986711502075 0.12670746445655823
0.29551902413368225 0.31702449917793274 0.13712958991527557
0.32604610919952393 0.33680287003517151 0.14962801337242126
0.36106821894645691 0.3512287437915802 0.16148564219474792
0.39857950806617737 0.35616657137870789 0.17090693116188049
0.43630024790763855 0.35649809241294861 0.17865082621574402
0.473093181848526 0.35457083582878113 0.18549250066280365
0.50827360153198242 0.35674512386322021 0.19474238157272339
0.54193317890167236 0.36630478501319885 0.20724128186702728
0.57490092515945435 0.3801291286945343 0.22151388227939606
0.60579138994216919 0.39243403077125549 0.23449911177158356
0.63476431369781494 0.40247738361358643 0.2450154572725296
0.66308611631393433 0.41095012426376343 0.25364589691162109
0.6913188099861145 0.41781669855117798 0.26106488704681396
0.71823745965957642 0.42160490155220032 0.26693356037139893
0.74298059940338135 0.4219290018081665 0.27055767178535461
0.76662528514862061 0.42024028301239014 0.27259492874145508
0.78716671466827393 0.42007803916931152 0.2747037410736084
0.80202639102935791 0.42168101668357849 0.27476668357849121
0.8149259090423584 0.42321360111236572 0.27317267656326294
0.8272978663444519 0.42428526282310486 0.27036917209625244
0.83970022201538086 0.42474037408828735 0.26657578349113464
0.85247015953063965 0.42448714375495911 0.2619594931602478
0.86582785844802856 0.42348971962928772 0.25665652751922607
0.87992012500762939 0.42175176739692688 0.25078099966049194
0.89483916759490967 0.41930297017097473 0.24442875385284424
0.91064006090164185 0.41618922352790833 0.23768451809883118
0.20666776597499847 0.28752949833869934 0.110427625477314
0.22091948986053467 0.28920102119445801 0.11392330378293991
0.23575973510742188 0.29351979494094849 0.11849071085453033
0.25263532996177673 0.30137956142425537 0.12446791678667068
0.27265304327011108 0.31307318806648254 0.13218404352664948
0.2955644428730011 0.32797586917877197 0.1410023421049118
0.32311046123504639 0.34683611989021301 0.15166927874088287
0.35538294911384583 0.36940628290176392 0.16474425792694092
0.39079859852790833 0.39121946692466736 0.17862877249717712
0.42722401022911072 0.40329554677009583 0.19044919312000275
0.46286448836326599 0.40632659196853638 0.19915851950645447
0.49742856621742249 0.40577253699302673 0.20637808740139008
0.53059679269790649 0.40292748808860779 0.21284882724285126
0.56482875347137451 0.40343818068504333 0.22220687568187714
0.59774428606033325 0.40999880433082581 0.2348501980304718
0.62719345092773438 0.41913959383964539 0.24620643258094788
0.65500813722610474 0.42879685759544373 0.25576019287109375
0.68252015113830566 0.43777933716773987 0.26407068967819214
0.70911842584609985 0.44455167651176453 0.27103620767593384
0.73349100351333618 0.44793573021888733 0.27592691779136658
0.75624465942382812 0.44872012734413147 0.27879819273948669
0.7783583402633667 0.44807189702987671 0.28051209449768066
0.79804831743240356 0.44829100370407104 0.28227761387825012
0.81310456991195679 0.45033144950866699 0.28249761462211609
0.82622367143630981 0.45243477821350098 0.28102868795394897
0.83871364593505859 0.45397627353668213 0.2782534658908844
0.85108572244644165 0.45477670431137085 0.27439594268798828
0.86370503902435303 0.45475700497627258 0.26964682340621948
0.87682980298995972 0.45390772819519043 0.26416352391242981
0.89063340425491333 0.45225870609283447 0.25807380676269531
0.90522456169128418 0.44985887408256531 0.25148305296897888
0.92067092657089233 0.44676628708839417 0.2444835901260376
0.22363783419132233 0.31634214520454407 0.12079919129610062
0.23852235078811646 0.3178686797618866 0.12474488466978073
0.25476726889610291 0.32253128290176392 0.12982740998268127
0.2734963595867157 0.33065119385719299 0.13645130395889282
0.29480868577957153 0.34191620349884033 0.14421364665031433
0.32030561566352844 0.3577028214931488 0.15354308485984802
0.35091671347618103 0.37801331281661987 0.16561473906040192
0.38415396213531494 0.40054717659950256 0.17943361401557922
0.41850769519805908 0.42384400963783264 0.19333341717720032
0.45442190766334534 0.44408735632896423 0.20630833506584167
0.48978665471076965 0.45439878106117249 0.21709343791007996
0.52258163690567017 0.45543697476387024 0.2248041182756424
0.55427330732345581 0.45286849141120911 0.2308666855096817
0.58666646480560303 0.44941633939743042 0.23789770901203156
0.61838966608047485 0.44726657867431641 0.2480110377073288
0.64787733554840088 0.45025661587715149 0.25793248414993286
0.67566925287246704 0.45789656043052673 0.26672199368476868
0.70214396715164185 0.4662889838218689 0.27451008558273315
0.7265201210975647 0.47247838973999023 0.28041473031044006
0.74906253814697266 0.47640758752822876 0.2845950722694397
0.77060073614120483 0.47872051596641541 0.28738254308700562
0.79078549146652222 0.48008653521537781 0.28901770710945129
0.80891108512878418 0.48139718174934387 0.29006081819534302
0.82444965839385986 0.48309770226478577 0.29011547565460205
0.83832359313964844 0.48472407460212708 0.28877216577529907
0.85114002227783203 0.48595514893531799 0.28602001070976257
0.86351770162582397 0.4865296483039856 0.28206935524940491
0.8759647011756897 0.48633188009262085 0.27715882658958435
0.88882237672805786 0.48534274101257324 0.27147901058197021
0.9023100733757019 0.48358592391014099 0.26517462730407715
0.91655635833740234 0.48111081123352051 0.25835826992988586
0.93163919448852539 0.47797626256942749 0.25112956762313843
0.23872645199298859 0.34473305940628052 0.1303921639919281
0.25451266765594482 0.34644612669944763 0.13454468548297882
0.27223747968673706 0.35125821828842163 0.14004138112068176
0.2922264039516449 0.35902070999145508 0.14671766757965088
0.31605613231658936 0.37123146653175354 0.1550242155790329
0.34491512179374695 0.38803708553314209 0.16591954231262207
0.37624743580818176 0.40736639499664307 0.1784551590681076
0.40851616859436035 0.42848631739616394 0.19156846404075623
0.44271892309188843 0.45219787955284119 0.20509447157382965
0.47894513607025146 0.4761015772819519 0.21873794496059418
0.51393592357635498 0.49243107438087463 0.22982785105705261
0.54695630073547363 0.49875041842460632 0.23780493438243866
0.57887953519821167 0.49887612462043762 0.24491840600967407
