LUTs/Fuji 400H 1 -.cube
# Created by: G'MIC (https://gmic.eu)
TITLE "Fuji 400H 1 -"
# LUT size
LUT_3D_SIZE 32
# Data domain
DOMAIN_MIN 0.0 0.0 0.0
DOMAIN_MAX 1.0 1.0 1.0
# LUT data points
0.0068634641356766224 0.01029984001070261 0.0091667985543608665
0.021308079361915588 0.011491250246763229 0.0091085322201251984
0.044919464737176895 0.013348275795578957 0.0098028425127267838
0.070984318852424622 0.016570974141359329 0.010408756323158741
0.099165208637714386 0.020587403327226639 0.010742185637354851
0.1303127110004425 0.023914342746138573 0.011312826536595821
0.16723580658435822 0.025497378781437874 0.011642049998044968
0.20652352273464203 0.023863593116402626 0.011208534240722656
0.25220945477485657 0.018239498138427734 0.010747260414063931
0.29866918921470642 0.0094570089131593704 0.010355385020375252
0.35069462656974792 0.0015290093142539263 0.0093845827504992485
0.40442079305648804 2.1262443624436855e-05 0.0082216132432222366
0.45245134830474854 0 0.0070628244429826736
0.50411659479141235 0 0.0059720766730606556
0.54912948608398438 0 0.004693484865128994
0.59529483318328857 0 0.003595513291656971
0.63673341274261475 0 0.0028771308716386557
0.67638510465621948 0 0.0023648685310035944
0.71162867546081543 0 0.0017201463924720883
0.746848464012146 0 0.0015578572638332844
0.7748183012008667 0 0.0014998831320554018
0.80207759141921997 0 0.00157461769413203
0.82677078247070312 0 0.0017813664162531495
0.84831595420837402 2.5158345806630678e-07 0.0022610949818044901
0.87005770206451416 0.00063983880681917071 0.0031651477329432964
0.88977766036987305 0.018783362582325935 0.0045553422532975674
0.91003620624542236 0.067716814577579498 0.0073790852911770344
0.92876559495925903 0.10651366412639618 0.011379418894648552
0.94813895225524902 0.13875047862529755 0.018025591969490051
0.96749597787857056 0.16764846444129944 0.027364855632185936
0.98720884323120117 0.19550536572933197 0.039892978966236115
0.99905568361282349 0.21925099194049835 0.054001796990633011
0.0046766214072704315 0.027299001812934875 0.011161423288285732
0.017884597182273865 0.028608547523617744 0.010879791341722012
0.042464397847652435 0.032158240675926208 0.010095550678670406
0.069701053202152252 0.036219794303178787 0.0094871120527386665
0.099047936499118805 0.040385536849498749 0.0094852689653635025
0.13004423677921295 0.043081440031528473 0.0097804060205817223
0.16682757437229156 0.044991724193096161 0.0098216766491532326
0.20647387206554413 0.044332839548587799 0.009621509350836277
0.25259387493133545 0.039917811751365662 0.009154830127954483
0.29916638135910034 0.031013382598757744 0.008524022065103054
0.35123166441917419 0.016576202586293221 0.007562209852039814
0.40479832887649536 0.0040541389025747776 0.0068855257704854012
0.45238015055656433 0.0004320339357946068 0.005719723179936409
0.50369608402252197 3.8374892028514296e-06 0.0044095264747738838
0.54824870824813843 0 0.0034116520546376705
0.59382486343383789 0 0.0026225894689559937
0.63516139984130859 0 0.0019235329236835241
0.67508786916732788 0 0.0013950259890407324
0.71038162708282471 0 0.0012007736368104815
0.74510854482650757 0 0.0010928603587672114
0.77341926097869873 0 0.00099738023709505796
0.8009108304977417 0 0.001090839272364974
0.82537162303924561 5.3844996728003025e-07 0.0011937802191823721
0.84714466333389282 0.00033852006890811026 0.001487246947363019
0.86906224489212036 0.010942633263766766 0.002169107785448432
0.88873887062072754 0.047987550497055054 0.0034284389112144709
0.9089585542678833 0.089890733361244202 0.0056441747583448887
0.9280397891998291 0.12206847220659256 0.0094641046598553658
0.94724845886230469 0.15082526206970215 0.015423398464918137
0.96641170978546143 0.17766411602497101 0.024610094726085663
0.98638880252838135 0.20368848741054535 0.037241339683532715
0.9988706111907959 0.22640399634838104 0.051644738763570786
0.0021394041832536459 0.053421877324581146 0.014004983007907867
0.013701642863452435 0.05382952094078064 0.014006714336574078
0.035626910626888275 0.056715752929449081 0.012500126846134663
0.064901955425739288 0.061413314193487167 0.010309452190995216
0.097218431532382965 0.065564900636672974 0.008313959464430809
0.13105806708335876 0.068556368350982666 0.0075757051818072796
0.16927804052829742 0.070586182177066803 0.0074084741063416004
0.20902912318706512 0.070463798940181732 0.006982055027037859
0.25490269064903259 0.067742489278316498 0.0066895806230604649
0.30120906233787537 0.061970729380846024 0.0062871151603758335
0.35278040170669556 0.051113899797201157 0.005423285998404026
0.40541279315948486 0.034890078008174896 0.0043978206813335419
0.45311465859413147 0.018449077382683754 0.0035432453732937574
0.50389909744262695 0.0053099943324923515 0.0028439550660550594
0.54826647043228149 0.00090931006707251072 0.0020284773781895638
0.59338748455047607 2.6084358978550881e-05 0.0013793999096378684
0.63474225997924805 0 0.00099409138783812523
0.67560988664627075 0 0.00074124959064647555
0.7107388973236084 0 0.00061075977282598615
0.7448575496673584 0 0.00051549921045079827
0.77229100465774536 9.791044703888474e-07 0.00047874631127342582
0.7998090386390686 0.00026557582896202803 0.00050037517212331295
0.82466524839401245 0.0041417069733142853 0.00062624219572171569
0.8463205099105835 0.018885517492890358 0.00086659687804058194
0.8683350682258606 0.052534755319356918 0.0014109910698607564
0.88804960250854492 0.086483605206012726 0.0021506680641323328
0.90806454420089722 0.11713246256113052 0.0038456262554973364
0.92716050148010254 0.14340841770172119 0.0068091712892055511
0.94620192050933838 0.16849318146705627 0.012265896424651146
0.96535754203796387 0.19252914190292358 0.021299269050359726
0.98540836572647095 0.21651919186115265 0.033893279731273651
0.99866563081741333 0.23795758187770844 0.048812948167324066
0.00033407108276151121 0.083014637231826782 0.016046106815338135
0.0060638505965471268 0.082693777978420258 0.017039662227034569
0.024685751646757126 0.084238968789577484 0.015661755576729774
0.054670121520757675 0.08775031566619873 0.013022029772400856
0.090349480509757996 0.09269336611032486 0.0097327129915356636
0.12751078605651855 0.096977941691875458 0.0073070991784334183
0.16904671490192413 0.099207654595375061 0.0053052245639264584
0.21075421571731567 0.099147088825702667 0.0043725413270294666
0.25723919272422791 0.09752887487411499 0.0037753311917185783
0.30334755778312683 0.09419887512922287 0.0035170265473425388
0.3550146222114563 0.08782641589641571 0.0029980342369526625
0.40719902515411377 0.078025601804256439 0.002137613482773304
0.45442882180213928 0.066390164196491241 0.0017168584745377302
0.50489616394042969 0.049764577299356461 0.001054705586284399
0.5490119457244873 0.034033242613077164 0.00071868870873004198
0.594005286693573 0.021197948604822159 0.00047860876657068729
0.63570606708526611 0.013648589141666889 0.00029399635968729854
0.67748326063156128 0.010214884765446186 0.00018712489691097289
0.71150898933410645 0.009752294048666954 8.8700035121291876e-05
0.744922935962677 0.012064161710441113 8.0699792306404561e-05
0.77250415086746216 0.017918892204761505 0.00010073788143927231
0.79963511228561401 0.029536491259932518 8.4916631749365479e-05
0.82385581731796265 0.050428930670022964 0.00016901305934879929
0.84545302391052246 0.075513593852519989 0.00026697979774326086
0.86740756034851074 0.10126088559627533 0.00056918233167380095
0.88725495338439941 0.12405084073543549 0.0010428739478811622
0.9076727032661438 0.14747333526611328 0.002259805565699935
0.92682349681854248 0.1693221777677536 0.0045717400498688221
0.94604700803756714 0.1909734308719635 0.009363432414829731
0.96490514278411865 0.21195736527442932 0.017455728724598885
0.98498475551605225 0.23363204300403595 0.030369939282536507
0.99844646453857422 0.25368219614028931 0.045730777084827423
3.4567156603770854e-07 0.1133875846862793 0.017548628151416779
0.0004021417407784611 0.11250188201665878 0.01882924884557724
0.0096223084256052971 0.11321461200714111 0.018638694658875465
0.0383734330534935 0.11589360237121582 0.016234252601861954
0.076532743871212006 0.11908937245607376 0.012430079281330109
0.11687016487121582 0.12462636828422546 0.0086756423115730286
0.16148984432220459 0.13003024458885193 0.0052429712377488613
0.20655831694602966 0.1314358115196228 0.0028193311300128698
0.25654998421669006 0.13051992654800415 0.0015357861993834376
0.30435085296630859 0.12819266319274902 0.001068703131750226
0.35570067167282104 0.12457413226366043 0.00072514708153903484
0.40747639536857605 0.11868853121995926 0.00048709454131312668
0.45416083931922913 0.11241407692432404 0.00034552181023173034
0.50404596328735352 0.10377239435911179 0.00018741724488791078
0.54727953672409058 0.094875209033489227 5.9974910982418805e-05
0.59210997819900513 0.084952458739280701 1.7161108189611696e-05
0.63484185934066772 0.076922208070755005 2.6712841645348817e-06
0.67603212594985962 0.072034083306789398 1.0959902283502743e-06
0.7092893123626709 0.071792587637901306 1.970395970829486e-07
0.74263918399810791 0.076420977711677551 3.2896750212785264e-07
0.76925921440124512 0.084007732570171356 2.5192434804921504e-07
0.79646980762481689 0.095723420381546021 5.6589229302517197e-08
0.82109361886978149 0.11010444164276123 8.0793057577466243e-07
0.84301048517227173 0.12497548013925552 3.0428643640334485e-06
0.86489021778106689 0.1418764740228653 7.2325914516113698e-05
0.88464093208312988 0.15869632363319397 0.00024754888727329671
0.90514230728149414 0.17718277871608734 0.00078492134343832731
0.92440217733383179 0.19513328373432159 0.0019455911824479699
0.94352895021438599 0.21349669992923737 0.0048765013925731182
0.96247917413711548 0.23173457384109497 0.011106418445706367
0.98294913768768311 0.25160044431686401 0.023264637216925621
0.99759370088577271 0.26980012655258179 0.038963358849287033
0 0.14788822829723358 0.018053825944662094
1.6537758256163215e-06 0.14681890606880188 0.019632833078503609
0.0010061347857117653 0.14581917226314545 0.020730890333652496
0.017486371099948883 0.14784498512744904 0.018483854830265045
0.058242235332727432 0.15053628385066986 0.01468254067003727
0.10276088118553162 0.15455338358879089 0.010457637719810009
0.15190225839614868 0.16049233078956604 0.0054301549680531025
0.20034722983837128 0.16491192579269409 0.0022845398634672165
0.25182068347930908 0.16633632779121399 0.00082950975047424436
0.30156815052032471 0.16464996337890625 0.00020106456940993667
0.35495474934577942 0.16120791435241699 4.1355200664838776e-05
0.40734314918518066 0.15657289326190948 2.3334427169174887e-05
0.45375481247901917 0.15245814621448517 4.2825436139537487e-06
0.5029139518737793 0.1471886932849884 1.5097563164090388e-06
0.54664266109466553 0.14185671508312225 6.7114484636476845e-08
0.59326094388961792 0.1367189884185791 0
0.63583958148956299 0.13306792080402374 0
0.67555850744247437 0.13068228960037231 0
0.70821517705917358 0.13112634420394897 0
0.7405623197555542 0.13409627974033356 0
0.76743423938751221 0.13887166976928711 0
0.79442262649536133 0.1462782621383667 0
0.81907695531845093 0.15591739118099213 0
0.84080743789672852 0.16648602485656738 0
0.86287349462509155 0.17939683794975281 5.4650365655106725e-07
0.88283252716064453 0.1927981823682785 4.0001509660214651e-06
0.90309411287307739 0.20800966024398804 0.00013495638268068433
0.92237180471420288 0.22300581634044647 0.00059141014935448766
0.94175887107849121 0.23898054659366608 0.0021834035869687796
0.96101659536361694 0.25521087646484375 0.0063244039192795753
0.98140895366668701 0.2724183201789856 0.016113029792904854
0.99707108736038208 0.2893034815788269 0.032163407653570175
0 0.18506909906864166 0.017405955120921135
0 0.18445497751235962 0.01912645623087883
2.0530389974737773e-06 0.18253478407859802 0.021505970507860184
0.002177366754040122 0.1828601211309433 0.020463576540350914
0.028723957017064095 0.18566261231899261 0.016570989042520523
0.081517040729522705 0.1888839453458786 0.012049329467117786
0.1342482715845108 0.19254788756370544 0.006779063493013382
0.18743452429771423 0.19815100729465485 0.0023635858669877052
0.24400137364864349 0.20356927812099457 0.00032960012322291732
0.29520407319068909 0.20478665828704834 1.9809702280326746e-05
0.35032564401626587 0.20315489172935486 2.0453937210618278e-08
0.40501311421394348 0.19894899427890778 0
0.45256978273391724 0.19452323019504547 0
0.50280219316482544 0.19061191380023956 0
0.54824566841125488 0.18810667097568512 0
0.59461581707000732 0.18549323081970215 0
0.63550788164138794 0.18297822773456573 0
0.67402136325836182 0.18140688538551331 0
0.70598852634429932 0.1816340833902359 0
0.73762565851211548 0.18364109098911285 0
0.76399874687194824 0.18696260452270508 0
0.79091072082519531 0.19219592213630676 0
0.81533956527709961 0.19907648861408234 0
0.83729130029678345 0.20700088143348694 0
0.8595576286315918 0.2173275500535965 0
0.87979805469512939 0.22775621712207794 1.2272362681642335e-08
0.90030837059020996 0.24033491313457489 1.167919776889903e-06
0.91946446895599365 0.25296655297279358 3.3600575989112258e-05
0.93911248445510864 0.26679280400276184 0.00049143959768116474
0.95866316556930542 0.28087222576141357 0.0022408789955079556
0.97923082113265991 0.29618373513221741 0.00835372693836689
0.99598813056945801 0.31167033314704895 0.022809172049164772
0 0.22185023128986359 0.015902705490589142
0 0.22129940986633301 0.017549099400639534
0 0.21926747262477875 0.020205322653055191
1.7646196283749305e-05 0.21806834638118744 0.021753998473286629
0.0056107509881258011 0.22009025514125824 0.018325911834836006
0.05050833523273468 0.22311414778232574 0.013419534079730511
0.11458756774663925 0.22682872414588928 0.0075364946387708187
0.16971620917320251 0.23064784705638885 0.0028320818673819304
0.23063504695892334 0.23646260797977448 0.00035505698178894818
0.28709006309509277 0.24131834506988525 2.1169823867239757e-06
0.34388843178749084 0.24261091649532318 0
0.39968162775039673 0.24119783937931061 0
0.45009344816207886 0.23852719366550446 0
0.50308889150619507 0.23434373736381531 0
0.54791063070297241 0.23043100535869598 0
0.59275412559509277 0.22755800187587738 0
0.63269257545471191 0.22534765303134918 0
0.67038285732269287 0.22415749728679657 0
0.70154213905334473 0.2241479754447937 0
0.73290336132049561 0.22545108199119568 0
0.75939887762069702 0.22784405946731567 0
0.78643792867660522 0.23149648308753967 0
0.81093567609786987 0.23685815930366516 0
0.833077073097229 0.24315083026885986 0
0.85541099309921265 0.25129982829093933 0
0.87577605247497559 0.26022377610206604 0
0.89655220508575439 0.27087369561195374 0
0.91594058275222778 0.28163981437683105 2.8635513515951061e-08
0.93566197156906128 0.29335930943489075 3.118752283626236e-05
0.95544058084487915 0.30590108036994934 0.00040396751137450337
0.97616267204284668 0.31955277919769287 0.0028235297650098801
0.99389004707336426 0.33297955989837646 0.011803450994193554
0 0.26381585001945496 0.013072125613689423
0 0.26369354128837585 0.015306852757930756
0 0.26156648993492126 0.01794390007853508
0 0.25929522514343262 0.021358177065849304
5.5153181165223941e-05 0.25939133763313293 0.020394898951053619
0.017363829538226128 0.26206514239311218 0.01494660135358572
0.086963720619678497 0.2651074230670929 0.0084886625409126282
0.15080252289772034 0.2684665322303772 0.0034711456391960382
0.21255777776241302 0.27223604917526245 0.00055206101387739182
0.27279013395309448 0.27771991491317749 7.4255463005101774e-06
0.33826470375061035 0.28463008999824524 0
0.39641472697257996 0.28606143593788147 0
0.44641542434692383 0.28522807359695435 0
0.49902084469795227 0.2821146547794342 0
0.54439008235931396 0.27789148688316345 0
0.58964502811431885 0.27257841825485229 0
0.62943911552429199 0.26892271637916565 0
0.6667206883430481 0.2673204243183136 0
0.69729018211364746 0.26701867580413818 0
0.72861433029174805 0.26762747764587402 0
0.75511544942855835 0.26954641938209534 0
0.78189677000045776 0.27221482992172241 0
0.80684536695480347 0.27634289860725403 0
0.82887214422225952 0.28134408593177795 0
0.85164558887481689 0.28798118233680725 0
0.87213593721389771 0.29524224996566772 0
0.89299184083938599 0.30412194132804871 0
0.91252809762954712 0.3132794201374054 0
0.93271517753601074 0.32360932230949402 0
0.95278739929199219 0.33454552292823792 1.2125903595006093e-05
0.97355729341506958 0.34656307101249695 0.00039217260200530291
0.99254125356674194 0.35894715785980225 0.0051091141067445278
0 0.30072301626205444 0.011049767024815083
0 0.30135717988014221 0.01302643958479166
0 0.29957589507102966 0.016163425520062447
0 0.29701033234596252 0.020207848399877548
0 0.29554256796836853 0.022489659488201141
0.0030308321584016085 0.29769918322563171 0.017721254378557205
0.050916925072669983 0.30141514539718628 0.011044470593333244
0.12973138689994812 0.30533942580223083 0.0048744627274572849
0.19814592599868774 0.30997660756111145 0.00097452604677528143
0.25838378071784973 0.31432735919952393 2.5429675588384271e-05
0.32531499862670898 0.32020288705825806 0
0.39058321714401245 0.32591643929481506 0
0.44159451127052307 0.32654643058776855 0
0.49364566802978516 0.32479435205459595 0
0.53817564249038696 0.3214353621006012 0
0.5830504298210144 0.31656304001808167 0
0.62290924787521362 0.31088587641716003 0
0.66048318147659302 0.30634576082229614 0
0.6913335919380188 0.3044421374797821 0
0.72241580486297607 0.30434158444404602 0
0.7486301064491272 0.30547934770584106 0
0.77583879232406616 0.30731824040412903 0
0.80112779140472412 0.31073737144470215 0
0.82344937324523926 0.31493684649467468 0
0.84641867876052856 0.32048046588897705 0
0.86686831712722778 0.32641416788101196 0
0.88827002048492432 0.3340265154838562 0
0.90794694423675537 0.34187421202659607 0
0.92816132307052612 0.3507956862449646 0
0.9485207200050354 0.3602692186832428 0
0.96996963024139404 0.3710331916809082 4.2474061956454534e-06
0.98976951837539673 0.38223883509635925 0.001066378434188664
0 0.34347277879714966 0.0097598284482955933
0 0.34415698051452637 0.011869525536894798
0 0.34257990121841431 0.014874769374728203
0 0.3409959077835083 0.019537188112735748
0 0.33859604597091675 0.024966703727841377
3.6232966522220522e-05 0.33942806720733643 0.023157473653554916
0.017207613214850426 0.34290358424186707 0.015884459018707275
0.10303929448127747 0.34620222449302673 0.0085680931806564331
0.18107978999614716 0.35006803274154663 0.0025879957247525454
0.24272672832012177 0.35312694311141968 0.00033362754038535058
0.30708307027816772 0.35684037208557129 2.7203739136894001e-06
0.37297698855400085 0.36143234372138977 0
0.43221783638000488 0.36681920289993286 0
0.48539695143699646 0.36690807342529297 0
0.52952170372009277 0.36465650796890259 0
0.57372331619262695 0.36079573631286621 0
0.61380290985107422 0.35633638501167297 0
0.65180981159210205 0.35132110118865967 0
0.68317615985870361 0.34675252437591553 0
0.71515274047851562 0.34333562850952148 0
0.74169433116912842 0.34313091635704041 0
0.76886767148971558 0.34419324994087219 0
0.7943914532661438 0.34697604179382324 0
0.81714427471160889 0.35010713338851929 0
0.83998978137969971 0.35431352257728577 0
0.86083453893661499 0.35952812433242798 0
0.88264662027359009 0.36594903469085693 0
0.90263170003890991 0.37238335609436035 0
0.92316299676895142 0.38005942106246948 0
0.94377827644348145 0.38840305805206299 0
0.96540504693984985 0.39736685156822205 5.1134851908329892e-09
0.98594146966934204 0.40719398856163025 2.5284081857535057e-05
0 0.38551238179206848 0.011353382840752602
0 0.3875870406627655 0.014170277863740921
0 0.385978102684021 0.017529169097542763
0 0.38405916094779968 0.022228613495826721
0 0.38128009438514709 0.028141515329480171
0 0.37938141822814941 0.031748730689287186
0.0029701143503189087 0.38077464699745178 0.025663036853075027
0.067494861781597137 0.38334351778030396 0.016814593225717545
0.16048076748847961 0.3863922655582428 0.0079507585614919662
0.22524526715278625 0.38920897245407104 0.0022224958520382643
0.28964650630950928 0.39202949404716492 0.00015733295003883541
0.35238343477249146 0.39508286118507385 1.0408497246316983e-06
0.40974238514900208 0.39845773577690125 0
0.47215306758880615 0.40365448594093323 0
0.51996856927871704 0.40437161922454834 0
0.56455987691879272 0.40214407444000244 0
0.60411232709884644 0.3984946608543396 0
0.6420586109161377 0.39448827505111694 0
0.67396563291549683 0.39059656858444214 0
0.70639479160308838 0.3861812949180603 0
0.73375475406646729 0.38258454203605652 0
0.76191163063049316 0.38098821043968201 0
0.78789973258972168 0.3823312520980835 0
0.81071537733078003 0.38479882478713989 0
0.83426749706268311 0.3886159360408783 0
0.8554345965385437 0.39272066950798035 0
0.87713360786437988 0.39786502718925476 0
0.8973841667175293 0.40367567539215088 0
0.91840064525604248 0.41017258167266846 0
0.93954205513000488 0.41746854782104492 0
0.96181678771972656 0.42542335391044617 0
0.98268717527389526 0.43439388275146484 0
0 0.42021322250366211 0.016275545582175255
0 0.42263713479042053 0.019946401938796043
0 0.42123845219612122 0.023595802485942841
0 0.41909781098365784 0.028234470635652542
0 0.41644623875617981 0.034581147134304047
0 0.41347268223762512 0.040876306593418121
0.00013248865434434265 0.41345253586769104 0.039505388587713242
0.041099272668361664 0.41549116373062134 0.030499154701828957
0.14182832837104797 0.41823232173919678 0.019702460616827011
0.21071928739547729 0.42067062854766846 0.0095531018450856209
0.27597704529762268 0.42328137159347534 0.0023075055796653032
0.33769991993904114 0.42582902312278748 0.00023955668439157307
0.39229053258895874 0.42787042260169983 4.0920658648246899e-06
0.45221346616744995 0.43089574575424194 0
0.50737172365188599 0.43584936857223511 0
0.55498689413070679 0.43584156036376953 0
0.59483379125595093 0.43352121114730835 0
0.63262945413589478 0.43017986416816711 0
0.66416758298873901 0.42660492658615112 0
0.69679653644561768 0.42312225699424744 0
0.72444963455200195 0.41964977979660034 0
0.75332766771316528 0.41611361503601074 0
0.78047221899032593 0.41400414705276489 0
0.8038933277130127 0.41466495394706726 0
0.82778817415237427 0.41727742552757263 0
0.84888976812362671 0.4208223819732666 0
0.8712233304977417 0.4255959689617157 0
0.8918423056602478 0.43010163307189941 0
0.91315442323684692 0.4358879029750824 0
0.93490141630172729 0.4424305260181427 0
0.95755255222320557 0.44954416155815125 0
0.97848731279373169 0.45717468857765198 0
0 0.45545732975006104 0.027909563854336739
0 0.45731028914451599 0.032053526490926743
0 0.45626071095466614 0.035680640488862991
0 0.45451676845550537 0.040602326393127441
0 0.45202487707138062 0.046242997050285339
0 0.44922861456871033 0.053072076290845871
0 0.44693812727928162 0.057652935385704041
0.021801883354783058 0.44803503155708313 0.051390096545219421
0.12002595514059067 0.44986516237258911 0.041205134242773056
0.19483873248100281 0.45211750268936157 0.029381992295384407
0.26116710901260376 0.45441240072250366 0.015764033421874046
0.32187700271606445 0.45609006285667419 0.0050811795517802238
0.37496128678321838 0.45788809657096863 0.00078551319893449545
0.4317534863948822 0.45983237028121948 3.6297209589974955e-05
0.48323807120323181 0.46193522214889526 0
0.53913533687591553 0.46652695536613464 0
0.58405530452728271 0.46775609254837036 0
0.62196391820907593 0.46566358208656311 0
0.65374892950057983 0.46341237425804138 0
0.686534583568573 0.46047523617744446 0
0.71449333429336548 0.4578062891960144 0
0.7438850998878479 0.4548475444316864 0
0.771534264087677 0.45233547687530518 0
0.79544448852539062 0.45001941919326782 0
0.82017463445663452 0.44939497113227844 0
0.84255015850067139 0.45121365785598755 0
0.86501032114028931 0.45486044883728027 0
0.88604229688644409 0.45869046449661255 0
0.90786457061767578 0.46387892961502075 0
0.92990201711654663 0.46960154175758362 0
0.95318937301635742 0.475821852684021 0
0.97470289468765259 0.48260873556137085 0
0 0.48457947373390198 0.043088663369417191
0 0.48688402771949768 0.047925770282745361
0 0.48574459552764893 0.051356013864278793
0 0.4841335117816925 0.055549781769514084
0 0.4817301332950592 0.060385838150978088
