LUTs/Fuji FP-100c 1--.cube
# Created by: G'MIC (https://gmic.eu)
TITLE "Fuji FP-100c 1--"
# LUT size
LUT_3D_SIZE 5
# Data domain
# LUT data points
DOMAIN_MIN 0.000000 0.000000 0.000000
DOMAIN_MAX 0.903226 0.903226 0.903226
0.0010622177505865693 0.0023377113975584507 0.0016458039171993732
0.16228219866752625 0.046208154410123825 0.033324029296636581
0.44453310966491699 0.089198991656303406 0.050173941999673843
0.66215765476226807 0.15702047944068909 0.091677024960517883
0.8265112042427063 0.18455800414085388 0.11262188106775284
0.07215871661901474 0.14206668734550476 0.040524821728467941
0.1549910306930542 0.17494544386863708 0.037006590515375137
0.49284341931343079 0.1657140702009201 0.055046193301677704
0.72939181327819824 0.26073893904685974 0.12257300317287445
0.84337484836578369 0.31008550524711609 0.14199161529541016
0.15099014341831207 0.3377651572227478 0.073165349662303925
0.25100433826446533 0.36929407715797424 0.089709065854549408
0.47771832346916199 0.46299892663955688 0.1362246572971344
0.74512392282485962 0.45223510265350342 0.18659229576587677
0.87998348474502563 0.45193076133728027 0.19215396046638489
0.18891154229640961 0.51239866018295288 0.094344459474086761
0.33840632438659668 0.53722643852233887 0.12954570353031158
0.51952832937240601 0.60647374391555786 0.17123258113861084
0.69105154275894165 0.6718907356262207 0.23770231008529663
0.84449124336242676 0.6561540961265564 0.25178921222686768
0.19209450483322144 0.68956393003463745 0.099962107837200165
0.36180645227432251 0.69628393650054932 0.13618876039981842
0.54092425107955933 0.73791676759719849 0.1930171400308609
0.70839226245880127 0.7961001992225647 0.25351244211196899
0.84070330858230591 0.83505517244338989 0.28493985533714294
0.012949828989803791 0.0095138540491461754 0.15264992415904999
0.15952014923095703 0.073194168508052826 0.18822889029979706
0.43919149041175842 0.13528752326965332 0.19185641407966614
0.71963667869567871 0.20336024463176727 0.19015291333198547
0.85420799255371094 0.22234140336513519 0.22258354723453522
0.050020590424537659 0.154483363032341 0.1998697817325592
0.17518658936023712 0.19259640574455261 0.20483741164207458
0.53114765882492065 0.21534283459186554 0.19970683753490448
0.78340679407119751 0.30749717354774475 0.1963159441947937
0.87029457092285156 0.35800313949584961 0.23445571959018707
0.14537973701953888 0.35841250419616699 0.25042933225631714
0.30112531781196594 0.42175036668777466 0.24047797918319702
0.52176958322525024 0.50615251064300537 0.18730854988098145
0.81146454811096191 0.4949144721031189 0.27305227518081665
0.88950985670089722 0.47783109545707703 0.28186064958572388
0.24572610855102539 0.55684304237365723 0.27329441905021667
0.39722803235054016 0.57095938920974731 0.27720171213150024
0.57005858421325684 0.6241462230682373 0.28299859166145325
0.71476835012435913 0.69364917278289795 0.3468647301197052
0.84056335687637329 0.68011754751205444 0.37809395790100098
0.24827076494693756 0.72174620628356934 0.28748688101768494
0.41125878691673279 0.71130728721618652 0.29422283172607422
0.58130007982254028 0.73617857694625854 0.329292893409729
0.7351304292678833 0.79075086116790771 0.39971792697906494
0.83965605497360229 0.83316922187805176 0.44063398241996765
0.012695606797933578 0.067055255174636841 0.43525904417037964
0.13241840898990631 0.08647514134645462 0.47199544310569763
0.42110234498977661 0.17853692173957825 0.48130348324775696
0.68873512744903564 0.24457874894142151 0.42828494310379028
0.85965359210968018 0.23818682134151459 0.35773041844367981
0.0066315368749201298 0.16651396453380585 0.4671434760093689
0.18512225151062012 0.17226484417915344 0.51057368516921997
0.54108446836471558 0.31898656487464905 0.53964012861251831
0.73032116889953613 0.39342266321182251 0.44900551438331604
0.86605751514434814 0.39459130167961121 0.3813406229019165
0.10855956375598907 0.37727627158164978 0.50979459285736084
0.27624213695526123 0.43702587485313416 0.5215451717376709
0.63786560297012329 0.59584665298461914 0.59687620401382446
0.80447173118591309 0.59660035371780396 0.53197574615478516
0.88587361574172974 0.57635259628295898 0.49704840779304504
0.23016496002674103 0.56128370761871338 0.53790551424026489
0.41313767433166504 0.59696292877197266 0.55492901802062988
0.62653475999832153 0.68528962135314941 0.55109292268753052
0.78127819299697876 0.74583202600479126 0.50900077819824219
0.87281078100204468 0.74295306205749512 0.59210699796676636
0.23627696931362152 0.71527671813964844 0.53723007440567017
0.42480963468551636 0.72819614410400391 0.54936152696609497
0.63521075248718262 0.77272981405258179 0.54025322198867798
0.77781122922897339 0.80998390913009644 0.53398984670639038
0.86655956506729126 0.86047875881195068 0.60006040334701538
0.053901270031929016 0.12500457465648651 0.64981269836425781
0.19234947860240936 0.15488998591899872 0.6728895902633667
0.42778709530830383 0.20571240782737732 0.68941259384155273
0.6459726095199585 0.27408015727996826 0.69004017114639282
0.83016955852508545 0.2817986011505127 0.64663618803024292
0.1034228652715683 0.20525357127189636 0.67634826898574829
0.2463313490152359 0.23232389986515045 0.7144736647605896
0.50696206092834473 0.3379458487033844 0.71932852268218994
0.69899016618728638 0.45189690589904785 0.71324092149734497
0.83575528860092163 0.47339999675750732 0.67932718992233276
0.1818535327911377 0.40632060170173645 0.6944962739944458
0.25283381342887878 0.43643355369567871 0.69616174697875977
0.62450844049453735 0.50611984729766846 0.76226884126663208
0.7888634204864502 0.64639019966125488 0.76511508226394653
0.86369538307189941 0.66838657855987549 0.73140192031860352
0.22784146666526794 0.5771973729133606 0.70194011926651001
0.35565394163131714 0.58918958902359009 0.71376383304595947
0.60900062322616577 0.68994331359863281 0.74169802665710449
0.83345228433609009 0.81549006700515747 0.80746710300445557
0.90830159187316895 0.81393247842788696 0.77962589263916016
0.26147148013114929 0.72321999073028564 0.71362191438674927
0.40122351050376892 0.71238195896148682 0.72622829675674438
0.61370551586151123 0.77392351627349854 0.74561786651611328
0.79861408472061157 0.85695415735244751 0.76217257976531982
0.90778368711471558 0.9074128270149231 0.74942922592163086
0.13800615072250366 0.15399044752120972 0.78861850500106812
0.30708202719688416 0.20831659436225891 0.82053983211517334
0.46363958716392517 0.25120529532432556 0.83820617198944092
0.65701675415039062 0.29485821723937988 0.84941995143890381
0.82110249996185303 0.29732269048690796 0.85966169834136963
0.22692523896694183 0.28412696719169617 0.80850201845169067
0.37263903021812439 0.31618970632553101 0.82645231485366821
0.50909298658370972 0.38917949795722961 0.84747052192687988
0.68337124586105347 0.45645314455032349 0.85158133506774902
0.82476133108139038 0.48547220230102539 0.86064654588699341
0.33945521712303162 0.45466703176498413 0.86864727735519409
0.47271287441253662 0.45916154980659485 0.88072746992111206
0.62113291025161743 0.50645387172698975 0.87548643350601196
0.74270790815353394 0.61818546056747437 0.86400830745697021
0.84889334440231323 0.66607779264450073 0.87562471628189087
0.30844700336456299 0.59019869565963745 0.86513000726699829
0.38979479670524597 0.60022157430648804 0.84223949909210205
0.53485065698623657 0.66321611404418945 0.84450685977935791
0.81438577175140381 0.75014400482177734 0.90012145042419434
0.88763129711151123 0.81847798824310303 0.90116220712661743
0.28587162494659424 0.73194944858551025 0.85568225383758545
0.40457785129547119 0.71111685037612915 0.84290385246276855
0.56934285163879395 0.75162321329116821 0.84640753269195557
0.77572554349899292 0.83837276697158813 0.88244867324829102
0.93857163190841675 0.94395178556442261 0.93792217969894409
