LUTs/Fuji 800Z 2.cube
# Created by: G'MIC (https://gmic.eu)
TITLE "Fuji 800Z 2"
# LUT size
LUT_3D_SIZE 5
# Data domain
# LUT data points
DOMAIN_MIN 0.000000 0.000000 0.000000
DOMAIN_MAX 0.903226 0.903226 0.903226
0.04649927094578743 0.048391446471214294 0.03857344388961792
0.21529501676559448 0.04027654230594635 0.037520017474889755
0.51411968469619751 0 0.025062303990125656
0.81307727098464966 0 3.3876705856528133e-05
0.99519950151443481 5.8953369261871558e-06 0
0.050303924828767776 0.18318957090377808 0.06170421838760376
0.18535377085208893 0.2116190642118454 0.0400870181620121
0.50285935401916504 0.23163343966007233 1.0830488463398069e-05
0.79226076602935791 0.2356446236371994 0
0.98263025283813477 0.26974466443061829 0
0.036782629787921906 0.39434486627578735 0.10648813843727112
0.170794278383255 0.38115319609642029 0.11132143437862396
0.4418274462223053 0.47518536448478699 0.018267408013343811
0.7558058500289917 0.5246427059173584 0
0.94135987758636475 0.51120191812515259 0
0.15208052098751068 0.59347712993621826 0.18598794937133789
0.2279815673828125 0.57816773653030396 0.1862344890832901
0.39721852540969849 0.60284757614135742 0.17919749021530151
0.67603129148483276 0.68618762493133545 0.15230204164981842
0.91582643985748291 0.73791563510894775 0.086172021925449371
0.40772926807403564 0.79208379983901978 0.38211876153945923
0.43617784976959229 0.78616172075271606 0.38015526533126831
0.5052649974822998 0.77209466695785522 0.37599575519561768
0.66885119676589966 0.82017707824707031 0.40252834558486938
0.85298705101013184 0.87217992544174194 0.42864060401916504
0.077370114624500275 0.060623526573181152 0.17813415825366974
0.23485775291919708 0.057833533734083176 0.190201535820961
0.56476187705993652 0 0.19758601486682892
0.83242428302764893 0 0.20609156787395477
0.99776828289031982 2.9626231480506249e-05 0.20346167683601379
0.054097343236207962 0.23162566125392914 0.19583061337471008
0.24292805790901184 0.23914475739002228 0.20599663257598877
0.54490917921066284 0.23498819768428802 0.2046692818403244
0.81129711866378784 0.23131772875785828 0.19542038440704346
0.98830479383468628 0.27159035205841064 0.19191218912601471
0.15858925879001617 0.46166092157363892 0.2386438250541687
0.25446563959121704 0.43829303979873657 0.23597516119480133
0.47745785117149353 0.49293544888496399 0.22581431269645691
0.76076334714889526 0.51817500591278076 0.16909447312355042
0.94723892211914062 0.51286709308624268 0.15639559924602509
0.24204975366592407 0.62882870435714722 0.28917345404624939
0.29839539527893066 0.61389929056167603 0.28451216220855713
0.42441520094871521 0.60860222578048706 0.27805328369140625
0.68609148263931274 0.6916385293006897 0.29255780577659607
0.91453135013580322 0.73597604036331177 0.27307596802711487
0.43549022078514099 0.80201566219329834 0.44002076983451843
0.46084347367286682 0.7961277961730957 0.43664836883544922
0.52049070596694946 0.77833497524261475 0.42572835087776184
0.67197149991989136 0.81916135549545288 0.45401895046234131
0.85403382778167725 0.87308233976364136 0.49140810966491699
0.13081009685993195 0.080839335918426514 0.43780103325843811
0.29168939590454102 0.081986859440803528 0.4498848021030426
0.56789964437484741 0.035833783447742462 0.48857241868972778
0.87737739086151123 0 0.50403523445129395
0.9999847412109375 0.08080621063709259 0.47925734519958496
0.10221998393535614 0.23027080297470093 0.45102477073669434
0.30144485831260681 0.2536567747592926 0.46662089228630066
0.57303535938262939 0.27354732155799866 0.49941739439964294
0.86172264814376831 0.2594808042049408 0.50759893655776978
0.99708461761474609 0.31926167011260986 0.49376881122589111
0.068125046789646149 0.52711665630340576 0.49022784829139709
0.30027320981025696 0.53184014558792114 0.49804908037185669
0.55387765169143677 0.53582310676574707 0.51030796766281128
0.78247153759002686 0.53205978870391846 0.5018889307975769
0.95283222198486328 0.53578639030456543 0.49528354406356812
0.39912563562393188 0.70434677600860596 0.52121281623840332
0.46073740720748901 0.6971936821937561 0.52629119157791138
0.52697294950485229 0.65957283973693848 0.49514555931091309
0.71125739812850952 0.7065843939781189 0.52269089221954346
0.90918922424316406 0.72794419527053833 0.49903392791748047
0.51301306486129761 0.83274167776107788 0.58296144008636475
0.53087764978408813 0.82645165920257568 0.57664364576339722
0.57459712028503418 0.80748945474624634 0.55730575323104858
0.67781764268875122 0.81425493955612183 0.55928945541381836
0.8578612208366394 0.87567144632339478 0.61056816577911377
0.28116172552108765 0.1177462637424469 0.69146227836608887
0.39518526196479797 0.12212757021188736 0.69788521528244019
0.60474556684494019 0.148872971534729 0.7098701000213623
0.82067686319351196 0.20146648585796356 0.73653602600097656
0.99670243263244629 0.24673525989055634 0.73123341798782349
0.28647938370704651 0.26805573701858521 0.69413554668426514
0.39771908521652222 0.2762424647808075 0.69935709238052368
0.60197693109512329 0.30682507157325745 0.71135413646697998
0.81118863821029663 0.36060157418251038 0.73711907863616943
0.99057471752166748 0.39983505010604858 0.73565042018890381
0.1465476006269455 0.46367976069450378 0.67935454845428467
0.31213304400444031 0.47304341197013855 0.68739581108093262
0.57664269208908081 0.52451092004776001 0.70715177059173584
0.78323644399642944 0.57712399959564209 0.73525530099868774
0.96924018859863281 0.60602909326553345 0.74915874004364014
0.38914638757705688 0.73454749584197998 0.72157818078994751
0.46345129609107971 0.73500031232833862 0.72386395931243896
0.60316294431686401 0.73508000373840332 0.72794818878173828
0.75765544176101685 0.7394067645072937 0.73717355728149414
0.91620004177093506 0.73713737726211548 0.73047703504562378
0.5965380072593689 0.88493108749389648 0.75201356410980225
0.6188427209854126 0.88194221258163452 0.75162136554718018
0.67199105024337769 0.87092447280883789 0.74722588062286377
0.71728456020355225 0.83444231748580933 0.70983624458312988
0.8692173957824707 0.88244384527206421 0.74635964632034302
0.49871167540550232 0.25365409255027771 0.87709963321685791
0.55550199747085571 0.26509428024291992 0.87767124176025391
0.68081146478652954 0.30325055122375488 0.87881827354431152
0.83044099807739258 0.38732016086578369 0.88150805234909058
0.97200924158096313 0.45303657650947571 0.89295387268066406
0.49503517150878906 0.36037361621856689 0.87461310625076294
0.55159938335418701 0.37059590220451355 0.87550598382949829
0.67543977499008179 0.40206760168075562 0.87682855129241943
0.8236355185508728 0.46956494450569153 0.87979584932327271
0.96229928731918335 0.52574300765991211 0.89127141237258911
0.43748444318771362 0.51701128482818604 0.86599093675613403
0.51534712314605713 0.53370833396911621 0.86734139919281006
0.65204167366027832 0.55853563547134399 0.86993330717086792
0.80639231204986572 0.60513800382614136 0.87606251239776611
0.94530230760574341 0.64647972583770752 0.88979911804199219
0.3800942599773407 0.69196987152099609 0.8594546914100647
0.43333315849304199 0.68894684314727783 0.85900211334228516
0.55423253774642944 0.67971837520599365 0.85720127820968628
0.76789110898971558 0.72500920295715332 0.87019133567810059
0.92498135566711426 0.77693593502044678 0.89041471481323242
0.56565612554550171 0.90162158012390137 0.88229095935821533
0.59508824348449707 0.90134412050247192 0.88268351554870605
0.67077821493148804 0.90114390850067139 0.88432407379150391
0.78165328502655029 0.90183132886886597 0.88807100057601929
0.90663105249404907 0.90566152334213257 0.89456409215927124
