LUTs/Fuji Astia 100F.cube
# Created by: G'MIC (https://gmic.eu)
TITLE "Fuji Astia 100F"
# LUT size
LUT_3D_SIZE 5
# Data domain
# LUT data points
DOMAIN_MIN 0.000000 0.000000 0.000000
DOMAIN_MAX 0.903226 0.903226 0.903226
0.003680775873363018 0.0052121956832706928 0.0048665879294276237
0.20370182394981384 0.10552489012479782 0.04917372390627861
0.44114714860916138 0.1994873583316803 0.14492550492286682
0.68331301212310791 0.24117060005664825 0.20401106774806976
0.83925563097000122 0.22775651514530182 0.20692785084247589
0.14581379294395447 0.19205184280872345 0.074822127819061279
0.27456071972846985 0.25802895426750183 0.11241474002599716
0.53128039836883545 0.33212494850158691 0.19778767228126526
0.74343520402908325 0.3741830587387085 0.25710007548332214
0.8501427173614502 0.37038728594779968 0.24330699443817139
0.26449701189994812 0.4013679027557373 0.14686737954616547
0.44729116559028625 0.47999024391174316 0.209660604596138
0.66731804609298706 0.5554964542388916 0.28397151827812195
0.83431005477905273 0.56822347640991211 0.31455498933792114
0.92069751024246216 0.5725550651550293 0.29197001457214355
0.31203889846801758 0.58662611246109009 0.18068790435791016
0.49315217137336731 0.6243322491645813 0.24061845242977142
0.67500787973403931 0.69570088386535645 0.31254327297210693
0.86202698945999146 0.67806237936019897 0.32093769311904907
0.93911248445510864 0.68291395902633667 0.29529687762260437
0.29199963808059692 0.75224125385284424 0.17975224554538727
0.4719739556312561 0.77462470531463623 0.2369304895401001
0.6431506872177124 0.80345338582992554 0.29414433240890503
0.82259666919708252 0.80115485191345215 0.29796707630157471
0.92922627925872803 0.80450516939163208 0.27440744638442993
0.031521137803792953 0.045064371079206467 0.16436980664730072
0.20015794038772583 0.111667200922966 0.19297675788402557
0.48599082231521606 0.2211398184299469 0.26360827684402466
0.73318648338317871 0.27294328808784485 0.32357814908027649
0.84419673681259155 0.2473105788230896 0.32177969813346863
0.11352404206991196 0.20441751182079315 0.22552388906478882
0.23210129141807556 0.23475193977355957 0.23508305847644806
0.56473076343536377 0.31698405742645264 0.28529196977615356
0.81147706508636475 0.39072325825691223 0.35903486609458923
0.85255163908004761 0.38242894411087036 0.3440815806388855
0.2574029266834259 0.4240938127040863 0.31047672033309937
0.4498593807220459 0.51205801963806152 0.36107665300369263
0.71221733093261719 0.62214303016662598 0.38023912906646729
0.90072274208068848 0.60250258445739746 0.40760296583175659
0.92189216613769531 0.58620536327362061 0.39711013436317444
0.35234716534614563 0.62900489568710327 0.34776255488395691
0.53397363424301147 0.66535979509353638 0.38448596000671387
0.72226864099502563 0.73558932542800903 0.43062508106231689
0.90326374769210815 0.71120387315750122 0.45508763194084167
0.94565105438232422 0.70408552885055542 0.42681658267974854
0.34782731533050537 0.79516887664794922 0.34943637251853943
0.51982086896896362 0.79362547397613525 0.38172087073326111
0.68185830116271973 0.81599932909011841 0.42993175983428955
0.83490896224975586 0.8228919506072998 0.45344462990760803
0.91846132278442383 0.83134585618972778 0.44207596778869629
0.13601717352867126 0.15362513065338135 0.34805864095687866
0.25692752003669739 0.21466486155986786 0.40046405792236328
0.47106549143791199 0.28419288992881775 0.45866042375564575
0.7098967432975769 0.31413859128952026 0.47949263453483582
0.83275169134140015 0.27930843830108643 0.46773222088813782
0.17797315120697021 0.31780549883842468 0.43113109469413757
0.26909294724464417 0.3257746696472168 0.44686391949653625
0.52949434518814087 0.42073312401771545 0.50707828998565674
0.74703550338745117 0.45753714442253113 0.5086667537689209
0.83552289009094238 0.4440191388130188 0.50343292951583862
0.24926918745040894 0.47707170248031616 0.52680611610412598
0.37615653872489929 0.545185387134552 0.59460127353668213
0.62347990274429321 0.62735199928283691 0.62762510776519775
0.83259391784667969 0.66412472724914551 0.58326804637908936
0.89155775308609009 0.647602379322052 0.55976033210754395
0.33863359689712524 0.65535891056060791 0.56512290239334106
0.50784218311309814 0.69280117750167847 0.59912389516830444
0.71050453186035156 0.77835226058959961 0.61723178625106812
0.90072035789489746 0.82779407501220703 0.60151189565658569
0.92883312702178955 0.77544009685516357 0.59037750959396362
0.34461292624473572 0.8087272047996521 0.55496013164520264
0.53131461143493652 0.82192260026931763 0.57076412439346313
0.72211098670959473 0.85050404071807861 0.57986682653427124
0.85888159275054932 0.87993842363357544 0.6042410135269165
0.93032002449035645 0.88278615474700928 0.62443041801452637
0.2110222727060318 0.25960114598274231 0.59816896915435791
0.36040329933166504 0.33069694042205811 0.64797770977020264
0.49509799480438232 0.35607245564460754 0.68362921476364136
0.6726953387260437 0.36268416047096252 0.70427095890045166
0.82598495483398438 0.33528432250022888 0.70716488361358643
0.26633855700492859 0.43145707249641418 0.66182851791381836
0.39745062589645386 0.48156547546386719 0.69002783298492432
0.51483619213104248 0.51336264610290527 0.72205942869186401
0.68595987558364868 0.53679186105728149 0.73869490623474121
0.82100158929824829 0.51367759704589844 0.73437309265136719
0.29608055949211121 0.55874383449554443 0.71320259571075439
0.41510477662086487 0.60862845182418823 0.75476396083831787
0.57844549417495728 0.65125745534896851 0.80654513835906982
0.73587340116500854 0.69187915325164795 0.79676389694213867
0.8528296947479248 0.69908338785171509 0.77408277988433838
0.32180795073509216 0.6878700852394104 0.75588423013687134
0.47112593054771423 0.71977794170379639 0.80133241415023804
0.61159390211105347 0.7957693338394165 0.86147069931030273
0.83921533823013306 0.84345519542694092 0.84276390075683594
0.92900574207305908 0.83870023488998413 0.78962934017181396
0.32038846611976624 0.8242717981338501 0.76421076059341431
0.49090752005577087 0.82691162824630737 0.79214072227478027
0.6624951958656311 0.85925006866455078 0.8098757266998291
0.85586458444595337 0.90719032287597656 0.78681826591491699
0.97842180728912354 0.9303162693977356 0.77155971527099609
0.24849018454551697 0.30178755521774292 0.82547414302825928
0.39582207798957825 0.34147971868515015 0.835254967212677
0.51661759614944458 0.35359922051429749 0.84669983386993408
0.68775367736816406 0.37417072057723999 0.88475161790847778
0.84991955757141113 0.36547747254371643 0.90579158067703247
0.28430017828941345 0.45351928472518921 0.83050382137298584
0.41901883482933044 0.49175271391868591 0.83334636688232422
0.55147039890289307 0.52111250162124634 0.8535652756690979
0.7160499095916748 0.5579572319984436 0.89597266912460327
0.84580147266387939 0.54481238126754761 0.91394674777984619
0.30341383814811707 0.57356929779052734 0.83687031269073486
0.44055759906768799 0.61428391933441162 0.84563112258911133
0.62098014354705811 0.64432698488235474 0.87472337484359741
0.77485781908035278 0.68900251388549805 0.92311137914657593
0.85107952356338501 0.69467365741729736 0.92794734239578247
0.32407674193382263 0.71938079595565796 0.88081246614456177
0.48395779728889465 0.74879229068756104 0.89542019367218018
0.62520134449005127 0.80953872203826904 0.9388958215713501
0.81144124269485474 0.82279455661773682 0.96447354555130005
0.88366842269897461 0.83751851320266724 0.95323652029037476
0.32674175500869751 0.8553968071937561 0.90686917304992676
0.50299680233001709 0.8639683723449707 0.92482304573059082
0.65434229373931885 0.88855552673339844 0.95400112867355347
0.79402011632919312 0.91726487874984741 0.96810668706893921
0.94034749269485474 0.95260447263717651 0.95017069578170776
