LUTs/Fuji Sensia 100.cube
# Created by: G'MIC (https://gmic.eu)
TITLE "Fuji Sensia 100"
# LUT size
LUT_3D_SIZE 5
# Data domain
# LUT data points
DOMAIN_MIN 0.000000 0.000000 0.000000
DOMAIN_MAX 0.903226 0.903226 0.903226
0.018287990242242813 0.01977958157658577 0.015737833455204964
0.20002788305282593 0.016222281381487846 0.004041875246912241
0.39180079102516174 0.012241484597325325 0.00015175947919487953
0.6580207347869873 0.0075194984674453735 0
0.85480660200119019 0.0060960911214351654 0
0.12774601578712463 0.26094695925712585 0.12799838185310364
0.25459498167037964 0.25720545649528503 0.11237508803606033
0.45528259873390198 0.24989965558052063 0.087385125458240509
0.72780877351760864 0.23937101662158966 0.051071416586637497
0.92546296119689941 0.23464959859848022 0.063901051878929138
0.18261627852916718 0.53434497117996216 0.23407204449176788
0.30729573965072632 0.53256475925445557 0.22364108264446259
0.52917492389678955 0.5274587869644165 0.19604277610778809
0.81159383058547974 0.51949977874755859 0.15842185914516449
0.99685132503509521 0.51763635873794556 0.17752672731876373
0.25283446907997131 0.79616051912307739 0.29372385144233704
0.37610185146331787 0.79426515102386475 0.28464972972869873
0.62297648191452026 0.78794115781784058 0.2572820782661438
0.90009033679962158 0.77970248460769653 0.22503262758255005
1 0.77670508623123169 0.26166626811027527
0.40818923711776733 0.9294886589050293 0.20276010036468506
0.51285922527313232 0.9272034764289856 0.18966677784919739
0.7396395206451416 0.92115765810012817 0.15423639118671417
0.99200296401977539 0.91336500644683838 0.13141423463821411
1 0.91056150197982788 0.21664594113826752
0.0087457150220870972 0.0061439629644155502 0.16389815509319305
0.1765379011631012 0.003329291008412838 0.13453508913516998
0.36717259883880615 0.0026955513749271631 0.10236664116382599
0.62645375728607178 0.00096164492424577475 0.061391808092594147
0.80664390325546265 0.00060423626564443111 0.075644329190254211
0.12493563443422318 0.2403007298707962 0.25275978446006775
0.23721438646316528 0.23661650717258453 0.23688682913780212
0.43720752000808716 0.22995837032794952 0.20746313035488129
0.70177143812179565 0.21937668323516846 0.16921767592430115
0.88392001390457153 0.21556605398654938 0.18253259360790253
0.1601303368806839 0.52561837434768677 0.3517225980758667
0.29048818349838257 0.52386617660522461 0.34132722020149231
0.51556938886642456 0.51849627494812012 0.31403970718383789
0.7878115177154541 0.51077646017074585 0.28003495931625366
0.96520578861236572 0.50896143913269043 0.30020585656166077
0.21402740478515625 0.79823201894760132 0.42030510306358337
0.35135450959205627 0.79631048440933228 0.41094222664833069
0.60573422908782959 0.79030591249465942 0.3836979866027832
0.87260645627975464 0.78250688314437866 0.35766568779945374
1 0.77951496839523315 0.3894900381565094
0.36773878335952759 0.93571484088897705 0.36990037560462952
0.47909462451934814 0.93347030878067017 0.36043763160705566
0.7102089524269104 0.92715787887573242 0.33533459901809692
0.95813947916030884 0.91983628273010254 0.3192903995513916
1 0.91774004697799683 0.37530642747879028
0.007388486061245203 2.8859226404165383e-06 0.30738767981529236
0.15922529995441437 0 0.28103294968605042
0.34818211197853088 0 0.2508125901222229
0.59155565500259399 0 0.21560852229595184
0.75358384847640991 0 0.22807274758815765
0.12697538733482361 0.20424491167068481 0.40261989831924438
0.21888226270675659 0.20055466890335083 0.3894420862197876
0.41421091556549072 0.1919282078742981 0.36221227049827576
0.65895217657089233 0.18109540641307831 0.32878145575523376
0.82109040021896362 0.17617958784103394 0.34036242961883545
0.13770522177219391 0.50201988220214844 0.52733087539672852
0.27149674296379089 0.49917608499526978 0.51831907033920288
0.4937228262424469 0.49342873692512512 0.49344933032989502
0.74122470617294312 0.48627045750617981 0.46602991223335266
0.89999371767044067 0.48344168066978455 0.47864696383476257
0.16003535687923431 0.79819715023040771 0.63908559083938599
0.31457421183586121 0.79616636037826538 0.63018780946731567
0.57298147678375244 0.7902647852897644 0.60578298568725586
0.81306767463684082 0.78389209508895874 0.58493661880493164
0.96691310405731201 0.78048133850097656 0.60176783800125122
0.29730844497680664 0.94654178619384766 0.6430773138999939
0.42317524552345276 0.9438169002532959 0.63422763347625732
0.65549999475479126 0.93858218193054199 0.61279624700546265
0.87696760892868042 0.93199747800827026 0.60136508941650391
0.99989914894104004 0.93007951974868774 0.6322399377822876
0.011779644526541233 8.5858322563581169e-05 0.50180262327194214
0.15887370705604553 0 0.47761896252632141
0.34375745058059692 0 0.44561991095542908
0.56060755252838135 0 0.40896007418632507
0.70646744966506958 0 0.40218225121498108
0.10900916904211044 0.12359406054019928 0.58111518621444702
0.20850707590579987 0.11713559925556183 0.56498771905899048
0.38957780599594116 0.10597720742225647 0.53170371055603027
0.5998607873916626 0.093284711241722107 0.492084801197052
0.7433772087097168 0.085233740508556366 0.48029327392578125
0.18591013550758362 0.44296208024024963 0.71409326791763306
0.29275143146514893 0.43999677896499634 0.70168417692184448
0.49048787355422974 0.43277883529663086 0.66940176486968994
0.69547218084335327 0.42433762550354004 0.63353824615478516
0.83680886030197144 0.4194352924823761 0.62041085958480835
0.22795213758945465 0.78570467233657837 0.84301310777664185
0.35413110256195068 0.78316289186477661 0.83123636245727539
0.57460957765579224 0.77746748924255371 0.80082809925079346
0.77148091793060303 0.77098578214645386 0.77114588022232056
0.91319698095321655 0.76705843210220337 0.75884068012237549
0.32941147685050964 0.95135176181793213 0.89104962348937988
0.43740347027778625 0.95102065801620483 0.87975203990936279
0.63266086578369141 0.94670134782791138 0.85408937931060791
0.81563001871109009 0.93925595283508301 0.8298148512840271
0.95653653144836426 0.93533438444137573 0.82068717479705811
0.062974840402603149 0.0039215688593685627 0.65540111064910889
0.21450512111186981 0 0.6230771541595459
0.38238370418548584 0 0.58403915166854858
0.55728036165237427 0 0.54415935277938843
0.68258130550384521 0 0.52328908443450928
0.15903155505657196 0.0049785375595092773 0.66440117359161377
0.24531844258308411 0.0012076143175363541 0.64441764354705811
0.39726155996322632 0.00027941996813751757 0.60729992389678955
0.55834919214248657 3.6825229472015053e-05 0.56930148601531982
0.67837947607040405 1.8032516891253181e-05 0.54721266031265259
0.32993566989898682 0.31810647249221802 0.77879679203033447
0.39571920037269592 0.31426861882209778 0.76443558931350708
0.53104621171951294 0.3048689067363739 0.73276346921920776
0.6719125509262085 0.29439699649810791 0.69994938373565674
0.78413593769073486 0.28594717383384705 0.67826396226882935
0.45264425873756409 0.73493331670761108 0.92286038398742676
0.51446151733398438 0.73257416486740112 0.9121859073638916
0.64358329772949219 0.72745555639266968 0.8877718448638916
0.77366191148757935 0.72171425819396973 0.86290830373764038
0.88658350706100464 0.71664226055145264 0.8438643217086792
0.54362952709197998 0.94276493787765503 0.9936644434928894
0.59411072731018066 0.94135767221450806 0.98628157377243042
0.69984632730484009 0.93801456689834595 0.96842026710510254
0.81866180896759033 0.93405497074127197 0.94794338941574097
0.9308733344078064 0.93040215969085693 0.93054121732711792
