LUTs/Fuji FP-100c 1--.cube
# Created by: G'MIC (https://gmic.eu)
TITLE "Fuji FP-100c 1--"
# LUT size
LUT_3D_SIZE 32
# Data domain
DOMAIN_MIN 0.0 0.0 0.0
DOMAIN_MAX 1.0 1.0 1.0
# LUT data points
0.0010622177505865693 0.0023377113975584507 0.0016458039171993732
0.0070084012113511562 0.0054304972290992737 0.0042253346182405949
0.0181998610496521 0.0091051338240504265 0.0071670743636786938
0.034626130014657974 0.013883808627724648 0.010704749263823032
0.057320259511470795 0.019672038033604622 0.014570210129022598
0.088199317455291748 0.027657998725771904 0.019897952675819397
0.12483111768960953 0.03720942884683609 0.026774048805236816
0.16228219866752625 0.046208154410123825 0.033324029296636581
0.19956511259078979 0.053424425423145294 0.03863833099603653
0.23779141902923584 0.059326652437448502 0.042073052376508713
0.27940171957015991 0.064797773957252502 0.043920855969190598
0.3226475715637207 0.069807164371013641 0.045258022844791412
0.36631467938423157 0.074787259101867676 0.045570321381092072
0.40753474831581116 0.081076167523860931 0.046701319515705109
0.44453310966491699 0.089198991656303406 0.050173941999673843
0.47949829697608948 0.098183855414390564 0.054724965244531631
0.51443099975585938 0.10754677653312683 0.05941903218626976
0.5502505898475647 0.11754386126995087 0.064024068415164948
0.5823596715927124 0.12816278636455536 0.069886423647403717
0.61034369468688965 0.13839246332645416 0.076966859400272369
0.63651388883590698 0.14807604253292084 0.084475249052047729
0.66215765476226807 0.15702047944068909 0.091677024960517883
0.68788051605224609 0.16497910022735596 0.098002925515174866
0.71367543935775757 0.17172296345233917 0.10315722972154617
0.73940497636795044 0.17719954252243042 0.10714837163686752
0.76483261585235596 0.18168367445468903 0.11025736480951309
0.78776156902313232 0.18473616242408752 0.11233709007501602
0.80770665407180786 0.1854674369096756 0.11298082023859024
0.8265112042427063 0.18455800414085388 0.11262188106775284
0.84490865468978882 0.18245400488376617 0.1115238294005394
0.86336910724639893 0.17954780161380768 0.10992152988910675
0.8819391131401062 0.17653149366378784 0.10822185128927231
0.0045360461808741093 0.0082350531592965126 0.0045316694304347038
0.0065263789147138596 0.0074308887124061584 0.0042857746593654156
0.014560065232217312 0.010815303772687912 0.0057785725221037865
0.031005360186100006 0.01593603752553463 0.0092506986111402512
0.052651062607765198 0.021195219829678535 0.013313977047801018
0.085320279002189636 0.030578628182411194 0.019776780158281326
0.12296562641859055 0.041984036564826965 0.027425793930888176
0.16037328541278839 0.052073869854211807 0.034111574292182922
0.19758355617523193 0.059215936809778214 0.039290148764848709
0.23616111278533936 0.065188787877559662 0.04244154691696167
0.27837526798248291 0.071067504584789276 0.04435395821928978
0.32218259572982788 0.076381787657737732 0.045664682984352112
0.36655661463737488 0.081663742661476135 0.045776110142469406
0.40778890252113342 0.088554702699184418 0.047316733747720718
0.44489872455596924 0.09735531359910965 0.051110107451677322
0.48040655255317688 0.10713194310665131 0.055849883705377579
0.51741659641265869 0.11742708832025528 0.060262657701969147
0.55455714464187622 0.12854591012001038 0.064821831881999969
0.58573639392852783 0.13969580829143524 0.071104958653450012
0.61294639110565186 0.15049202740192413 0.07864031195640564
0.63848483562469482 0.16082257032394409 0.086588315665721893
0.66381049156188965 0.17046229541301727 0.094118282198905945
0.68948662281036377 0.17912966012954712 0.10063622891902924
0.71545588970184326 0.18661801517009735 0.10590136796236038
0.74177670478820801 0.19315364956855774 0.11015241593122482
0.7669488787651062 0.19874878227710724 0.11358129233121872
0.78839755058288574 0.20179612934589386 0.11537876725196838
0.80757993459701538 0.20254988968372345 0.11575274914503098
0.82592916488647461 0.20181320607662201 0.11519302427768707
0.84407061338424683 0.20004454255104065 0.11398297548294067
0.86250466108322144 0.19803979992866516 0.11261734366416931
0.88057035207748413 0.19629167020320892 0.11142661422491074
0.011245569214224815 0.019307935610413551 0.0081394510343670845
0.012554009445011616 0.017434144392609596 0.0071902223862707615
0.016498014330863953 0.016809005290269852 0.0057469015009701252
0.029206298291683197 0.019972581416368484 0.0087172025814652443
0.050682753324508667 0.024682700634002686 0.013467634096741676
0.084056854248046875 0.035259999334812164 0.020930726081132889
0.12138620764017105 0.0478082075715065 0.028514942154288292
0.15850521624088287 0.057423699647188187 0.034775275737047195
0.19571845233440399 0.064103089272975922 0.039631903171539307
0.23496350646018982 0.070188216865062714 0.042523857206106186
0.27799147367477417 0.07616143673658371 0.044391904026269913
0.32238394021987915 0.08121144026517868 0.045438211411237717
0.36733067035675049 0.086670815944671631 0.045485485345125198
0.40848997235298157 0.094284072518348694 0.04756208136677742
0.44613105058670044 0.10416866838932037 0.051833845674991608
0.48406276106834412 0.11513697355985641 0.056420948356389999
0.52509325742721558 0.1265023946762085 0.059989515691995621
0.56182634830474854 0.13823771476745605 0.064805932343006134
0.59141755104064941 0.14997437596321106 0.071873925626277924
0.61738818883895874 0.16160629689693451 0.080308236181735992
0.64229649305343628 0.1729343980550766 0.089035630226135254
0.66762828826904297 0.18363267183303833 0.097093559801578522
0.69366276264190674 0.1933448314666748 0.10390356183052063
0.7203865647315979 0.20205104351043701 0.109462670981884
0.74703741073608398 0.20995992422103882 0.11414480954408646
0.77025431394577026 0.21556873619556427 0.11728409677743912
0.79004639387130737 0.2182534784078598 0.1185619905591011
0.80844223499298096 0.2190830260515213 0.11864686757326126
0.82635939121246338 0.21868179738521576 0.11793898791074753
0.84442353248596191 0.21782717108726501 0.11694816499948502
0.8626779317855835 0.21729943156242371 0.11620522290468216
0.8799399733543396 0.21613703668117523 0.11516454815864563
0.022282848134636879 0.037809029221534729 0.014444454573094845
0.023580934852361679 0.034275509417057037 0.012878619134426117
0.027210893109440804 0.034046810120344162 0.011539721861481667
0.035054061561822891 0.03477870300412178 0.011082017794251442
0.055623501539230347 0.039306744933128357 0.014935611747205257
0.086143732070922852 0.047610726207494736 0.022226648405194283
0.1204807385802269 0.05602157860994339 0.029392162337899208
0.15725177526473999 0.063325792551040649 0.035543717443943024
0.19417573511600494 0.069043710827827454 0.040142685174942017
0.23450736701488495 0.074709810316562653 0.042681459337472916
0.27836236357688904 0.080257229506969452 0.044185929000377655
0.32318577170372009 0.084788285195827484 0.044897526502609253
0.36840981245040894 0.090432524681091309 0.045036058872938156
0.40991079807281494 0.098996296525001526 0.047660812735557556
0.44979038834571838 0.11038590222597122 0.052094392478466034
0.49298015236854553 0.12249462306499481 0.055518306791782379
0.53662776947021484 0.13425292074680328 0.058378033339977264
0.57114255428314209 0.14645664393901825 0.064123213291168213
0.59872579574584961 0.15919336676597595 0.072630457580089569
0.6235804557800293 0.1722148060798645 0.082508116960525513
0.64848810434341431 0.18507243692874908 0.092288658022880554
0.67436832189559937 0.19720090925693512 0.1009223684668541
0.70116227865219116 0.20826299488544464 0.10803587734699249
0.72854089736938477 0.21841047704219818 0.11397530138492584
0.75347191095352173 0.22666142880916595 0.11855947226285934
0.77409690618515015 0.23155312240123749 0.12096560001373291
0.79259401559829712 0.23412658274173737 0.12182401120662689
0.81032657623291016 0.23527751863002777 0.1217203214764595
0.82798665761947632 0.23578013479709625 0.12120383232831955
0.84596049785614014 0.23639661073684692 0.12080217897891998
0.86350059509277344 0.23691068589687347 0.12049727886915207
0.87990540266036987 0.23561838269233704 0.11915724724531174
0.034023474901914597 0.059415128082036972 0.020801747217774391
0.036435827612876892 0.05683424323797226 0.019918981939554214
0.041188988834619522 0.057870421558618546 0.019088342785835266
0.04743613675236702 0.058721981942653656 0.01682143472135067
0.062556974589824677 0.062029395252466202 0.016853518784046173
0.088827431201934814 0.066650375723838806 0.022455206140875816
0.12109377235174179 0.071754761040210724 0.030950620770454407
0.15679964423179626 0.076166167855262756 0.037192255258560181
0.19363002479076385 0.078881151974201202 0.041256971657276154
0.23523850739002228 0.081971332430839539 0.043087080121040344
0.27936539053916931 0.08589993417263031 0.044232703745365143
0.32457691431045532 0.089392296969890594 0.044588815420866013
0.37032485008239746 0.094783075153827667 0.045077744871377945
0.4137631356716156 0.10430144518613815 0.047894243150949478
0.45861685276031494 0.11678128689527512 0.051176272332668304
0.50706571340560913 0.1288345605134964 0.052838873118162155
0.54998266696929932 0.14041726291179657 0.055869266390800476
0.58166706562042236 0.15357391536235809 0.06344989687204361
0.60750037431716919 0.16812364757061005 0.074225954711437225
0.63225102424621582 0.18328608572483063 0.085907086730003357
0.65788966417312622 0.19806842505931854 0.096682190895080566
0.6845288872718811 0.21172289550304413 0.10566239804029465
0.71201539039611816 0.22419010102748871 0.1129968985915184
0.73830115795135498 0.23503044247627258 0.11902263760566711
0.75993961095809937 0.24236907064914703 0.12280572205781937
0.77855050563812256 0.2468504011631012 0.12462286651134491
0.79610562324523926 0.24972043931484222 0.12526296079158783
0.81339091062545776 0.25178501009941101 0.12534342706203461
0.83085495233535767 0.25368818640708923 0.12533898651599884
0.84834039211273193 0.25569972395896912 0.12557432055473328
0.86471724510192871 0.25613966584205627 0.1250464916229248
0.88038915395736694 0.25461101531982422 0.12330283224582672
0.046813324093818665 0.085084915161132812 0.027786010876297951
0.050938371568918228 0.084394298493862152 0.02775474451482296
0.055974211543798447 0.085743308067321777 0.026777802035212517
0.062038011848926544 0.08746744692325592 0.023906700313091278
0.070116765797138214 0.090560637414455414 0.02112114243209362
0.090240605175495148 0.095853716135025024 0.024603325873613358
0.12242793291807175 0.10067597776651382 0.032753977924585342
0.15708082914352417 0.10402471572160721 0.038905810564756393
0.19389213621616364 0.10482870042324066 0.04274551197886467
0.23660917580127716 0.10337403416633606 0.04512370377779007
0.28133109211921692 0.10215466469526291 0.046466536819934845
0.32643917202949524 0.10238605737686157 0.046240054070949554
0.3734380304813385 0.10523318499326706 0.046749774366617203
0.42232614755630493 0.11310280114412308 0.048215825110673904
0.47260257601737976 0.12431912124156952 0.04933108389377594
0.52317643165588379 0.13455565273761749 0.049850843846797943
0.56382936239242554 0.14609880745410919 0.053993783891201019
0.59317141771316528 0.16100889444351196 0.064312517642974854
0.61873543262481689 0.17829030752182007 0.077680468559265137
0.64436441659927368 0.19594550132751465 0.090866535902023315
0.67075872421264648 0.2124551385641098 0.10206698626279831
0.69794368743896484 0.22741605341434479 0.11106366664171219
0.72501099109649658 0.24075751006603241 0.11848827451467514
0.74779462814331055 0.25070217251777649 0.12383714318275452
0.76648086309432983 0.25722727179527283 0.12685710191726685
0.78382182121276855 0.26196485757827759 0.12845757603645325
0.80076950788497925 0.26578843593597412 0.12931409478187561
0.81766390800476074 0.26918682456016541 0.12984424829483032
0.83483415842056274 0.27263927459716797 0.13049642741680145
0.85101306438446045 0.27481678128242493 0.13073819875717163
0.86621946096420288 0.27465358376502991 0.12960970401763916
0.88127923011779785 0.27299827337265015 0.12749454379081726
0.059681054204702377 0.11328666657209396 0.034668613225221634
0.064849480986595154 0.11289718002080917 0.034750591963529587
0.070059150457382202 0.11383756995201111 0.033083274960517883
0.074898496270179749 0.1166689544916153 0.030025379732251167
0.080793537199497223 0.12260153144598007 0.027539575472474098
0.094330653548240662 0.13093285262584686 0.028211114928126335
0.1221177726984024 0.13672016561031342 0.033719994127750397
0.15624496340751648 0.13962487876415253 0.039299789816141129
0.19469781219959259 0.14007265865802765 0.043245799839496613
0.23782658576965332 0.13709469139575958 0.047862406820058823
0.28349637985229492 0.13330487906932831 0.051200792193412781
0.32845586538314819 0.13183808326721191 0.052133012562990189
0.37626603245735168 0.13288547098636627 0.052979350090026855
0.43031778931617737 0.13489633798599243 0.051768835633993149
0.4860098659992218 0.13792018592357635 0.049476563930511475
0.53841745853424072 0.14278689026832581 0.049028702080249786
0.57779085636138916 0.15402930974960327 0.055334586650133133
0.6069645881652832 0.17141136527061462 0.068394333124160767
0.63354647159576416 0.19130240380764008 0.083338767290115356
0.65983104705810547 0.21069087088108063 0.096921049058437347
0.68651056289672852 0.22828750312328339 0.10790859162807465
0.71368879079818726 0.24408350884914398 0.11681823432445526
0.737754225730896 0.256684809923172 0.12379027158021927
0.75654947757720947 0.26536157727241516 0.12825986742973328
0.77355760335922241 0.27207368612289429 0.1311105340719223
0.79019474983215332 0.27783605456352234 0.13302287459373474
0.80657142400741577 0.28293883800506592 0.13429471850395203
0.82322841882705688 0.28786754608154297 0.13535438477993011
0.83918458223342896 0.29181563854217529 0.13628529012203217
0.8537217378616333 0.29303574562072754 0.13580514490604401
0.86801004409790039 0.29244160652160645 0.13413077592849731
0.88258504867553711 0.29080790281295776 0.13169972598552704
0.07215871661901474 0.14206668734550476 0.040524821728467941
0.078845582902431488 0.1413789689540863 0.040110599249601364
0.085123345255851746 0.14257040619850159 0.038135629147291183
0.090830370783805847 0.14638236165046692 0.035935569554567337
0.097058512270450592 0.15288005769252777 0.034321580082178116
0.10758707672357559 0.16224980354309082 0.033676043152809143
0.125599205493927 0.17140962183475494 0.034484229981899261
0.1549910306930542 0.17494544386863708 0.037006590515375137
0.1940767765045166 0.17471162974834442 0.041817046701908112
0.23795969784259796 0.17398472130298615 0.04908231645822525
0.28423953056335449 0.17204998433589935 0.055926822125911713
0.33057790994644165 0.17122484743595123 0.060641057789325714
0.37861904501914978 0.17147544026374817 0.061728134751319885
0.43453288078308105 0.16991160809993744 0.059119436889886856
0.49284341931343079 0.1657140702009201 0.055046193301677704
0.54772496223449707 0.16291408240795135 0.054598152637481689
0.59046566486358643 0.1707998663187027 0.062678657472133636
0.62279915809631348 0.18796315789222717 0.076109550893306732
0.65069663524627686 0.20796525478363037 0.090522050857543945
0.67725247144699097 0.22761069238185883 0.10343214869499207
0.7040289044380188 0.24563892185688019 0.11402370035648346
0.72939181327819824 0.26073893904685974 0.12257300317287445
0.74878644943237305 0.2716052234172821 0.12862779200077057
0.76533776521682739 0.28032135963439941 0.13298140466213226
0.78163039684295654 0.28815051913261414 0.13630783557891846
0.79762601852416992 0.295136958360672 0.13862675428390503
0.81368422508239746 0.30162045359611511 0.14024239778518677
0.82944262027740479 0.30733394622802734 0.14173473417758942
0.84337484836578369 0.31008550524711609 0.14199161529541016
0.85666149854660034 0.31051066517829895 0.14079774916172028
0.87033861875534058 0.30981865525245667 0.13873673975467682
0.8845561146736145 0.30836904048919678 0.13605685532093048
0.084997288882732391 0.17082479596138 0.044998165220022202
0.093076393008232117 0.17021530866622925 0.044400613754987717
0.10047917068004608 0.17165583372116089 0.043220382183790207
0.10715577006340027 0.17514601349830627 0.042422469705343246
0.11475759744644165 0.18156507611274719 0.041457407176494598
0.12415347993373871 0.19048699736595154 0.039238303899765015
0.13471235334873199 0.19977286458015442 0.035501547157764435
0.15514014661312103 0.20628400146961212 0.035044331103563309
0.19168935716152191 0.20907406508922577 0.04115062952041626
0.23541589081287384 0.21118973195552826 0.050105638802051544
0.28355354070663452 0.21281704306602478 0.060083307325839996
0.33234116435050964 0.21338464319705963 0.068276315927505493
0.38127759099006653 0.21318674087524414 0.070334836840629578
0.43746638298034668 0.209124356508255 0.067580781877040863
0.49436753988265991 0.2029263973236084 0.065140850841999054
0.5479360818862915 0.19858370721340179 0.067577943205833435
0.59498244524002075 0.20188368856906891 0.075697183609008789
0.63390034437179565 0.21383854746818542 0.087344318628311157
0.66613733768463135 0.2301885187625885 0.099771983921527863
0.69476032257080078 0.24788618087768555 0.11121642589569092
0.72133296728134155 0.26425397396087646 0.12074937671422958
0.74241119623184204 0.27684763073921204 0.12812064588069916
0.75894826650619507 0.28741508722305298 0.13403876125812531
0.774882972240448 0.2972869873046875 0.13902151584625244
0.79063904285430908 0.30621591210365295 0.14273048937320709
0.8062204122543335 0.31431090831756592 0.14520107209682465
0.82176125049591064 0.32168498635292053 0.14718887209892273
0.83544760942459106 0.32618677616119385 0.14825505018234253
0.84775733947753906 0.32767850160598755 0.14764781296253204
0.86035925149917603 0.32790392637252808 0.14603608846664429
0.87366312742233276 0.32738968729972839 0.14372168481349945
0.88759738206863403 0.32622441649436951 0.14082887768745422
0.097672976553440094 0.19956502318382263 0.049030281603336334
0.10660272836685181 0.19898901879787445 0.048843495547771454
0.11464851349592209 0.20008687674999237 0.048759792000055313
0.12257812172174454 0.20368175208568573 0.048612393438816071
0.1312386691570282 0.20979322493076324 0.046767495572566986
0.13973701000213623 0.21677373349666595 0.043135445564985275
0.14912308752536774 0.22488637268543243 0.03982912003993988
0.16411444544792175 0.23503561317920685 0.040378771722316742
0.19275213778018951 0.24447678029537201 0.045798812061548233
0.23328030109405518 0.2503107488155365 0.054408140480518341
0.28177961707115173 0.25358885526657104 0.064398728311061859
0.33279821276664734 0.25581014156341553 0.073715083301067352
0.38378110527992249 0.25553694367408752 0.078142337501049042
0.43802899122238159 0.25104010105133057 0.077749498188495636
0.49211657047271729 0.24541667103767395 0.078732535243034363
0.54398483037948608 0.24090765416622162 0.083068117499351501
0.59273940324783325 0.24155418574810028 0.09069555252790451
0.63715928792953491 0.24856998026371002 0.1006987988948822
0.67611807584762573 0.25991114974021912 0.1112850084900856
0.70890402793884277 0.27257451415061951 0.12075166404247284
0.73384553194046021 0.28424680233001709 0.12822909653186798
0.7529338002204895 0.29546940326690674 0.13509336113929749
0.76936829090118408 0.30661824345588684 0.14149138331413269
0.78513312339782715 0.31706845760345459 0.1466338038444519
0.80050951242446899 0.32660472393035889 0.15020620822906494
0.81583541631698608 0.33539110422134399 0.15278033912181854
0.82980144023895264 0.34177389740943909 0.15467415750026703
0.84154397249221802 0.34448853135108948 0.15481650829315186
0.85314714908599854 0.34563401341438293 0.15377289056777954
0.86542761325836182 0.34604683518409729 0.15193888545036316
0.87847065925598145 0.3458382785320282 0.14942626655101776
0.89214068651199341 0.34498351812362671 0.14632104337215424
0.10955391824245453 0.22789211571216583 0.053261514753103256
0.1190706342458725 0.22718586027622223 0.053610540926456451
0.12818558514118195 0.22850045561790466 0.05404416099190712
0.13778817653656006 0.23190106451511383 0.053647346794605255
0.14727102220058441 0.23645681142807007 0.052088845521211624
0.15659399330615997 0.24248579144477844 0.049773607403039932
0.16644762456417084 0.25053507089614868 0.048204272985458374
0.18008780479431152 0.26200705766677856 0.050175812095403671
0.202683225274086 0.27621796727180481 0.055569019168615341
0.23710298538208008 0.28853079676628113 0.063297443091869354
0.28198492527008057 0.29590979218482971 0.072430804371833801
0.33256518840789795 0.29957675933837891 0.08098718523979187
0.38444304466247559 0.29959100484848022 0.086931265890598297
0.43636345863342285 0.29558473825454712 0.090080916881561279
0.48833495378494263 0.29037073254585266 0.093478426337242126
0.53870397806167603 0.2857879102230072 0.098416641354560852
0.58790290355682373 0.28508612513542175 0.10542117804288864
0.63531655073165894 0.28857901692390442 0.11410968750715256
0.67881113290786743 0.29488077759742737 0.12334664911031723
0.71322697401046753 0.30202886462211609 0.1312669962644577
0.73974061012268066 0.31029841303825378 0.13807022571563721
0.76150166988372803 0.31976863741874695 0.14493061602115631
0.77943205833435059 0.3297688364982605 0.15093831717967987
0.79550802707672119 0.33971911668777466 0.15543563663959503
0.81093519926071167 0.34929248690605164 0.15865211188793182
0.82566392421722412 0.35737398266792297 0.16129398345947266
0.83772861957550049 0.36152553558349609 0.16241294145584106
0.84878194332122803 0.36360302567481995 0.16207648813724518
0.86021572351455688 0.36492875218391418 0.16085393726825714
0.87230783700942993 0.3656427264213562 0.15884815156459808
0.88510555028915405 0.36573889851570129 0.15612728893756866
0.89850097894668579 0.36517161130905151 0.15279176831245422
0.12056969851255417 0.25585773587226868 0.057690683752298355
0.13112127780914307 0.25527909398078918 0.058434322476387024
0.14194807410240173 0.25632920861244202 0.059090033173561096
0.15267330408096313 0.25872418284416199 0.059454683214426041
0.16311682760715485 0.26291695237159729 0.05919719859957695
0.17334796488285065 0.26899042725563049 0.05831441655755043
0.18405820429325104 0.27748292684555054 0.058409415185451508
0.19800621271133423 0.28967252373695374 0.061685658991336823
0.21859404444694519 0.30581393837928772 0.067563466727733612
0.24874401092529297 0.32319432497024536 0.074586249887943268
0.28785204887390137 0.33691021800041199 0.08270157128572464
0.3342708945274353 0.34415528178215027 0.091181181371212006
0.38401544094085693 0.34431403875350952 0.097923442721366882
0.43441492319107056 0.34084203839302063 0.10263083130121231
0.48467183113098145 0.33584260940551758 0.10702916234731674
0.53349685668945312 0.33110219240188599 0.11189784854650497
0.58287352323532104 0.3298107385635376 0.11849245429039001
0.63083922863006592 0.33018356561660767 0.12620909512042999
0.6730048656463623 0.3314957320690155 0.13429298996925354
0.70826470851898193 0.33554801344871521 0.14196792244911194
0.73888123035430908 0.34177494049072266 0.14930738508701324
0.7650456428527832 0.34892222285270691 0.15625683963298798
0.78647595643997192 0.35677927732467651 0.16144998371601105
0.80474793910980225 0.36526715755462646 0.16513895988464355
0.82128304243087769 0.37379145622253418 0.16816847026348114
0.83502542972564697 0.37933880090713501 0.1703801304101944
0.84647130966186523 0.38228580355644226 0.17093430459499359
0.85759741067886353 0.38442996144294739 0.17042125761508942
0.86897504329681396 0.38597381114959717 0.16902270913124084
0.88087046146392822 0.38692432641983032 0.16680127382278442
0.8933984637260437 0.38725900650024414 0.16383557021617889
0.90650761127471924 0.38693997263908386 0.16025823354721069
0.13119731843471527 0.28372788429260254 0.06239684671163559
0.14323893189430237 0.28274443745613098 0.063599072396755219
0.15506929159164429 0.28318113088607788 0.064979828894138336
0.16656509041786194 0.28556415438652039 0.066197045147418976
0.17777775228023529 0.28994825482368469 0.066789500415325165
0.1887984424829483 0.29637384414672852 0.067109771072864532
0.20060718059539795 0.30528464913368225 0.068631254136562347
0.21547605097293854 0.31713184714317322 0.07249586284160614
