LUTs/Fuji Superia Reala 100.cube
# Created by: G'MIC (https://gmic.eu)
TITLE "Fuji Superia Reala 100"
# LUT size
LUT_3D_SIZE 5
# Data domain
# LUT data points
DOMAIN_MIN 0.000000 0.000000 0.000000
DOMAIN_MAX 0.903226 0.903226 0.903226
0.020154943689703941 0.020162537693977356 0.017008708789944649
0.26067569851875305 0.0063635064288973808 0.006561164278537035
0.49828094244003296 9.4665934739168733e-05 0.0025593203026801348
0.73404854536056519 0 0.010779004544019699
0.91983836889266968 0 0.070778608322143555
0.10976913571357727 0.2694639265537262 0.099114611744880676
0.27325311303138733 0.25521349906921387 0.085652515292167664
0.5169188380241394 0.22139638662338257 0.069761328399181366
0.75084829330444336 0.15281355381011963 0.073657110333442688
0.92775863409042358 0.028630420565605164 0.10287343710660934
0.12773875892162323 0.49898922443389893 0.1316477358341217
0.30538007616996765 0.49459311366081238 0.12636096775531769
0.54710376262664795 0.47881558537483215 0.12300452589988708
0.7773817777633667 0.44547224044799805 0.14524923264980316
0.95935571193695068 0.37666928768157959 0.20458382368087769
0.28209209442138672 0.7042357325553894 0.065226636826992035
0.41244497895240784 0.70224243402481079 0.051882680505514145
0.63265645503997803 0.69565665721893311 0.048902347683906555
0.83704274892807007 0.68234574794769287 0.080772675573825836
0.99671965837478638 0.65602993965148926 0.18947611749172211
0.37077227234840393 0.87337952852249146 0.014391581527888775
0.48211216926574707 0.87207013368606567 0.010805215686559677
0.68936270475387573 0.86940610408782959 0.0056174560450017452
0.91737520694732666 0.86302030086517334 0.0014379610074684024
1 0.85129481554031372 0.0010784922633320093
0.013440842740237713 0.021133102476596832 0.21519798040390015
0.24501018226146698 0.0063745910301804543 0.18855349719524384
0.4715668261051178 6.0992744693066925e-05 0.16646642982959747
0.70110869407653809 0 0.16873010993003845
0.89239406585693359 0 0.20182004570960999
0.10197129100561142 0.2702537477016449 0.26939323544502258
0.25581923127174377 0.25549191236495972 0.25532916188240051
0.49217420816421509 0.2214437872171402 0.23524418473243713
0.7209014892578125 0.15108659863471985 0.22178088128566742
0.90277618169784546 0.02502189576625824 0.21578183770179749
0.071276120841503143 0.50285011529922485 0.2945995032787323
0.27473017573356628 0.49835354089736938 0.28900009393692017
0.51533424854278564 0.48234525322914124 0.28283679485321045
0.74371099472045898 0.44841131567955017 0.29278451204299927
0.9328884482383728 0.37747004628181458 0.317676842212677
0.25300422310829163 0.7082294225692749 0.19507938623428345
0.37547436356544495 0.70622915029525757 0.19576898217201233
0.58722591400146484 0.69961065053939819 0.21049888432025909
0.78910946846008301 0.6862339973449707 0.25871208310127258
0.96534121036529541 0.65923380851745605 0.33998697996139526
0.43433770537376404 0.87501394748687744 0.010727273300290108
0.52950745820999146 0.87402623891830444 0.0084666898474097252
0.71847516298294067 0.87057203054428101 0.004556950181722641
0.92836958169937134 0.86510103940963745 0.0028749438934028149
1 0.85555684566497803 0.06832604855298996
0.01721479557454586 0.019813789054751396 0.38048753142356873
0.24641211330890656 0.0060612033121287823 0.34564876556396484
0.46085682511329651 4.402710146678146e-06 0.31418737769126892
0.68195587396621704 0 0.30041235685348511
0.87285888195037842 0 0.30789729952812195
0.1042645275592804 0.26870909333229065 0.45161145925521851
0.25321739912033081 0.25303885340690613 0.43272513151168823
0.47658801078796387 0.21771010756492615 0.40199828147888184
0.69659900665283203 0.14479941129684448 0.36744961142539978
0.87839233875274658 0.018110793083906174 0.33199289441108704
0.035521242767572403 0.50667703151702881 0.51190286874771118
0.24914911389350891 0.50096118450164795 0.50284701585769653
0.48508766293525696 0.48458647727966309 0.48475486040115356
0.70914655923843384 0.44967249035835266 0.46799880266189575
0.90234208106994629 0.37717592716217041 0.45565831661224365
0.12476591020822525 0.7139972448348999 0.51957321166992188
0.28601273894309998 0.71197032928466797 0.51604419946670532
0.51323038339614868 0.70476841926574707 0.51052886247634888
0.72381168603897095 0.69083374738693237 0.51254677772521973
0.91577315330505371 0.66260838508605957 0.52757376432418823
0.3984667956829071 0.88086777925491333 0.3118610680103302
0.47633269429206848 0.87990289926528931 0.31913197040557861
0.62896442413330078 0.87765061855316162 0.34460347890853882
0.80092328786849976 0.87305819988250732 0.3965296745300293
0.9689369797706604 0.86279761791229248 0.47624725103378296
0.064929932355880737 0.013864275068044662 0.52203845977783203
0.27634209394454956 0.0029752992559224367 0.48433300852775574
0.46808713674545288 0 0.45185434818267822
0.67123240232467651 0 0.42905512452125549
0.85560488700866699 0 0.41985675692558289
0.15235273540019989 0.2573927640914917 0.60459911823272705
0.29434308409690857 0.24137610197067261 0.58362054824829102
0.48542696237564087 0.20425944030284882 0.54809719324111938
0.68417537212371826 0.12719555199146271 0.50187945365905762
0.8573601245880127 0.0072785359807312489 0.44692382216453552
0.15554369986057281 0.5040816068649292 0.68331384658813477
0.29037266969680786 0.49885821342468262 0.67220091819763184
0.48961007595062256 0.48202821612358093 0.64789009094238281
0.69415819644927979 0.44544526934623718 0.61746084690093994
0.8799896240234375 0.36743444204330444 0.58279746770858765
0.16161274909973145 0.71670997142791748 0.73283988237380981
0.29073646664619446 0.71402668952941895 0.726115882396698
0.49358206987380981 0.70735174417495728 0.71027290821075439
0.69323784112930298 0.69305568933486938 0.69298958778381348
0.88327211141586304 0.66321718692779541 0.67895925045013428
0.25618645548820496 0.88847815990447998 0.7131962776184082
0.3532264232635498 0.887595534324646 0.7101626992225647
0.52519100904464722 0.88503587245941162 0.70404177904129028
0.71438151597976685 0.87966477870941162 0.70062631368637085
0.90240341424942017 0.86836838722229004 0.70658338069915771
0.17003202438354492 0.0042346757836639881 0.6284211277961731
0.33780980110168457 0.00019963394152000546 0.5948372483253479
0.49775233864784241 0 0.56812566518783569
0.67614394426345825 0 0.54200488328933716
0.84660106897354126 0 0.52313584089279175
0.27225783467292786 0.2335456907749176 0.71015840768814087
0.37052538990974426 0.21631336212158203 0.69109386205673218
0.52140581607818604 0.1756681501865387 0.65596586465835571
0.69058346748352051 0.09377770870923996 0.60544431209564209
0.84736055135726929 0.00061497162096202374 0.54450708627700806
0.30334144830703735 0.49517285823822021 0.80064141750335693
0.38188779354095459 0.48930239677429199 0.79043722152709961
0.53126293420791626 0.47079482674598694 0.76647084951400757
0.70390671491622925 0.43133798241615295 0.73199564218521118
0.87233227491378784 0.34553354978561401 0.68531149625778198
0.31191852688789368 0.71502012014389038 0.87269467115402222
0.38343954086303711 0.71262997388839722 0.86613559722900391
0.53040802478790283 0.70524591207504272 0.84958672523498535
0.6985771656036377 0.6899530291557312 0.82728391885757446
0.8708261251449585 0.65819299221038818 0.80104744434356689
0.33530876040458679 0.89221775531768799 0.91634047031402588
0.39933186769485474 0.89085948467254639 0.91202616691589355
0.533477783203125 0.88832086324691772 0.90133482217788696
0.69666975736618042 0.88278687000274658 0.88660037517547607
0.87158513069152832 0.87110400199890137 0.87099575996398926
