LUTs/Fuji Velvia 50.cube
# Created by: G'MIC (https://gmic.eu)
TITLE "Fuji Velvia 50"
# LUT size
LUT_3D_SIZE 32
# Data domain
DOMAIN_MIN 0.0 0.0 0.0
DOMAIN_MAX 1.0 1.0 1.0
# LUT data points
0.0015642475336790085 0.0015119005693122745 0.00088280183263123035
0.0074502113275229931 0.0007116160704754293 0.0010608899174258113
0.017317337915301323 0.00068039516918361187 0.0010796419810503721
0.031058475375175476 0.00041856433381326497 0.0010796419810503721
0.050443284213542938 0.00024347216822206974 0.0010796419810503721
0.071378476917743683 3.4324264106544433e-06 0.0010796419810503721
0.098435632884502411 0 0.0010796419810503721
0.1331794261932373 0 0.0010796419810503721
0.17517727613449097 0 0.0010796419810503721
0.21644924581050873 0 0.0010796419810503721
0.25868237018585205 0 0.0010796419810503721
0.29939770698547363 0 0.0010796419810503721
0.33488911390304565 0 0.0010796419810503721
0.37144750356674194 0 0.0010796419810503721
0.40394648909568787 0 0.0010874103754758835
0.43740886449813843 0 0.0013049443950876594
0.47036567330360413 0 0.0014466318534687161
0.5057528018951416 0 0.0011742356000468135
0.54064828157424927 0 0.00086991878924891353
0.5786668062210083 0 0.00061137456214055419
0.61204427480697632 0 0.00038089157897047698
0.64843320846557617 0 0.00029258729773573577
0.68213170766830444 0 0.00015583523781970143
0.71305662393569946 0 5.5911346862558275e-05
0.74498462677001953 0 2.5354893296025693e-05
0.7751421332359314 0 2.0519776171568083e-06
0.80741852521896362 0 0
0.83873581886291504 0 0
0.87174296379089355 0 0
0.90568393468856812 0 0
0.94100075960159302 0 0
0.97127383947372437 0 0
0.0025754175148904324 0.0078287385404109955 0.0019035886507481337
0.0075866510160267353 0.0073038334958255291 0.0019044096115976572
0.017092304304242134 0.0061833462677896023 0.0020059281960129738
0.030628664419054985 0.0049025090411305428 0.0021498638670891523
0.050524942576885223 0.0039235884323716164 0.0021589084062725306
0.071303777396678925 0.0029626961331814528 0.0021711434237658978
0.098605461418628693 0.0016442560590803623 0.0023224798496812582
0.13371089100837708 0.00054667360382154584 0.0024178330786526203
0.17573428153991699 0.00015891954535618424 0.0024178330786526203
0.21665115654468536 2.9767963951599086e-06 0.0024178330786526203
0.25852224230766296 0 0.0024178330786526203
0.29939782619476318 0 0.0024178330786526203
0.33489730954170227 0 0.0024178330786526203
0.37144750356674194 0 0.0023993421345949173
0.40354233980178833 0 0.0022600386291742325
0.43719547986984253 0 0.0025303296279162169
0.46959733963012695 0 0.0026738764718174934
0.50507998466491699 0 0.0024371629115194082
0.53986036777496338 0 0.0020572184585034847
0.57860070466995239 0 0.0016659251414239407
0.61198961734771729 0 0.0012596024898812175
0.64822262525558472 0 0.00084254576358944178
0.68164831399917603 0 0.00066312227863818407
0.71244102716445923 0 0.00042991733062081039
0.7446136474609375 0 0.00033110968070104718
0.77473241090774536 0 0.00013597874203696847
0.80693292617797852 0 1.3575917364505585e-05
0.83835923671722412 0 0
0.87124943733215332 0 0
0.90534651279449463 0 0
0.94007843732833862 0 0
0.97077655792236328 0 0
0.0048984955064952374 0.019360175356268883 0.0031510184053331614
0.0093991076573729515 0.01789185032248497 0.0031350203789770603
0.017059706151485443 0.016510078683495522 0.003136214567348361
0.030370060354471207 0.014829958789050579 0.003137907711789012
0.050581749528646469 0.013147077523171902 0.0031570419669151306
0.071883112192153931 0.011212144047021866 0.003258582204580307
0.10040732473134995 0.0089329928159713745 0.003317392198368907
0.1355283111333847 0.0062996703200042248 0.0033190324902534485
0.17741915583610535 0.0037584765814244747 0.0033190324902534485
0.21814139187335968 0.0017839308129623532 0.0033190324902534485
0.26008129119873047 0.00059834163403138518 0.0033190324902534485
0.30046540498733521 0.00028728944016620517 0.0033190324902534485
0.33494207262992859 1.1559247468539979e-05 0.0033190324902534485
0.37144750356674194 0 0.0033188147936016321
0.4042762815952301 0 0.003318986389786005
0.43748697638511658 0 0.0034043821506202221
0.47069132328033447 0 0.0034804760944098234
0.50549167394638062 0 0.0032416617032140493
0.54071003198623657 0 0.003031549509614706
0.57873809337615967 0 0.0027612294070422649
0.61198961734771729 0 0.0024238601326942444
0.64836418628692627 0 0.0019596524070948362
0.68181294202804565 0 0.001617306494154036
0.71260815858840942 0 0.0012921880697831511
0.74466478824615479 0 0.00099150382447987795
0.7747654914855957 0 0.00064167985692620277
0.80700469017028809 0 0.00027556734858080745
0.83850955963134766 0 8.3627521235030144e-05
0.87124985456466675 0 4.4698240344587248e-06
0.90536612272262573 0 0
0.93991386890411377 0 0
0.97076308727264404 0 0
0.0081129875034093857 0.035992898046970367 0.0048258169554173946
0.012457480654120445 0.034373749047517776 0.0047922343946993351
0.019524924457073212 0.033127423375844955 0.0047844219952821732
0.031022759154438972 0.030432233586907387 0.0047389152459800243
0.050062824040651321 0.028258049860596657 0.0047387224622070789
0.072236724197864532 0.025440817698836327 0.0048527363687753677
0.10238730162382126 0.021922064945101738 0.0048997211270034313
0.13794155418872833 0.017749685794115067 0.0049000121653079987
0.18023562431335449 0.013385492376983166 0.0049000121653079987
0.22065292298793793 0.0096042091026902199 0.0049000121653079987
0.26229757070541382 0.0069477553479373455 0.0049000121653079987
0.30206143856048584 0.0049505173228681087 0.0048802332021296024
0.33659550547599792 0.0032890124712139368 0.0049403919838368893
0.37273707985877991 0.001324651762843132 0.0049156369641423225
0.40479376912117004 0.00038585142465308309 0.0048940069973468781
0.4385564923286438 6.8412577093113214e-05 0.0051402850076556206
0.47225573658943176 0 0.0052123814821243286
0.50787663459777832 0 0.004863077774643898
0.54197776317596436 0 0.0043798130936920643
0.57883769273757935 0 0.0038507366552948952
0.61220335960388184 0 0.0034686089493334293
0.64860200881958008 0 0.0030889145564287901
0.68236291408538818 0 0.0028527816757559776
0.71326637268066406 0 0.0024861423298716545
0.74508911371231079 0 0.0022057148162275553
0.77521347999572754 0 0.0017674691043794155
0.80738681554794312 0 0.001011998625472188
0.83874452114105225 0 0.00054072256898507476
0.87157922983169556 0 0.00020372198196128011
0.9057425856590271 0 2.0512870833044872e-05
0.94045859575271606 0 0
0.97081840038299561 0 0
0.012540228664875031 0.058227214962244034 0.0073241102509200573
0.016915943473577499 0.056943710893392563 0.0073241102509200573
0.02422170527279377 0.054938435554504395 0.0073063261806964874
0.034980200231075287 0.052756942808628082 0.0072027440182864666
0.050618346780538559 0.049849454313516617 0.0071847070939838886
0.072572074830532074 0.046715151518583298 0.0072655240073800087
0.10552031546831131 0.042047321796417236 0.0073234695009887218
0.1412474662065506 0.036608368158340454 0.0073672882281243801
0.1841762512922287 0.029942872002720833 0.0073958965949714184
0.22397172451019287 0.024409186094999313 0.0073958965949714184
0.2652866542339325 0.019503680989146233 0.0073936800472438335
0.30499207973480225 0.015654869377613068 0.0072955861687660217
0.33905807137489319 0.012478262186050415 0.0073207910172641277
0.37528577446937561 0.0084370728582143784 0.00731639564037323
0.40667563676834106 0.0053256661631166935 0.0072988248430192471
0.44035682082176208 0.0033891999628394842 0.0074430550448596478
0.47297146916389465 0.0019568880088627338 0.0074113467708230019
0.5089792013168335 0.00047337918658740819 0.0071977865882217884
0.54253107309341431 0.00010677698446670547 0.0067243501543998718
0.58057308197021484 0 0.0060502924025058746
0.61460155248641968 0 0.0054961191490292549
0.64919841289520264 0 0.0046395030803978443
0.68333810567855835 0 0.0041943113319575787
0.71420133113861084 0 0.00382814253680408
0.74582040309906006 0 0.0033918998669832945
0.77605807781219482 0 0.0029386398382484913
0.80825245380401611 0 0.0023239539004862309
0.83919495344161987 0 0.0016782610910013318
0.8723982572555542 0 0.00090329558588564396
0.90609478950500488 0 0.00029561910196207464
0.94169610738754272 0 3.1806510378373787e-05
0.97135812044143677 0 0
0.017715573310852051 0.085823960602283478 0.0098975729197263718
0.022216934710741043 0.084392718970775604 0.0098975729197263718
0.030007842928171158 0.082523010671138763 0.0098975729197263718
0.041040807962417603 0.080322854220867157 0.0098975729197263718
0.054677944630384445 0.07768789678812027 0.0098711932078003883
0.074440382421016693 0.074364557862281799 0.0097742695361375809
0.107239730656147 0.069698214530944824 0.0098280990496277809
0.14461721479892731 0.063892543315887451 0.0099558662623167038
0.18793359398841858 0.056680463254451752 0.01007416844367981
0.22735758125782013 0.050262656062841415 0.010080344974994659
0.26836705207824707 0.043718650937080383 0.010159024968743324
0.30769455432891846 0.038078922778367996 0.0098608573898673058
0.34184044599533081 0.032995019108057022 0.0097146946936845779
0.37724605202674866 0.026776993647217751 0.0096297282725572586
0.4085884690284729 0.021600786596536636 0.0096454676240682602
0.44192594289779663 0.017566647380590439 0.0098562957718968391
0.47557249665260315 0.013433529064059258 0.0097048971801996231
0.51110571622848511 0.0096070170402526855 0.0093677705153822899
0.54510623216629028 0.0063995271921157837 0.0087331924587488174
0.58262372016906738 0.0038979933597147465 0.0081331683322787285
0.61591184139251709 0.0022435616701841354 0.0076459944248199463
0.65129286050796509 0.0012431028299033642 0.0069466456770896912
0.68480110168457031 0.00053681043209508061 0.0064984019845724106
0.71534436941146851 0.00020530755864456296 0.0060055754147469997
0.74723351001739502 1.45271624205634e-05 0.0053524398244917393
0.77716350555419922 0 0.0046705771237611771
0.80942440032958984 0 0.0037591215223073959
0.84008371829986572 0 0.0030757011845707893
0.87358498573303223 0 0.0022263105493038893
0.90652811527252197 0 0.0012796914670616388
0.94280141592025757 0 0.00047535059275105596
0.97322094440460205 0 9.2493915872182697e-05
0.024911828339099884 0.12387312948703766 0.013120660558342934
0.029732484370470047 0.12275113165378571 0.013120660558342934
0.038066849112510681 0.12131376564502716 0.013120660558342934
0.048302184790372849 0.11931246519088745 0.013120660558342934
0.062213361263275146 0.11676559597253799 0.013049463741481304
0.08136778324842453 0.11315858364105225 0.012937956489622593
0.10875518620014191 0.1084747388958931 0.012938580475747585
0.14624369144439697 0.10290178656578064 0.012989598326385021
0.19015760719776154 0.095855072140693665 0.013117804192006588
0.2297966480255127 0.089628688991069794 0.013120844028890133
0.27046361565589905 0.082862712442874908 0.013171796686947346
0.30951723456382751 0.076384305953979492 0.012997139245271683
0.34278517961502075 0.070732057094573975 0.012853072956204414
0.37919938564300537 0.063890330493450165 0.012772825546562672
0.41024014353752136 0.05749930813908577 0.012747486121952534
0.44380918145179749 0.050949461758136749 0.012873772531747818
0.47664949297904968 0.044327929615974426 0.012489673681557178
0.51289021968841553 0.037389867007732391 0.012039651162922382
0.54641836881637573 0.0313727967441082 0.011515380814671516
0.58415687084197998 0.02462770976126194 0.010748240165412426
0.61762535572052002 0.019582511857151985 0.010205941274762154
0.65270149707794189 0.014341218397021294 0.0093086911365389824
0.68628740310668945 0.010419001802802086 0.0086250519379973412
0.7168811559677124 0.0069031338207423687 0.0081273866817355156
0.74860316514968872 0.004851026926189661 0.0075556128285825253
0.77836900949478149 0.0035941468086093664 0.0068250368349254131
0.81056153774261475 0.0014133470831438899 0.0057416772469878197
0.8417128324508667 0.00038377998862415552 0.0048507982864975929
0.8747132420539856 0.00018335338972974569 0.0038988224696367979
0.90826702117919922 1.1622582860582042e-05 0.0029521067626774311
0.9431006908416748 0 0.0019402992911636829
0.97458058595657349 0 0.00079576688585802913
0.032613363116979599 0.16755452752113342 0.016906382516026497
0.03803938627243042 0.16657084226608276 0.016954392194747925
0.046077698469161987 0.16516387462615967 0.016966624185442924
0.056543465703725815 0.16334128379821777 0.016966685652732849
0.07139771431684494 0.16074705123901367 0.016966685652732849
0.091525927186012268 0.15704670548439026 0.016966685652732849
0.11641609668731689 0.1524488776922226 0.016966685652732849
0.14861705899238586 0.1470513641834259 0.016966685652732849
0.18984122574329376 0.14066523313522339 0.016966685652732849
0.23018687963485718 0.13453961908817291 0.016966685652732849
0.27114090323448181 0.12814989686012268 0.016966685652732849
0.3095746636390686 0.1215779110789299 0.016966685652732849
0.34278544783592224 0.11599548161029816 0.016927588731050491
0.37929040193557739 0.10975222289562225 0.016819581389427185
0.41135114431381226 0.10362841188907623 0.016427477821707726
0.44502735137939453 0.097444698214530945 0.016241462901234627
0.47778454422950745 0.090638689696788788 0.015980629250407219
0.51348423957824707 0.083281807601451874 0.015388929285109043
0.5486876368522644 0.076397359371185303 0.014695911668241024
0.58651059865951538 0.068298444151878357 0.013845084235072136
0.61971312761306763 0.060777604579925537 0.01310901902616024
0.65407693386077881 0.053253676742315292 0.012256111018359661
0.68741345405578613 0.046306733042001724 0.011455940082669258
0.71819227933883667 0.039956491440534592 0.010775311850011349
0.74976950883865356 0.033527784049510956 0.009930306114256382
0.77981698513031006 0.028214028105139732 0.0090142525732517242
0.81192713975906372 0.021350165829062462 0.00780854607000947
0.84298741817474365 0.01536558847874403 0.0068015018478035927
0.8759235143661499 0.011194994673132896 0.0055931867100298405
0.90987086296081543 0.0074760722927749157 0.0044428072869777679
0.94473999738693237 0.004125585313886404 0.0033589452505111694
0.97496271133422852 0.0023200174327939749 0.0023037460632622242
0.031251732259988785 0.21517032384872437 0.020710589364171028
0.035726021975278854 0.21460475027561188 0.020866461098194122
0.043499577790498734 0.21305719017982483 0.020967371761798859
0.053758703172206879 0.21128475666046143 0.021054331213235855
0.07128269225358963 0.20844738185405731 0.021072195842862129
0.093869686126708984 0.20492053031921387 0.021245317533612251
0.12200389802455902 0.20046961307525635 0.021291377022862434
0.15346275269985199 0.19526883959770203 0.021328842267394066
0.18841449916362762 0.18936970829963684 0.021546095609664917
0.22801291942596436 0.18377082049846649 0.021573297679424286
0.26991945505142212 0.1776246577501297 0.021335449069738388
0.30941197276115417 0.17138727009296417 0.021319311112165451
0.34278544783592224 0.16591936349868774 0.021368110552430153
0.37927389144897461 0.1598438173532486 0.021295078098773956
0.410808265209198 0.15463326871395111 0.020925521850585938
0.44506722688674927 0.14866311848163605 0.020410275086760521
0.4785236120223999 0.14224371314048767 0.020190900191664696
0.51522672176361084 0.13520103693008423 0.019462920725345612
0.55006688833236694 0.1287652850151062 0.018623070791363716
0.58662617206573486 0.12135325372219086 0.017883555963635445
0.61983203887939453 0.11396737396717072 0.016940657049417496
0.65562182664871216 0.10636626183986664 0.01584661565721035
0.68846195936203003 0.099408313632011414 0.014898458495736122
0.71901184320449829 0.092648372054100037 0.013934715650975704
0.75089043378829956 0.084821105003356934 0.013019317761063576
0.78094714879989624 0.077756009995937347 0.011790252290666103
0.8131898045539856 0.069345436990261078 0.010520530864596367
0.84387350082397461 0.060569487512111664 0.0092961620539426804
0.87765669822692871 0.052017800509929657 0.007897278293967247
0.9104805588722229 0.043380405753850937 0.0063904928974807262
0.94683408737182617 0.033395092934370041 0.0049325604923069477
0.97733253240585327 0.026310145854949951 0.0038480795919895172
0.031233487650752068 0.25787907838821411 0.025563078001141548
0.035668652504682541 0.25703334808349609 0.025563078001141548
0.04338715597987175 0.25573158264160156 0.025583323091268539
0.053973589092493057 0.25365293025970459 0.025742067024111748
0.068323627114295959 0.25080931186676025 0.025876238942146301
0.085996545851230621 0.24739404022693634 0.025956070050597191
0.11306599527597427 0.24297818541526794 0.025948729366064072
0.14572896063327789 0.23824469745159149 0.025940975174307823
0.18424110114574432 0.23299141228199005 0.025942111387848854
0.22516067326068878 0.22768239676952362 0.025857703760266304
0.26765745878219604 0.22192771732807159 0.025623710826039314
0.30758562684059143 0.21606394648551941 0.02546272985637188
0.34236195683479309 0.21072354912757874 0.025588411837816238
0.37840917706489563 0.20488621294498444 0.025390580296516418
0.40917664766311646 0.20006442070007324 0.02514965645968914
0.44471558928489685 0.19431394338607788 0.024638179689645767
0.4775814414024353 0.18837819993495941 0.024378111585974693
0.51554155349731445 0.18157289922237396 0.023661907762289047
0.55010759830474854 0.17538996040821075 0.022892873734235764
0.58662629127502441 0.16818617284297943 0.021958980709314346
0.61983275413513184 0.16136839985847473 0.021187504753470421
0.65621638298034668 0.15411616861820221 0.019975563511252403
0.6891058087348938 0.14765867590904236 0.018847018480300903
0.71920144557952881 0.14115993678569794 0.017689835280179977
0.75169080495834351 0.13378347456455231 0.016522033140063286
0.78141099214553833 0.12705978751182556 0.015083814039826393
0.81376105546951294 0.11949599534273148 0.013517757877707481
0.84506440162658691 0.11155567318201065 0.012021701782941818
0.87851125001907349 0.10313987731933594 0.010571915656328201
0.91213643550872803 0.094200417399406433 0.0088766952976584435
0.94701266288757324 0.083825424313545227 0.0070561449974775314
0.97855818271636963 0.074793256819248199 0.0053817690350115299
0.019741225987672806 0.3015407919883728 0.030882744118571281
0.024319440126419067 0.30031853914260864 0.030902182683348656
0.031323809176683426 0.29886326193809509 0.030921360477805138
0.041420187801122665 0.29683893918991089 0.031141046434640884
0.058076214045286179 0.29424041509628296 0.031516369432210922
0.081059552729129791 0.29039037227630615 0.031745258718729019
0.10678010433912277 0.28615152835845947 0.031708262860774994
0.13474060595035553 0.28171038627624512 0.031523942947387695
0.177352175116539 0.27674084901809692 0.031582988798618317
0.22116301953792572 0.27219170331954956 0.031783170998096466
0.26456570625305176 0.26680663228034973 0.031685203313827515
0.30500593781471252 0.26162821054458618 0.03151649609208107
0.33896341919898987 0.25679755210876465 0.031393878161907196
0.37561777234077454 0.25091737508773804 0.031031934544444084
0.40823370218276978 0.2462141364812851 0.030714791268110275
0.44230905175209045 0.24068723618984222 0.029977966099977493
0.47661000490188599 0.23519471287727356 0.029270555824041367
0.51535296440124512 0.22884303331375122 0.028303107246756554
0.55012017488479614 0.22256799042224884 0.027319181710481644
0.58662629127502441 0.21577674150466919 0.026557087898254395
0.61983275413513184 0.20954678952693939 0.025598855689167976
0.65638142824172974 0.20279160141944885 0.024323424324393272
0.68933361768722534 0.19655586779117584 0.023018021136522293
0.71925860643386841 0.19037289917469025 0.022107601165771484
0.75184851884841919 0.18323387205600739 0.020841019228100777
0.78189480304718018 0.17675039172172546 0.019228475168347359
0.81421148777008057 0.16961930692195892 0.017498906701803207
0.84599059820175171 0.16240808367729187 0.01559880655258894
0.87879735231399536 0.15429867804050446 0.013649194501340389
0.91369551420211792 0.14602495729923248 0.011743700131773949
0.94784152507781982 0.13671568036079407 0.0097317779436707497
0.97861558198928833 0.12796580791473389 0.0077811526134610176
0.012848901562392712 0.34180498123168945 0.036986153572797775
0.015632415190339088 0.34072583913803101 0.037147555500268936
0.019641121849417686 0.33977153897285461 0.037358399480581284
0.02712591178715229 0.33751988410949707 0.037744887173175812
0.037928808480501175 0.33468601107597351 0.038104359060525894
0.053171060979366302 0.33121636509895325 0.038157548755407333
0.076051309704780579 0.32717561721801758 0.038171663880348206
0.11580343544483185 0.32293841242790222 0.038120973855257034
0.17005822062492371 0.31844699382781982 0.038056720048189163
0.21625348925590515 0.31415605545043945 0.038001827895641327
0.26097643375396729 0.3090953528881073 0.037896782159805298
0.30193892121315002 0.3043205738067627 0.037620488554239273
0.3364504873752594 0.29980719089508057 0.037274513393640518
0.3729587197303772 0.2945563793182373 0.037127651274204254
0.40540724992752075 0.28979101777076721 0.036660261452198029
0.44118472933769226 0.28466957807540894 0.035890385508537292
0.47650092840194702 0.27900999784469604 0.035357315093278885
0.51473391056060791 0.2729804515838623 0.034647908061742783
0.55009323358535767 0.26693958044052124 0.033687353134155273
0.58662629127502441 0.26007282733917236 0.032449379563331604
0.61983275413513184 0.25444090366363525 0.031169209629297256
0.6562117338180542 0.24821580946445465 0.029949959367513657
0.6892935037612915 0.24209485948085785 0.028147498145699501
0.71926355361938477 0.23616845905780792 0.026670234277844429
0.75194704532623291 0.229506716132164 0.025026438757777214
0.7821505069732666 0.2232280820608139 0.023151921108365059
0.81453663110733032 0.21679648756980896 0.021267261356115341
0.84659713506698608 0.20997011661529541 0.019419090822339058
0.87932848930358887 0.20229619741439819 0.017250530421733856
0.9140135645866394 0.19430987536907196 0.014869113452732563
0.95010650157928467 0.18582461774349213 0.012558475136756897
0.97925859689712524 0.1777624636888504 0.010451915673911572
0.00044955345219932497 0.37730520963668823 0.043119445443153381
0.0011217242572456598 0.3743932843208313 0.043125804513692856
0.0017825220711529255 0.37414035201072693 0.043179221451282501
0.0056255296804010868 0.37159103155136108 0.043242592364549637
0.013463211245834827 0.36936193704605103 0.043300479650497437
0.027108563110232353 0.36580178141593933 0.043319106101989746
0.053751282393932343 0.36206766963005066 0.04342324286699295
0.10629747062921524 0.3582834005355835 0.043860882520675659
0.16428948938846588 0.35401487350463867 0.044261209666728973
0.21178005635738373 0.34969896078109741 0.044229529798030853
0.25732430815696716 0.34540703892707825 0.043795552104711533
0.29889124631881714 0.34061402082443237 0.043532218784093857
0.33419129252433777 0.33631443977355957 0.043398104608058929
0.37111848592758179 0.33154815435409546 0.043364960700273514
0.40411496162414551 0.32702893018722534 0.042689863592386246
0.44094613194465637 0.3215881884098053 0.041945066303014755
0.47649317979812622 0.31597387790679932 0.040934212505817413
0.51468151807785034 0.31023392081260681 0.039938651025295258
0.55009394884109497 0.30446210503578186 0.038781099021434784
0.58662629127502441 0.29808336496353149 0.037391841411590576
0.61983275413513184 0.29269418120384216 0.036604534834623337
0.65596199035644531 0.28671923279762268 0.035281676799058914
0.68922752141952515 0.28067794442176819 0.033462081104516983
0.71926122903823853 0.27544057369232178 0.031865660101175308
0.75191640853881836 0.26876252889633179 0.0300921481102705
0.78215306997299194 0.26253309845924377 0.027980012819170952
0.81480443477630615 0.25663110613822937 0.025554295629262924
0.84675866365432739 0.24999214708805084 0.023315908387303352
0.88017237186431885 0.24266128242015839 0.02077813632786274
0.91402190923690796 0.23524031043052673 0.018242370337247849
0.9508243203163147 0.2273591160774231 0.015299329534173012
0.98061650991439819 0.21997992694377899 0.012786861509084702
0 0.41175493597984314 0.04992670938372612
0 0.41068601608276367 0.04992670938372612
0 0.41029813885688782 0.050135504454374313
4.1916802729247138e-05 0.40735495090484619 0.050473351031541824
