LUTs/HorrorBlue.cube
# Created by: G'MIC (https://gmic.eu)
TITLE "HorrorBlue"
# LUT size
LUT_3D_SIZE 5
# Data domain
# LUT data points
DOMAIN_MIN 0.000000 0.000000 0.000000
DOMAIN_MAX 0.903226 0.903226 0.903226
0 0.068271785974502563 0.11759019643068314
0.1612267792224884 0.030879206955432892 0.089814506471157074
0.3574775755405426 0 0.015547203831374645
0.58074963092803955 0 0.032236434519290924
0.88951355218887329 0 0.097721755504608154
0 0.16612495481967926 0.096787355840206146
0.13580881059169769 0.16874785721302032 0.088567487895488739
0.36035361886024475 0.16457131505012512 0.0023642654996365309
0.62460517883300781 0.16158188879489899 0.00016484134539496154
0.9036865234375 0.22072309255599976 0.056121543049812317
3.875381935358746e-06 0.3953244686126709 0.20136789977550507
0.18066708743572235 0.40524962544441223 0.20017535984516144
0.39960479736328125 0.43547511100769043 0.22312809526920319
0.66711711883544922 0.46678420901298523 0.16862070560455322
0.9722478985786438 0.4734933078289032 0.01060656551271677
0.24204631149768829 0.69852805137634277 0.37535732984542847
0.36031490564346313 0.70636194944381714 0.37854212522506714
0.5424993634223938 0.70291399955749512 0.36595028638839722
0.74910145998001099 0.70713478326797485 0.38109099864959717
0.97356045246124268 0.69969284534454346 0.32467088103294373
0.5054093599319458 0.89670926332473755 0.46260213851928711
0.5629805326461792 0.89148056507110596 0.45791715383529663
0.70777261257171631 0.88552474975585938 0.43128818273544312
0.8691028356552124 0.87557661533355713 0.43405506014823914
0.99969738721847534 0.86096227169036865 0.4356047511100769
0 0.0693955197930336 0.21182326972484589
0.063510388135910034 0.078254058957099915 0.20544551312923431
0.20478393137454987 0.12787877023220062 0.22035937011241913
0.46561795473098755 0.15575113892555237 0.27201688289642334
0.81271982192993164 0.16960977017879486 0.3193601667881012
0 0.170484259724617 0.21031972765922546
0.005511898547410965 0.1879926323890686 0.22122706472873688
0.26496821641921997 0.21138334274291992 0.24695685505867004
0.53950917720794678 0.24322405457496643 0.27683243155479431
0.86458706855773926 0.27038544416427612 0.32163193821907043
0 0.40703707933425903 0.3233904242515564
0.0035865125246345997 0.42391228675842285 0.31785538792610168
0.32569831609725952 0.4546857476234436 0.33918654918670654
0.62712877988815308 0.49094384908676147 0.2817855179309845
0.94163334369659424 0.49576020240783691 0.24696685373783112
0.069968685507774353 0.71157777309417725 0.45098534226417542
0.22630979120731354 0.71548986434936523 0.44757407903671265
0.48077833652496338 0.71480774879455566 0.44995719194412231
0.70508396625518799 0.72500145435333252 0.46448853611946106
0.94848889112472534 0.7148166298866272 0.3977692723274231
0.40468087792396545 0.90663659572601318 0.48628541827201843
0.48784145712852478 0.90502822399139404 0.50059771537780762
0.65789002180099487 0.89402443170547485 0.50189179182052612
0.83677041530609131 0.8826020359992981 0.49250110983848572
0.99026793241500854 0.87037563323974609 0.49350771307945251
0 0.07717575877904892 0.31847605109214783
0.00010143100371351466 0.096926681697368622 0.31905865669250488
0.18369981646537781 0.15127785503864288 0.33837345242500305
0.36442577838897705 0.2472861260175705 0.40239068865776062
0.59553349018096924 0.38941091299057007 0.51765739917755127
0 0.18657673895359039 0.33066919445991516
0 0.20598900318145752 0.3458411693572998
0.1713581383228302 0.25102099776268005 0.37744936347007751
0.37623676657676697 0.33900219202041626 0.4481966495513916
0.6631731390953064 0.44592300057411194 0.55132418870925903
0 0.42152741551399231 0.44583174586296082
0 0.43719244003295898 0.45732021331787109
0.14317423105239868 0.48520010709762573 0.49931347370147705
0.49612212181091309 0.53267282247543335 0.54960137605667114
0.8106987476348877 0.5675017237663269 0.58215045928955078
0.00087124726269394159 0.72106009721755981 0.60594767332077026
0.11326181143522263 0.72723144292831421 0.61253690719604492
0.31539559364318848 0.73784714937210083 0.60011559724807739
0.61187934875488281 0.74346643686294556 0.60519266128540039
0.89666831493377686 0.73995316028594971 0.51843249797821045
0.36385858058929443 0.91125607490539551 0.65011155605316162
0.41125893592834473 0.90995413064956665 0.6438480019569397
0.53128546476364136 0.916465163230896 0.60811793804168701
0.75529158115386963 0.9024539589881897 0.6116066575050354
0.93280935287475586 0.88866215944290161 0.61035352945327759
0 0.10412661731243134 0.42162644863128662
0 0.12273138016462326 0.41962677240371704
0.15262772142887115 0.18366767466068268 0.45951956510543823
0.36306384205818176 0.27572888135910034 0.53202855587005615
0.59444236755371094 0.41770029067993164 0.63782745599746704
0 0.21427510678768158 0.45406743884086609
0 0.22347965836524963 0.46338033676147461
0.13990272581577301 0.27627530694007874 0.50187903642654419
0.3775123655796051 0.36662465333938599 0.5766565203666687
0.61904734373092651 0.49177592992782593 0.67608267068862915
0 0.44461709260940552 0.58027392625808716
0 0.46544653177261353 0.59573632478713989
0.12512451410293579 0.50513362884521484 0.62715661525726318
0.41886615753173828 0.57004326581954956 0.68555104732513428
0.64996492862701416 0.63455682992935181 0.72960823774337769
0.000692041649017483 0.73005110025405884 0.72683322429656982
0.062652364373207092 0.73431044816970825 0.71828955411911011
0.29424935579299927 0.7503056526184082 0.73651361465454102
0.49343374371528625 0.77363806962966919 0.75024235248565674
0.77364152669906616 0.77936148643493652 0.76549452543258667
0.34602099657058716 0.91311031579971313 0.77065902948379517
0.40544220805168152 0.91280454397201538 0.76822984218597412
0.50760173797607422 0.92030078172683716 0.77218860387802124
0.63448029756546021 0.92741340398788452 0.76290607452392578
0.86033445596694946 0.91498571634292603 0.7557373046875
0 0.14568659663200378 0.53775078058242798
0 0.16395358741283417 0.54794633388519287
0.15785267949104309 0.22463409602642059 0.5958636999130249
0.37845033407211304 0.32031100988388062 0.67981851100921631
0.60876619815826416 0.44516539573669434 0.77694821357727051
0 0.248729407787323 0.5867268443107605
0 0.2648594081401825 0.59460413455963135
0.14712190628051758 0.31785225868225098 0.64333069324493408
0.38762643933296204 0.40610873699188232 0.72130531072616577
0.63314294815063477 0.51742750406265259 0.81411933898925781
0 0.481667160987854 0.71727710962295532
0 0.49888867139816284 0.73983800411224365
0.14316074550151825 0.53772199153900146 0.7734408974647522
0.41324999928474426 0.59717285633087158 0.82147908210754395
0.66772043704986572 0.64900630712509155 0.85831540822982788
0.00072697165887802839 0.73817223310470581 0.85658788681030273
0.0063067618757486343 0.74372750520706177 0.85969716310501099
0.29984870553016663 0.7631603479385376 0.87002211809158325
0.49312874674797058 0.78205949068069458 0.88239914178848267
0.71740913391113281 0.79940956830978394 0.88596546649932861
0.36701253056526184 0.9179375171661377 0.88397359848022461
0.41726934909820557 0.92080801725387573 0.88643836975097656
0.51980698108673096 0.92515510320663452 0.89117002487182617
0.62987488508224487 0.92691445350646973 0.885581374168396
0.76986068487167358 0.93367385864257812 0.89568734169006348
