LUTs/HorrorBlue.cube
# Created by: G'MIC (https://gmic.eu)
TITLE "HorrorBlue"
# LUT size
LUT_3D_SIZE 32
# Data domain
DOMAIN_MIN 0.0 0.0 0.0
DOMAIN_MAX 1.0 1.0 1.0
# LUT data points
0 0.068271785974502563 0.11759019643068314
6.5491345594637096e-05 0.066420458257198334 0.11633291840553284
0.0069344500079751015 0.064197175204753876 0.11413382738828659
0.03313504159450531 0.059678204357624054 0.11370408535003662
0.069301463663578033 0.05422847718000412 0.1135963648557663
0.10460975766181946 0.049110177904367447 0.10960563272237778
0.1369374692440033 0.04214322566986084 0.10170294344425201
0.1612267792224884 0.030879206955432892 0.089814506471157074
0.18892732262611389 0.019432367756962776 0.079730436205863953
0.22001077234745026 0.012561941519379616 0.075668647885322571
0.25106579065322876 0.0040319790132343769 0.068163454532623291
0.27516132593154907 0.00042619049781933427 0.049032669514417648
0.29884564876556396 8.8407039584126323e-05 0.034689754247665405
0.32921823859214783 0 0.021519146859645844
0.3574775755405426 0 0.015547203831374645
0.38543421030044556 0 0.015823410823941231
0.41521841287612915 0 0.015327433124184608
0.44916254281997681 0 0.017360476776957512
0.4792233407497406 0 0.020127531141042709
0.5105975866317749 0 0.020127611234784126
0.54225677251815796 0 0.022191058844327927
0.58074963092803955 0 0.032236434519290924
0.62013000249862671 0 0.041551645845174789
0.66076898574829102 0 0.051325105130672455
0.70620763301849365 0 0.060898635536432266
0.75032889842987061 0 0.066207699477672577
0.79725539684295654 0 0.074438981711864471
0.84149843454360962 0 0.085463792085647583
0.88951355218887329 0 0.097721755504608154
0.93688672780990601 0 0.11521366983652115
0.97139811515808105 0 0.13075004518032074
0.9909026026725769 0 0.13865648210048676
0 0.078097790479660034 0.1137741357088089
6.9073103077244014e-05 0.073551669716835022 0.11087293177843094
0.0078919054940342903 0.070434205234050751 0.1067347377538681
0.036466572433710098 0.067491404712200165 0.099532768130302429
0.073306821286678314 0.062592610716819763 0.096818007528781891
0.10735461115837097 0.058031026273965836 0.096123442053794861
0.13834036886692047 0.051549110561609268 0.08950372040271759
0.16094730794429779 0.042001266032457352 0.07823123037815094
0.18758122622966766 0.031099868938326836 0.067904166877269745
0.21681545674800873 0.022623594850301743 0.057627014815807343
0.24777494370937347 0.012659979052841663 0.047865372151136398
0.27383527159690857 0.0051867379806935787 0.033961452543735504
0.29675167798995972 0.0024470377247780561 0.023016506806015968
0.32275736331939697 0.00053602369735017419 0.017438752576708794
0.35054305195808411 0.00020093376224394888 0.014861676841974258
0.3816530704498291 0.00019160573720000684 0.016918355599045753
0.41200703382492065 0.00022266512678470463 0.014803288504481316
0.444875568151474 0.00022491354320663959 0.015171132981777191
0.47554975748062134 0.00022491354320663959 0.0193179901689291
0.50982111692428589 0.00022491354320663959 0.023982934653759003
0.54291415214538574 0.00022491354320663959 0.026608942076563835
0.58202505111694336 0.00022189777519088238 0.034779001027345657
0.62114018201828003 0.00011114589142380282 0.043041996657848358
0.66028386354446411 6.9439127400983125e-05 0.051056347787380219
0.7043226957321167 8.4707371570402756e-06 0.059511754661798477
0.74865710735321045 6.2746192952545243e-07 0.064952217042446136
0.7960364818572998 3.0693347071064636e-05 0.074455469846725464
0.83996272087097168 3.5137869417667389e-05 0.087167724967002869
0.88855689764022827 5.4902920965105295e-06 0.098349414765834808
0.93865019083023071 2.2393664039555006e-05 0.1116955354809761
0.9727056622505188 0.00019707533647306263 0.12605856359004974
0.99114096164703369 0.00022491354320663959 0.13297024369239807
0 0.091681599617004395 0.10825672000646591
4.3678326619556174e-05 0.086244188249111176 0.10410985350608826
0.0057335067540407181 0.080726481974124908 0.09977305680513382
0.033341590315103531 0.078441023826599121 0.090298019349575043
0.072496198117733002 0.075892098248004913 0.079134412109851837
0.10645913332700729 0.07249133288860321 0.078095950186252594
0.13752196729183197 0.067525960505008698 0.070785552263259888
0.16101759672164917 0.059365563094615936 0.057347040623426437
0.18571484088897705 0.050657007843255997 0.050522692501544952
0.21328683197498322 0.041837897151708603 0.039504211395978928
0.24300862848758698 0.032664738595485687 0.028189392760396004
0.27051109075546265 0.024275122210383415 0.019448347389698029
0.29577946662902832 0.018642516806721687 0.014108713716268539
0.32061859965324402 0.014221474528312683 0.013042217120528221
0.34468773007392883 0.0085385236889123917 0.011951180174946785
0.37622499465942383 0.0067506427876651287 0.012223913334310055
0.40780198574066162 0.0085090268403291702 0.014538837596774101
0.439878910779953 0.010333547368645668 0.015901483595371246
0.47024649381637573 0.012225111946463585 0.018566146492958069
0.50627171993255615 0.013329626061022282 0.024324487894773483
0.54134064912796021 0.012472550384700298 0.02827792800962925
0.58092743158340454 0.011386138387024403 0.03489447757601738
0.62249517440795898 0.0088299037888646126 0.042675472795963287
0.66103166341781616 0.0076640881597995758 0.050365768373012543
0.70438897609710693 0.0056088590063154697 0.058496631681919098
0.74902617931365967 0.0039207302033901215 0.064652681350708008
0.79643315076828003 0.0054021519608795643 0.074063636362552643
0.83947253227233887 0.0066837207414209843 0.086957849562168121
0.88610380887985229 0.0024437929969280958 0.098786063492298126
0.93565273284912109 0.00034304865403100848 0.10984693467617035
0.97344720363616943 0.0058086318895220757 0.12044567614793777
0.99122822284698486 0.0081520192325115204 0.12682646512985229
0 0.10466043651103973 0.10247232764959335
3.555618241080083e-05 0.10076218843460083 0.097810491919517517
0.0037486434448510408 0.095832407474517822 0.094503767788410187
0.022806026041507721 0.092600755393505096 0.091478914022445679
0.058774929493665695 0.09056505560874939 0.080814272165298462
0.096708863973617554 0.089204728603363037 0.070878073573112488
0.13056008517742157 0.08601708710193634 0.05750955268740654
0.15890251100063324 0.07972031831741333 0.034584343433380127
0.18511922657489777 0.072226487100124359 0.025652514770627022
0.21128274500370026 0.064076267182826996 0.023287968710064888
0.24068208038806915 0.056152764707803726 0.017588892951607704
0.27118203043937683 0.047930452972650528 0.015426954254508018
0.29872453212738037 0.041563216596841812 0.012991519644856453
0.32665720582008362 0.035923294723033905 0.012819763273000717
0.35053199529647827 0.027647050097584724 0.010403064079582691
0.37794703245162964 0.021784784272313118 0.0090304305776953697
0.4075225293636322 0.025059260427951813 0.01354766171425581
0.43672925233840942 0.035731036216020584 0.016951126977801323
0.46649593114852905 0.042001537978649139 0.018504519015550613
0.5036429762840271 0.044312931597232819 0.024865083396434784
0.53909832239151001 0.042689163237810135 0.028496323153376579
0.578571617603302 0.039505153894424438 0.031700208783149719
0.62106359004974365 0.035360466688871384 0.039604354649782181
0.66105055809020996 0.033478867262601852 0.050949703902006149
0.70492559671401978 0.028293976560235023 0.060680225491523743
0.74978852272033691 0.018111705780029297 0.066416233777999878
0.79677152633666992 0.018580680713057518 0.075101472437381744
0.8385654091835022 0.027046443894505501 0.087583974003791809
0.88334190845489502 0.020730385556817055 0.098785929381847382
0.93074500560760498 0.0059172818437218666 0.10650144517421722
0.96892243623733521 0.011946012265980244 0.11575119197368622
0.99036699533462524 0.02370392344892025 0.12422380596399307
0 0.11823848634958267 0.099175296723842621
3.555618241080083e-05 0.1154593750834465 0.094426669180393219
0.003322018776088953 0.11170262843370438 0.090684369206428528
0.01871357299387455 0.10810611397027969 0.090353265404701233
0.045841466635465622 0.10615408420562744 0.087548568844795227
0.082951903343200684 0.10602254420518875 0.076651297509670258
0.11882508546113968 0.1054578498005867 0.06236044317483902
0.14901635050773621 0.10163441300392151 0.038471214473247528
0.18048848211765289 0.095437735319137573 0.013381913304328918
0.20730182528495789 0.087524086236953735 0.0079331081360578537
0.2376076877117157 0.080984555184841156 0.0055810520425438881
0.27056831121444702 0.073501646518707275 0.0049196002073585987
0.30143913626670837 0.065288715064525604 0.0048964889720082283
0.33201849460601807 0.05929720401763916 0.0048766913823783398
0.35870930552482605 0.055175662040710449 0.0043307649902999401
0.38504901528358459 0.050132539123296738 0.0038973700720816851
0.41267397999763489 0.050679627805948257 0.0092259198427200317
0.44152790307998657 0.06311817467212677 0.012498434633016586
0.46841928362846375 0.07442551851272583 0.013419934548437595
0.50509589910507202 0.07757057249546051 0.018796823918819427
0.54011505842208862 0.077933527529239655 0.025149140506982803
0.57919561862945557 0.076181285083293915 0.02785324864089489
0.62191307544708252 0.076212763786315918 0.03459523618221283
0.66262078285217285 0.076784387230873108 0.047228880226612091
0.70619457960128784 0.07608012855052948 0.060983717441558838
0.75074177980422974 0.065217636525630951 0.068207308650016785
0.79670530557632446 0.059224735945463181 0.074075318872928619
0.83750796318054199 0.069654278457164764 0.084998182952404022
0.88385009765625 0.072467982769012451 0.09896513819694519
0.9317394495010376 0.054120667278766632 0.10694253444671631
0.96674662828445435 0.048692937940359116 0.11356434226036072
0.98924481868743896 0.06256423145532608 0.12262725830078125
0 0.13210417330265045 0.096754364669322968
3.555618241080083e-05 0.13029979169368744 0.093455910682678223
0.0035711438395082951 0.12717732787132263 0.090356186032295227
0.020910203456878662 0.12404952943325043 0.089763529598712921
0.046165250241756439 0.12304046750068665 0.089114449918270111
0.07573816180229187 0.12303922325372696 0.084984615445137024
0.10836739838123322 0.12376850843429565 0.076607406139373779
0.13739272952079773 0.12459058314561844 0.063280776143074036
0.16936494410037994 0.12020808458328247 0.036322936415672302
0.19819624722003937 0.11392925679683685 0.012806816026568413
0.23002801835536957 0.10953450202941895 0.0026186555624008179
0.26553738117218018 0.10597517341375351 0.00058209756389260292
0.29794687032699585 0.098965033888816833 0.00016675562073942274
0.33198761940002441 0.092202529311180115 9.9830802355427295e-05
0.36062872409820557 0.090000011026859283 9.8765282018575817e-05
0.39123225212097168 0.086626648902893066 0.00031604446121491492
0.42173793911933899 0.083714745938777924 0.0062106074765324593
0.45776447653770447 0.082025885581970215 0.010383940301835537
0.48629945516586304 0.089272566139698029 0.0097570521757006645
0.51792430877685547 0.097679987549781799 0.010691029019653797
0.55093836784362793 0.10187014192342758 0.016279779374599457
0.58852976560592651 0.10773523896932602 0.01933012530207634
0.6312592625617981 0.1133485808968544 0.024322815239429474
0.67200267314910889 0.12016250193119049 0.030335323885083199
0.71409577131271362 0.12698136270046234 0.044898811727762222
0.7532045841217041 0.13354237377643585 0.062717661261558533
0.7968214750289917 0.13195668160915375 0.070490196347236633
0.83726954460144043 0.13622409105300903 0.073722913861274719
0.8848152756690979 0.1415255218744278 0.088504813611507416
0.93598634004592896 0.13524715602397919 0.10855831950902939
0.9705623984336853 0.12992770969867706 0.11824696511030197
0.99016100168228149 0.13667090237140656 0.12240561097860336
0 0.14865654706954956 0.095259450376033783
3.555618241080083e-05 0.14726081490516663 0.093411698937416077
0.0035984760615974665 0.14538873732089996 0.091299958527088165
0.021019723266363144 0.14322084188461304 0.089724645018577576
0.050557844340801239 0.14280654489994049 0.089686214923858643
0.07856374979019165 0.14311157166957855 0.088539309799671173
0.10439450293779373 0.14428216218948364 0.086613923311233521
0.13154728710651398 0.14656813442707062 0.079863734543323517
0.16137632727622986 0.14677198231220245 0.066631719470024109
0.18969346582889557 0.14238816499710083 0.041211865842342377
0.22395335137844086 0.14010298252105713 0.017549343407154083
0.26106619834899902 0.13942752778530121 0.012517527677118778
0.2932429313659668 0.13604986667633057 0.0060410522855818272
0.3283717930316925 0.13009364902973175 0.0023780071642249823
0.36158910393714905 0.12866812944412231 0.0007080533541738987
0.3955652117729187 0.12602242827415466 4.4521497329697013e-05
0.42946314811706543 0.11986023187637329 0.0019377482822164893
0.46956256031990051 0.11040866374969482 0.0042633642442524433
0.50706112384796143 0.10556081682443619 0.0037955900188535452
0.5395667552947998 0.11379991471767426 0.0031458048615604639
0.56903928518295288 0.12376037240028381 0.0043536978773772717
0.60609030723571777 0.13323472440242767 0.0057756504975259304
0.64758306741714478 0.14202107489109039 0.0089802751317620277
0.688312828540802 0.1506628692150116 0.011325271800160408
0.72764569520950317 0.16137363016605377 0.022311626002192497
0.7623831033706665 0.17712447047233582 0.044362451881170273
0.80115950107574463 0.1891847550868988 0.062578096985816956
0.84118998050689697 0.19225150346755981 0.064199663698673248
0.8880344033241272 0.1972811371088028 0.075575120747089386
0.93942850828170776 0.19860507547855377 0.10200795531272888
0.97498166561126709 0.19893227517604828 0.1213475689291954
0.99126362800598145 0.20238244533538818 0.12484820187091827
0 0.16612495481967926 0.096787355840206146
3.555618241080083e-05 0.16499672830104828 0.095648430287837982
0.0039551807567477226 0.16365224123001099 0.093179687857627869
0.022613376379013062 0.16191920638084412 0.086862705647945404
0.054352853447198868 0.16176572442054749 0.08428608626127243
0.086978286504745483 0.1635933518409729 0.086234994232654572
0.11309248954057693 0.16588844358921051 0.087938271462917328
0.13580881059169769 0.16874785721302032 0.088567487895488739
0.16285690665245056 0.17048242688179016 0.082933902740478516
0.187993124127388 0.16869670152664185 0.07243790477514267
0.22190378606319427 0.16811229288578033 0.052998270839452744
0.25978398323059082 0.17048855125904083 0.037897985428571701
0.29138278961181641 0.16884432733058929 0.024878516793251038
0.32566690444946289 0.16442932188510895 0.0092422449961304665
0.36035361886024475 0.16457131505012512 0.0023642654996365309
0.39840421080589294 0.16943451762199402 0.00044912192970514297
0.43347921967506409 0.16496287286281586 8.5307343397289515e-05
0.47043967247009277 0.15515945851802826 0.00010373701661592349
0.5097237229347229 0.14809982478618622 0.00010175423085456714
0.55269676446914673 0.14878325164318085 3.1547129765385762e-05
0.58509290218353271 0.1566106379032135 4.6235265472205356e-05
0.62460517883300781 0.16158188879489899 0.00016484134539496154
0.66722345352172852 0.16729684174060822 0.0027450460474938154
0.70937508344650269 0.17220693826675415 0.0047929887659847736
0.74788498878479004 0.18127118051052094 0.013185740448534489
0.78015309572219849 0.19407114386558533 0.024035565555095673
0.81750345230102539 0.20645970106124878 0.039625521749258041
0.85758668184280396 0.21144671738147736 0.043657030910253525
0.9036865234375 0.22072309255599976 0.056121543049812317
0.94990986585617065 0.23449362814426422 0.084653973579406738
0.98102307319641113 0.23865106701850891 0.1080130860209465
0.99303519725799561 0.24239423871040344 0.12227453291416168
0 0.18970783054828644 0.10227544605731964
3.555618241080083e-05 0.18871070444583893 0.10127447545528412
0.0036930856294929981 0.18776951730251312 0.099998965859413147
0.023053959012031555 0.18653972446918488 0.09247240424156189
0.05645592138171196 0.18552309274673462 0.084379546344280243
0.091295279562473297 0.18788810074329376 0.087046414613723755
0.12095604836940765 0.19156140089035034 0.09143887460231781
0.14247415959835052 0.19504512846469879 0.094731472432613373
0.16726039350032806 0.19729167222976685 0.095668159425258636
0.19154022634029388 0.19630862772464752 0.09229452908039093
0.22084632515907288 0.19874736666679382 0.090599775314331055
0.25708684325218201 0.20324787497520447 0.076307669281959534
0.28857201337814331 0.2044767290353775 0.055489677935838699
0.3231377899646759 0.20169833302497864 0.033890418708324432
0.35752511024475098 0.20156097412109375 0.018093504011631012
0.39677256345748901 0.2092011421918869 0.012368840165436268
0.4344879686832428 0.21230313181877136 0.0054024411365389824
0.47063401341438293 0.2045748382806778 0.0016600290546193719
0.50736039876937866 0.20038564503192902 0.00042248127283528447
0.55372899770736694 0.19873175024986267 1.0546563089519623e-06
0.5949089527130127 0.20073732733726501 0
0.63773739337921143 0.20223116874694824 6.3213901739800349e-06
0.68130499124526978 0.20324330031871796 0.00062048109248280525
0.72415351867675781 0.20561672747135162 0.0015008407644927502
0.76904970407485962 0.20695425570011139 0.0042416262440383434
0.80280435085296631 0.21495693922042847 0.00661432184278965
0.84017932415008545 0.22275471687316895 0.0093326037749648094
0.88117814064025879 0.22679115831851959 0.011631662026047707
0.92411905527114868 0.23868776857852936 0.027615988627076149
0.96551412343978882 0.2589116096496582 0.056919585913419724
0.98816925287246704 0.27110207080841064 0.079250581562519073
0.99650812149047852 0.27556398510932922 0.097150050103664398
0 0.21799035370349884 0.11160466820001602
3.194827149854973e-05 0.21715499460697174 0.1093183159828186
0.0034043216146528721 0.216652512550354 0.10816763341426849
0.021953867748379707 0.21644359827041626 0.10612756013870239
0.055204294621944427 0.21514031291007996 0.099707022309303284
0.092431984841823578 0.21562862396240234 0.099059522151947021
0.1240462064743042 0.21864515542984009 0.10210728645324707
0.14458486437797546 0.22313061356544495 0.10533871501684189
0.1690666675567627 0.22624467313289642 0.10751301050186157
0.1959911584854126 0.22597940266132355 0.10571157932281494
0.22467520833015442 0.229021355509758 0.10991231352090836
0.2543068528175354 0.23443666100502014 0.11308548599481583
0.28424710035324097 0.23686103522777557 0.096835866570472717
0.32026231288909912 0.23906350135803223 0.073553062975406647
0.35511413216590881 0.23936046659946442 0.054971106350421906
0.39237982034683228 0.2422238290309906 0.037500869482755661
0.43085440993309021 0.2457156628370285 0.021573634818196297
0.4720160961151123 0.24378415942192078 0.0067426878958940506
0.50912660360336304 0.24234987795352936 0.0017246585339307785
0.55243337154388428 0.24367944896221161 0.000573523691855371
0.59458696842193604 0.24593985080718994 0.00037265993887558579
0.64019685983657837 0.25108912587165833 0.00029596881358884275
0.68390411138534546 0.25262060761451721 5.4641190217807889e-05
0.72710317373275757 0.25434833765029907 1.3186241631046869e-05
0.77612388134002686 0.25170677900314331 5.1110830099787563e-05
0.81796634197235107 0.25024127960205078 0.00013834360288456082
0.85831636190414429 0.25311800837516785 0.00017905524873640388
0.90040630102157593 0.25299307703971863 0.00042028864845633507
0.94101959466934204 0.26289451122283936 0.014362250454723835
0.97762709856033325 0.27631989121437073 0.030776798725128174
0.99538105726242065 0.28551343083381653 0.044375333935022354
0.99814200401306152 0.28838106989860535 0.051737431436777115
0 0.25225663185119629 0.12604288756847382
1.0457698635946144e-06 0.25188958644866943 0.12361899018287659
0.0016580247320234776 0.24984504282474518 0.1199030801653862
0.017592489719390869 0.24939483404159546 0.11946230381727219
0.051817703992128372 0.24926170706748962 0.11833339929580688
0.092999272048473358 0.24910598993301392 0.11699017882347107
0.12749534845352173 0.2498667985200882 0.11609774827957153
0.14764301478862762 0.25420317053794861 0.11855187267065048
0.1719326376914978 0.25957098603248596 0.12218126654624939
0.20035812258720398 0.26095917820930481 0.12222626060247421
0.23019033670425415 0.26329353451728821 0.12490414828062057
0.25769409537315369 0.26840561628341675 0.13465842604637146
0.28397145867347717 0.27221351861953735 0.1363777369260788
0.32077980041503906 0.27696454524993896 0.11791221797466278
0.3562546968460083 0.28034034371376038 0.099294766783714294
0.39244386553764343 0.28098958730697632 0.077491097152233124
0.42972585558891296 0.28230020403862 0.055709999054670334
0.47310706973075867 0.28316277265548706 0.036039337515830994
0.51317310333251953 0.28597411513328552 0.02247907966375351
0.55532753467559814 0.28934812545776367 0.017699839547276497
0.59488481283187866 0.29251894354820251 0.012979253195226192
0.64049446582794189 0.29939702153205872 0.0090842004865407944
0.68740195035934448 0.30278846621513367 0.0025981529615819454
0.73249626159667969 0.30427595973014832 2.3056281861499883e-05
0.77958953380584717 0.30427473783493042 0
0.82377564907073975 0.30029180645942688 0
0.87106239795684814 0.2970697283744812 0
0.91516727209091187 0.29397004842758179 3.9234320865944028e-05
0.95351451635360718 0.29575631022453308 0.0043950513936579227
0.9860343337059021 0.30208978056907654 0.0084755560383200645
0.99950504302978516 0.29980653524398804 0.010089471936225891
0.99997365474700928 0.29853686690330505 0.011005084030330181
0 0.28711861371994019 0.14383856952190399
0 0.29035145044326782 0.14661461114883423
4.7052177251316607e-05 0.28970927000045776 0.14519026875495911
0.0044093537144362926 0.28679758310317993 0.14249031245708466
0.034896623343229294 0.28604814410209656 0.14085094630718231
0.090584389865398407 0.286042720079422 0.13835595548152924
0.13265538215637207 0.28613832592964172 0.13568270206451416
0.15315233170986176 0.28793820738792419 0.13532751798629761
0.17782698571681976 0.29312872886657715 0.13927240669727325
0.20384691655635834 0.29679852724075317 0.14360681176185608
0.23267380893230438 0.30028876662254333 0.14699837565422058
0.26495960354804993 0.30592736601829529 0.15268895030021667
0.29293057322502136 0.31054180860519409 0.15838764607906342
0.3278578519821167 0.31330174207687378 0.1544354259967804
0.3623717725276947 0.31583145260810852 0.14131805300712585
0.39833039045333862 0.32060223817825317 0.1277223527431488
0.43522393703460693 0.32370564341545105 0.10916661471128464
0.47748583555221558 0.32571119070053101 0.088198468089103699
0.5175783634185791 0.32983368635177612 0.071577802300453186
0.56072843074798584 0.33670911192893982 0.056465815752744675
0.60002011060714722 0.34078940749168396 0.043643217533826828
0.6441771388053894 0.34563452005386353 0.028419405221939087
0.69246792793273926 0.34762433171272278 0.013337337411940098
0.74054652452468872 0.34684953093528748 0.0027458134572952986
0.78709143400192261 0.34857866168022156 0.00045423104893416166
0.82924997806549072 0.35198843479156494 0.00028209271840751171
0.87780469655990601 0.35027289390563965 5.8111359976464882e-05
0.92498558759689331 0.34411773085594177 1.1244678432831279e-07
0.96135103702545166 0.34187260270118713 4.6950306568760425e-05
0.98753094673156738 0.34579175710678101 0.00015462616283912212
0.9996221661567688 0.33771640062332153 0.00018611643463373184
1 0.3218427300453186 0.0002460652613081038
0 0.31845057010650635 0.1587812602519989
0 0.32248488068580627 0.1627591997385025
0.00071647338336333632 0.32511350512504578 0.16565825045108795
0.0030500728171318769 0.32194027304649353 0.1627410501241684
0.026991499587893486 0.31980633735656738 0.16053025424480438
0.08656146377325058 0.32061305642127991 0.15800537168979645
0.13999006152153015 0.32174429297447205 0.15518532693386078
0.16356748342514038 0.32360151410102844 0.15481816232204437
0.18619711697101593 0.32764384150505066 0.1577162891626358
0.21026627719402313 0.33190515637397766 0.16346491873264313
0.23906713724136353 0.33582544326782227 0.16868074238300323
0.27380082011222839 0.34138175845146179 0.17284642159938812
0.30534115433692932 0.34652617573738098 0.17555679380893707
0.3398318886756897 0.34862187504768372 0.17525248229503632
0.37156912684440613 0.35061737895011902 0.17466148734092712
