LUTs/Kodak Ektar 100.cube
# Created by: G'MIC (https://gmic.eu)
TITLE "Kodak Ektar 100"
# LUT size
LUT_3D_SIZE 5
# Data domain
# LUT data points
DOMAIN_MIN 0.000000 0.000000 0.000000
DOMAIN_MAX 0.903226 0.903226 0.903226
0.018418215215206146 0.013719867914915085 0.015200822614133358
0.28620722889900208 0.034203082323074341 0.013398374430835247
0.51805490255355835 0.048991486430168152 0.018088715150952339
0.71551209688186646 0.12681101262569427 0.091924689710140228
0.97036910057067871 0.11011809855699539 0.066537313163280487
0.093022257089614868 0.19093850255012512 0.10418359190225601
0.20633985102176666 0.20437592267990112 0.077988646924495697
0.44196590781211853 0.22922720015048981 0.093892663717269897
0.70212209224700928 0.23203819990158081 0.12201021611690521
0.92167991399765015 0.21959345042705536 0.072825491428375244
0.14978413283824921 0.38894295692443848 0.16938042640686035
0.21659103035926819 0.38928446173667908 0.17976053059101105
0.41645392775535583 0.41447833180427551 0.15803447365760803
0.65660512447357178 0.43475431203842163 0.14673808217048645
0.8410031795501709 0.43439000844955444 0.11906116455793381
0.18074183166027069 0.59701627492904663 0.19669356942176819
0.27404689788818359 0.60377323627471924 0.23263794183731079
0.41167917847633362 0.61328125 0.24036788940429688
0.60515505075454712 0.62078315019607544 0.22008718550205231
0.81647241115570068 0.636913001537323 0.16659720242023468
0.20186908543109894 0.76579958200454712 0.21868908405303955
0.30269256234169006 0.74311572313308716 0.25970625877380371
0.39010146260261536 0.7388913631439209 0.25700533390045166
0.58829545974731445 0.74664765596389771 0.21519103646278381
0.76578718423843384 0.78312492370605469 0.20223262906074524
0.055231332778930664 0.095700480043888092 0.20653899013996124
0.2113201916217804 0.098349422216415405 0.17335858941078186
0.46062171459197998 0.10929029434919357 0.17819784581661224
0.72312134504318237 0.13854725658893585 0.19200913608074188
0.96369755268096924 0.10434529930353165 0.14265896379947662
0.05242626741528511 0.21278277039527893 0.23462584614753723
0.21649028360843658 0.21401900053024292 0.21591439843177795
0.46641987562179565 0.20838494598865509 0.19078260660171509
0.70230472087860107 0.21946550905704498 0.18010640144348145
0.90162932872772217 0.22713662683963776 0.16037671267986298
0.12947151064872742 0.39582294225692749 0.27326416969299316
0.2089591771364212 0.37554380297660828 0.25302970409393311
0.41672804951667786 0.42491796612739563 0.27766835689544678
0.66588437557220459 0.44944322109222412 0.27114829421043396
0.83587926626205444 0.43583375215530396 0.21248450875282288
0.18878030776977539 0.6166834831237793 0.30194777250289917
0.27882707118988037 0.60745596885681152 0.31740632653236389
0.39233577251434326 0.6132584810256958 0.32958069443702698
0.59574896097183228 0.61329931020736694 0.32424014806747437
0.78214383125305176 0.63397818803787231 0.3023642897605896
0.21082776784896851 0.75495785474777222 0.31313443183898926
0.30534392595291138 0.72102409601211548 0.3358461856842041
0.38789618015289307 0.71264690160751343 0.34475520253181458
0.59434860944747925 0.72808879613876343 0.34329673647880554
0.78262162208557129 0.79776811599731445 0.36138427257537842
0.065763331949710846 0.12831950187683105 0.3336978554725647
0.27259495854377747 0.12211858481168747 0.3125796914100647
0.51978391408920288 0.13913843035697937 0.31614777445793152
0.75399512052536011 0.14602047204971313 0.33826839923858643
0.99195069074630737 0.09663362056016922 0.32309809327125549
0.057404991239309311 0.23094376921653748 0.35898196697235107
0.24734872579574585 0.2564176619052887 0.35103461146354675
0.46964752674102783 0.25101116299629211 0.34904599189758301
0.74538338184356689 0.25627532601356506 0.38883450627326965
0.87975484132766724 0.25002947449684143 0.36785167455673218
0.070115946233272552 0.40697884559631348 0.45014825463294983
0.16759544610977173 0.38436591625213623 0.39353132247924805
0.44174462556838989 0.44154340028762817 0.44526910781860352
0.67742955684661865 0.45459571480751038 0.42935436964035034
0.81574928760528564 0.44645887613296509 0.4148469865322113
0.12448230385780334 0.5953482985496521 0.48452883958816528
0.24075785279273987 0.58619701862335205 0.4683539867401123
0.41791287064552307 0.59592914581298828 0.49259293079376221
0.63533151149749756 0.61905837059020996 0.48000168800354004
0.78576844930648804 0.62866467237472534 0.4639645516872406
0.12079167366027832 0.70859432220458984 0.47820428013801575
0.22883705794811249 0.69452500343322754 0.48279798030853271
0.43388533592224121 0.69774895906448364 0.49872490763664246
0.64097106456756592 0.73421198129653931 0.50396567583084106
0.78395974636077881 0.78940457105636597 0.52637374401092529
0.0431709885597229 0.15779238939285278 0.47709265351295471
0.27134928107261658 0.17415520548820496 0.5073058009147644
0.53314536809921265 0.18196970224380493 0.49267727136611938
0.81731563806533813 0.14497722685337067 0.46313783526420593
0.96178340911865234 0.10502386838197708 0.44638264179229736
0.037530042231082916 0.29664984345436096 0.50664728879928589
0.23096898198127747 0.3385109007358551 0.5408976674079895
0.50586420297622681 0.3227698802947998 0.52861917018890381
0.78588300943374634 0.28523457050323486 0.51120835542678833
0.88845431804656982 0.25043833255767822 0.50080209970474243
0.015567103400826454 0.44363635778427124 0.57668638229370117
0.19237716495990753 0.46444755792617798 0.57890546321868896
0.44661346077919006 0.49818903207778931 0.58695954084396362
0.69884955883026123 0.46482536196708679 0.57311618328094482
0.82496261596679688 0.47363433241844177 0.58693665266036987
0.027221729978919029 0.58493071794509888 0.67721343040466309
0.17841653525829315 0.59747779369354248 0.67523598670959473
0.42382451891899109 0.6133197546005249 0.6504971981048584
0.65125268697738647 0.65086764097213745 0.65502965450286865
0.78496253490447998 0.66337376832962036 0.63630670309066772
0.047070249915122986 0.67937809228897095 0.68601632118225098
0.18220846354961395 0.69400864839553833 0.67127811908721924
0.44030746817588806 0.71789932250976562 0.66830754280090332
0.67125451564788818 0.74210315942764282 0.68347412347793579
0.8122631311416626 0.81520962715148926 0.68381422758102417
0.026128316298127174 0.18221467733383179 0.67762857675552368
0.22602467238903046 0.23443683981895447 0.74491715431213379
0.53461664915084839 0.18242767453193665 0.68040627241134644
0.80538523197174072 0.11333020031452179 0.59246790409088135
0.94496506452560425 0.087441973388195038 0.55459040403366089
0.022894255816936493 0.35581210255622864 0.67870354652404785
0.21976657211780548 0.38297274708747864 0.71710759401321411
0.50002902746200562 0.33568409085273743 0.68789374828338623
0.77530676126480103 0.27227547764778137 0.60787349939346313
0.88906103372573853 0.25085791945457458 0.60319370031356812
0.014521284960210323 0.51629871129989624 0.72700345516204834
0.16842924058437347 0.52254307270050049 0.74837362766265869
0.42367610335350037 0.5150114893913269 0.72750657796859741
0.68708056211471558 0.50051397085189819 0.68504959344863892
0.82144081592559814 0.49356600642204285 0.69394230842590332
0.016388112679123878 0.62498438358306885 0.81112796068191528
0.13811354339122772 0.64135730266571045 0.79434269666671753
0.40920358896255493 0.65772008895874023 0.77731978893280029
0.65316331386566162 0.68627917766571045 0.7482110857963562
0.80302047729492188 0.69255304336547852 0.75509709119796753
0.021261008456349373 0.68185514211654663 0.83019989728927612
0.18122009932994843 0.70789206027984619 0.80972838401794434
0.44347292184829712 0.75160747766494751 0.79903101921081543
0.66811227798461914 0.76904952526092529 0.78949588537216187
0.82102841138839722 0.81885033845901489 0.82134014368057251
