LUTs/Kodak Kodachrome 64.cube
# Created by: G'MIC (https://gmic.eu)
TITLE "Kodak Kodachrome 64"
# LUT size
LUT_3D_SIZE 32
# Data domain
DOMAIN_MIN 0.0 0.0 0.0
DOMAIN_MAX 1.0 1.0 1.0
# LUT data points
0.0047513707540929317 0.0043756687082350254 0.0035478374920785427
0.01508830301463604 0.0049078515730798244 0.0034438269212841988
0.031409014016389847 0.0054343170486390591 0.0033575468696653843
0.051608514040708542 0.0061628259718418121 0.0030987819191068411
0.073692753911018372 0.0073462887667119503 0.0029515491332858801
0.095608912408351898 0.0084620192646980286 0.0028060330078005791
0.1242697462439537 0.009490341879427433 0.0027545243501663208
0.15819051861763 0.011561514809727669 0.0026606319006532431
0.19725185632705688 0.014304664917290211 0.0024510864168405533
0.23466299474239349 0.017700100317597389 0.0023075309582054615
0.27948459982872009 0.022733066231012344 0.0020678031723946333
0.33666056394577026 0.029052156955003738 0.0018324278062209487
0.39480653405189514 0.035237044095993042 0.0016543352976441383
0.4495759904384613 0.042364723980426788 0.0016802340978756547
0.49131253361701965 0.047433283179998398 0.0011795071186497808
0.53218811750411987 0.052627682685852051 0.0010111745214089751
0.56965810060501099 0.056856457144021988 0.00063432793831452727
0.60672247409820557 0.06109168753027916 0.00032493958133272827
0.6391327977180481 0.064404956996440887 0.00019192823674529791
0.67325156927108765 0.068033210933208466 7.4382216553203762e-05
0.70315873622894287 0.072242125868797302 2.7965072149527259e-05
0.73525506258010864 0.076989360153675079 1.9812196114799008e-06
0.76602005958557129 0.08195379376411438 0
0.79442751407623291 0.086466476321220398 0
0.82458633184432983 0.091727279126644135 0
0.85269594192504883 0.096837304532527924 0
0.88257145881652832 0.10230677574872971 0
0.91097331047058105 0.10794664174318314 0
0.94091165065765381 0.11336663365364075 0
0.97093051671981812 0.11898459494113922 0
0.98933815956115723 0.12256520986557007 0
0.99042946100234985 0.12279070168733597 0
0.01009766012430191 0.016178879886865616 0.008528376929461956
0.020466728135943413 0.017353685572743416 0.0083714947104454041
0.037720181047916412 0.018329327926039696 0.0082037290558218956
0.058483157306909561 0.019757809117436409 0.0079199345782399178
0.080519050359725952 0.021379435434937477 0.0077083250507712364
0.10255870223045349 0.022981489077210426 0.0076690381392836571
0.1319686621427536 0.025674732401967049 0.0074672405607998371
0.16570936143398285 0.028963590040802956 0.0072537027299404144
0.20464558899402618 0.0330471470952034 0.006610967218875885
0.24183546006679535 0.037691827863454819 0.0063084014691412449
0.28652238845825195 0.04414072260260582 0.0060654268600046635
0.34403073787689209 0.051524285227060318 0.0054814163595438004
0.40169742703437805 0.05836779996752739 0.005049560684710741
0.45522624254226685 0.0655059814453125 0.0048883887939155102
0.49619966745376587 0.069946207106113434 0.0042997808195650578
0.53653442859649658 0.07434101402759552 0.0036788322031497955
0.57363706827163696 0.077836170792579651 0.0031476628500968218
0.61027306318283081 0.080998577177524567 0.0025256592780351639
0.64231812953948975 0.083507589995861053 0.0020080376416444778
0.67584806680679321 0.085408888757228851 0.0013450825354084373
0.70482939481735229 0.086996443569660187 0.00095528375823050737
0.73589468002319336 0.088141888380050659 0.00056317530106753111
0.76575940847396851 0.089398570358753204 0.00028821721207350492
0.79310029745101929 0.090844906866550446 8.6555766756646335e-05
0.82226938009262085 0.092550791800022125 2.0924764612573199e-05
0.84993284940719604 0.096036307513713837 1.3012539739065687e-06
0.87963849306106567 0.10065717250108719 0
0.90796411037445068 0.10609214007854462 0
0.93820297718048096 0.11171378940343857 0
0.96836757659912109 0.11719241738319397 0
0.98679220676422119 0.12079877406358719 0
0.98788058757781982 0.12100894749164581 0
0.018666969612240791 0.03460320457816124 0.015059511177241802
0.028489343822002411 0.035911493003368378 0.014774978160858154
0.044141035526990891 0.037131879478693008 0.014568970538675785
0.064317695796489716 0.038838621228933334 0.014417818747460842
0.086224928498268127 0.040802843868732452 0.014317614957690239
0.10865248739719391 0.042955789715051651 0.014254889450967312
0.13905748724937439 0.046189073473215103 0.013898276723921299
0.17279620468616486 0.049967557191848755 0.013171372935175896
0.21134252846240997 0.054553613066673279 0.012655825354158878
0.24861077964305878 0.059404868632555008 0.012287745252251625
0.29378044605255127 0.065764814615249634 0.011594966053962708
0.35196965932846069 0.073179759085178375 0.010851461440324783
0.40890699625015259 0.080116190016269684 0.01028888113796711
0.46119105815887451 0.086792029440402985 0.0098862871527671814
0.50174576044082642 0.091169185936450958 0.0091655878350138664
0.54161375761032104 0.095531143248081207 0.0082163019105792046
0.57846552133560181 0.098908036947250366 0.0073298723436892033
0.61495757102966309 0.10209888964891434 0.0063251918181777
0.64683663845062256 0.10421343147754669 0.0054390509612858295
0.6802210807800293 0.10637792199850082 0.0045298375189304352
0.70909291505813599 0.10754825919866562 0.0038339938037097454
0.7400977611541748 0.10870419442653656 0.0031035435386002064
0.76965093612670898 0.1097845733165741 0.0024455292150378227
0.79660916328430176 0.10966549813747406 0.0016249930486083031
0.82500863075256348 0.1087806299328804 0.00093324790941551328
0.8514864444732666 0.10788729786872864 0.00037936287117190659
0.87954926490783691 0.10726174712181091 7.6802163675893098e-05
0.90658992528915405 0.10778274387121201 4.2144060898863245e-06
0.93601483106613159 0.11086625605821609 0
0.96592634916305542 0.11565204709768295 0
0.98435443639755249 0.1191314309835434 0
0.98545181751251221 0.11932574957609177 0
0.030170263722538948 0.057199601083993912 0.02377326600253582
0.039915870875120163 0.058108367025852203 0.023614844307303429
0.053387895226478577 0.0594651959836483 0.023205213248729706
0.070991203188896179 0.06100042536854744 0.022799570113420486
0.092101670801639557 0.062894374132156372 0.022577913478016853
0.115162193775177 0.065060228109359741 0.022245438769459724
0.14682365953922272 0.068271033465862274 0.021709691733121872
0.18057155609130859 0.07189314067363739 0.021191107109189034
0.21886318922042847 0.076294265687465668 0.020618999376893044
0.25607925653457642 0.080837197601795197 0.020002128556370735
0.30163690447807312 0.086999215185642242 0.019263025373220444
0.36074289679527283 0.094364002346992493 0.018193956464529037
0.41682344675064087 0.10111790150403976 0.017282115295529366
0.46759015321731567 0.10729560256004333 0.016758807003498077
0.50733596086502075 0.11134753376245499 0.015532977879047394
0.54681295156478882 0.11550889909267426 0.014296015724539757
0.58326262235641479 0.11861661821603775 0.013286178931593895
0.61940926313400269 0.12156268954277039 0.011999176815152168
0.65113329887390137 0.12365017086267471 0.010833429172635078
0.68443530797958374 0.12542365491390228 0.0095637766644358635
0.713126540184021 0.1270371675491333 0.0085228439420461655
0.74379032850265503 0.12797306478023529 0.0074428608641028404
0.77339392900466919 0.12843379378318787 0.006243585143238306
0.80034321546554565 0.12839148938655853 0.0049941828474402428
0.82859528064727783 0.1280599981546402 0.0037988536059856415
0.85498583316802979 0.12706857919692993 0.002675152849406004
0.88277459144592285 0.12495952099561691 0.0016057610046118498
0.90903300046920776 0.12299927324056625 0.00077078421600162983
0.93676954507827759 0.11998725682497025 0.00018618527974467725
0.96491831541061401 0.11869922280311584 1.5745059499749914e-05
0.98268461227416992 0.11944962292909622 0
0.98377412557601929 0.11954091489315033 0
0.045091364532709122 0.081757739186286926 0.034957658499479294
0.053889844566583633 0.082417085766792297 0.034748703241348267
0.065666154026985168 0.083505995571613312 0.03410198912024498
0.08022838830947876 0.084863714873790741 0.033716663718223572
0.098773851990699768 0.086339086294174194 0.033387582749128342
0.12307343631982803 0.088555492460727692 0.033009130507707596
0.15568673610687256 0.091660887002944946 0.032523885369300842
0.18935626745223999 0.095035120844841003 0.03202100470662117
0.22735810279846191 0.099007003009319305 0.030956955626606941
0.26446643471717834 0.10323978215456009 0.030081614851951599
0.31131002306938171 0.10912304371595383 0.029028443619608879
0.37100616097450256 0.11617990583181381 0.027735481038689613
0.42550662159919739 0.12251528352499008 0.026565970852971077
0.47468447685241699 0.12806564569473267 0.025564800947904587
0.51340782642364502 0.13179594278335571 0.024185117334127426
0.55233335494995117 0.13552975654602051 0.022480376064777374
0.58849471807479858 0.13844440877437592 0.021215803921222687
0.62431126832962036 0.14106158912181854 0.019502105191349983
0.65575724840164185 0.14248225092887878 0.017977401614189148
0.68859243392944336 0.14455491304397583 0.016413837671279907
0.71720308065414429 0.14571784436702728 0.014846304431557655
0.7477116584777832 0.14617925882339478 0.013451270759105682
0.7772025465965271 0.14638872444629669 0.011741506867110729
0.80388087034225464 0.14625507593154907 0.010038656182587147
0.83213096857070923 0.14599256217479706 0.0083542019128799438
0.85838240385055542 0.14514055848121643 0.0066671054810285568
0.88617950677871704 0.1429373174905777 0.004919904749840498
0.91247725486755371 0.14106592535972595 0.0034381160512566566
0.93992042541503906 0.13765965402126312 0.0019787540659308434
0.96728515625 0.13332590460777283 0.00061863067094236612
0.98372864723205566 0.13016833364963531 9.864100138656795e-05
0.98471826314926147 0.1299772709608078 7.7453943958971649e-05
0.06219007819890976 0.11026406288146973 0.048888284713029861
0.069921456277370453 0.11080339550971985 0.048807624727487564
0.080593250691890717 0.11177263408899307 0.048396904021501541
0.093336522579193115 0.11274857819080353 0.048122528940439224
0.10923281311988831 0.11376778036355972 0.047394294291734695
0.13320738077163696 0.11590924113988876 0.046241525560617447
0.16608311235904694 0.11881545186042786 0.045443791896104813
0.19963541626930237 0.12184226512908936 0.044975504279136658
0.23684778809547424 0.12527728080749512 0.04408622533082962
0.2744031548500061 0.12890012562274933 0.042983774095773697
0.32253724336624146 0.13417698442935944 0.041730701923370361
0.38295429944992065 0.14100956916809082 0.0400954969227314
0.43566852807998657 0.14673469960689545 0.038662239909172058
0.48287907242774963 0.15129829943180084 0.037314120680093765
0.52039027214050293 0.15456517040729523 0.035513997077941895
0.55879062414169312 0.15752975642681122 0.033484809100627899
0.59443396329879761 0.15981465578079224 0.031614452600479126
0.62977755069732666 0.1617981344461441 0.029721107333898544
0.66092485189437866 0.16289567947387695 0.027548298239707947
0.69317001104354858 0.16416080296039581 0.025414742529392242
0.72166091203689575 0.16479839384555817 0.023454027250409126
0.75194793939590454 0.16513010859489441 0.021510647609829903
0.78106850385665894 0.1646873950958252 0.019206644967198372
0.80772978067398071 0.16426779329776764 0.017053443938493729
0.83578145503997803 0.16376760601997375 0.014730817638337612
0.86188715696334839 0.16246341168880463 0.01245612557977438
0.88957297801971436 0.16029360890388489 0.010080023668706417
0.91572093963623047 0.15821658074855804 0.0079289376735687256
0.94329488277435303 0.15495550632476807 0.005649232305586338
0.9705498218536377 0.15056717395782471 0.0034886652138084173
0.98692071437835693 0.14716576039791107 0.0022177984938025475
0.98790150880813599 0.14691108465194702 0.00214214320294559
0.083169989287853241 0.14819303154945374 0.066466949880123138
0.089897066354751587 0.148452028632164 0.066153950989246368
0.09944210946559906 0.14865857362747192 0.065677687525749207
0.11096994578838348 0.14928790926933289 0.065452620387077332
0.12658484280109406 0.15104424953460693 0.064567796885967255
0.14829343557357788 0.15295176208019257 0.063544929027557373
0.1783500611782074 0.15573301911354065 0.062712602317333221
0.21205897629261017 0.15812623500823975 0.062125146389007568
0.24868935346603394 0.16095687448978424 0.060975044965744019
0.28710025548934937 0.16436088085174561 0.059647303074598312
0.33720889687538147 0.16893023252487183 0.058531999588012695
0.39794781804084778 0.17505024373531342 0.056395720690488815
0.44844844937324524 0.18006023764610291 0.05467667430639267
0.49347791075706482 0.18366366624832153 0.052881818264722824
0.52979648113250732 0.18584232032299042 0.050980359315872192
0.56746506690979004 0.18794077634811401 0.048424288630485535
0.60259288549423218 0.18900756537914276 0.046133089810609818
0.63731878995895386 0.18964236974716187 0.043731734156608582
0.66779887676239014 0.18985956907272339 0.041007481515407562
0.6996467113494873 0.19021810591220856 0.038381453603506088
0.72769546508789062 0.18990302085876465 0.035762429237365723
0.7575298547744751 0.18933942914009094 0.032960738986730576
0.78636640310287476 0.18794295191764832 0.0299664456397295
0.81274384260177612 0.18681854009628296 0.026979750022292137
0.84049183130264282 0.18562158942222595 0.024011429399251938
0.86639988422393799 0.18370191752910614 0.020831078290939331
0.8939516544342041 0.1811075359582901 0.017826221883296967
0.91992944478988647 0.17852127552032471 0.014717805199325085
0.94736289978027344 0.17500029504299164 0.011463064700365067
0.97456842660903931 0.17061915993690491 0.0084117967635393143
0.99093365669250488 0.1673419177532196 0.0067487671039998531
0.99189496040344238 0.16714490950107574 0.0066609932109713554
0.10187293589115143 0.18465453386306763 0.082651205360889435
0.10780522227287292 0.18497511744499207 0.082450240850448608
0.11635947972536087 0.18551456928253174 0.082297436892986298
0.12790882587432861 0.18674963712692261 0.082023285329341888
0.14453254640102386 0.18832576274871826 0.081333987414836884
0.16534647345542908 0.19028688967227936 0.080486290156841278
0.19174449145793915 0.19283564388751984 0.079551205039024353
0.22445058822631836 0.19555817544460297 0.078617498278617859
0.26125594973564148 0.1983170211315155 0.077378742396831512
0.30072605609893799 0.20154654979705811 0.075977124273777008
0.35326856374740601 0.20632186532020569 0.074566319584846497
0.41369360685348511 0.21218079328536987 0.072256691753864288
0.46179434657096863 0.21667110919952393 0.07039264589548111
0.50502055883407593 0.21999546885490417 0.06844668835401535
0.54042971134185791 0.22210881114006042 0.06644931435585022
0.57735645771026611 0.2233896404504776 0.063881240785121918
0.61198139190673828 0.22364550828933716 0.061432130634784698
0.64642846584320068 0.22365252673625946 0.058625649660825729
0.67629683017730713 0.22322358191013336 0.055932991206645966
0.70775008201599121 0.22222866117954254 0.052928868681192398
0.73526793718338013 0.22074554860591888 0.049834687262773514
0.76464414596557617 0.21847997605800629 0.046521607786417007
0.7930486798286438 0.2159440666437149 0.043010562658309937
0.81893223524093628 0.21350865066051483 0.039207641035318375
0.84619724750518799 0.21068201959133148 0.035392027348279953
0.87182247638702393 0.20728315412998199 0.031460754573345184
0.89888054132461548 0.20353721082210541 0.027373779565095901
0.92469531297683716 0.20001481473445892 0.023407755419611931
0.95177227258682251 0.19568262994289398 0.019197197631001472
0.97842216491699219 0.19053842127323151 0.015028025954961777
0.99385762214660645 0.18684977293014526 0.012701434083282948
0.99472653865814209 0.18660935759544373 0.012578858993947506
0.10553241521120071 0.22580496966838837 0.09953000396490097
0.11112302541732788 0.22627939283847809 0.0994257852435112
0.1202106848359108 0.22706510126590729 0.099114179611206055
0.13383550941944122 0.22820237278938293 0.098761290311813354
0.15263892710208893 0.22977177798748016 0.098350986838340759
0.17450970411300659 0.23182860016822815 0.097581624984741211
0.20464769005775452 0.23420089483261108 0.096571087837219238
0.23778256773948669 0.23671591281890869 0.09572158008813858
0.27542963624000549 0.23968183994293213 0.094819940626621246
0.31681236624717712 0.24296024441719055 0.093611061573028564
0.37204617261886597 0.24784362316131592 0.091884419322013855
0.43162566423416138 0.25369098782539368 0.09029407799243927
0.47629576921463013 0.25767600536346436 0.088508948683738708
0.51758301258087158 0.26073628664016724 0.086838327348232269
0.55222511291503906 0.26283469796180725 0.084758996963500977
0.58869236707687378 0.2638971209526062 0.082628928124904633
0.62285393476486206 0.26428884267807007 0.08003891259431839
0.65708959102630615 0.26436984539031982 0.077245756983757019
0.68669849634170532 0.2638152539730072 0.074780158698558807
0.71775615215301514 0.26260292530059814 0.071613714098930359
0.7450147271156311 0.26064425706863403 0.068511471152305603
0.77416670322418213 0.25829216837882996 0.064977094531059265
0.80219292640686035 0.25464090704917908 0.061076752841472626
0.82774436473846436 0.25059285759925842 0.056747090071439743
0.85451203584671021 0.24601544439792633 0.052025113254785538
0.87978816032409668 0.2405068427324295 0.047010187059640884
0.90611785650253296 0.23449386656284332 0.04179130494594574
0.93131273984909058 0.22903053462505341 0.036409303545951843
0.95778900384902954 0.2223038524389267 0.030483387410640717
0.98349958658218384 0.21534237265586853 0.024685291573405266
0.9961777925491333 0.21095505356788635 0.021417036652565002
0.99677252769470215 0.21066616475582123 0.021232862025499344
0.10443097352981567 0.27360579371452332 0.11860392242670059
0.10953877121210098 0.27370724081993103 0.11837958544492722
0.11820835620164871 0.27417707443237305 0.1181190013885498
0.13307210803031921 0.27582097053527832 0.11776177585124969
0.15511795878410339 0.27742025256156921 0.11727646738290787
0.18326209485530853 0.27883470058441162 0.11669483035802841
0.21745045483112335 0.28116962313652039 0.11589556932449341
0.25094959139823914 0.28314730525016785 0.11494988948106766
0.29040023684501648 0.28591856360435486 0.11383257061243057
0.33483630418777466 0.28944534063339233 0.11259018629789352
0.39168012142181396 0.29416662454605103 0.11046365648508072
0.44799801707267761 0.29895865917205811 0.10846669226884842
0.49028801918029785 0.30179119110107422 0.10664243251085281
0.53004282712936401 0.30432695150375366 0.104646235704422
0.56416362524032593 0.30539456009864807 0.10253382474184036
0.59990066289901733 0.30606073141098022 0.10030834376811981
0.63362550735473633 0.30622598528862 0.097709409892559052
0.66740292310714722 0.30601245164871216 0.094899103045463562
0.69680559635162354 0.30498519539833069 0.09228389710187912
0.72766286134719849 0.3034403920173645 0.089124374091625214
0.75478518009185791 0.30192449688911438 0.086094960570335388
0.78371471166610718 0.29945379495620728 0.082666866481304169
0.81182003021240234 0.29629310965538025 0.07874789834022522
0.83747518062591553 0.29214149713516235 0.07474072277545929
0.86422127485275269 0.28744250535964966 0.070115864276885986
0.88929802179336548 0.28162968158721924 0.065141968429088593
0.9153740406036377 0.27443981170654297 0.059881869703531265
0.94017106294631958 0.26672032475471497 0.053930729627609253
0.9660189151763916 0.25715801119804382 0.046580404043197632
0.98953360319137573 0.24709980189800262 0.0392141193151474
0.99944418668746948 0.24093276262283325 0.034370675683021545
0.99984240531921387 0.24057507514953613 0.034086845815181732
0.079080276191234589 0.3354058563709259 0.1408066600561142
0.0884261354804039 0.33617240190505981 0.140499547123909
0.10679974406957626 0.33683189749717712 0.14027932286262512
0.13196684420108795 0.33778569102287292 0.14004369080066681
0.16255854070186615 0.3392375111579895 0.13956297934055328
0.19510935246944427 0.3408113420009613 0.13903547823429108
0.22981180250644684 0.34280827641487122 0.13818404078483582
0.26538828015327454 0.34478521347045898 0.13704013824462891
0.30768027901649475 0.34778180718421936 0.13572768867015839
0.35625863075256348 0.35156911611557007 0.13423515856266022
0.41426533460617065 0.35616981983184814 0.13215547800064087
0.4665667712688446 0.35975408554077148 0.13018561899662018
0.50637394189834595 0.36169558763504028 0.12822778522968292
0.54462242126464844 0.36268991231918335 0.12613268196582794
0.57799917459487915 0.36302125453948975 0.12405328452587128
0.61346882581710815 0.36286956071853638 0.12163057178258896
0.64678388833999634 0.36216241121292114 0.11899430304765701
0.67989152669906616 0.36049893498420715 0.11604569852352142
0.70885109901428223 0.35822102427482605 0.11314963549375534
0.73923015594482422 0.35579636693000793 0.10970722883939743
0.76604658365249634 0.35299554467201233 0.1063983216881752
0.79475539922714233 0.34931191802024841 0.10266830772161484
0.82260805368423462 0.34478843212127686 0.09879099577665329
0.84801983833312988 0.34007620811462402 0.094838075339794159
0.87476128339767456 0.33512109518051147 0.090502895414829254
0.8998032808303833 0.32924073934555054 0.085539825260639191
0.92618429660797119 0.32215800881385803 0.079774923622608185
0.95119231939315796 0.31432971358299255 0.073692731559276581
0.97682124376296997 0.30427733063697815 0.066431015729904175
0.99613243341445923 0.29231226444244385 0.058344267308712006
0.99998766183853149 0.28403216600418091 0.052679445594549179
1 0.28353795409202576 0.052373878657817841
0.092322982847690582 0.3906044065952301 0.16118553280830383
0.10646750032901764 0.3912501335144043 0.16109395027160645
0.12562297284603119 0.39202374219894409 0.16085569560527802
0.14930371940135956 0.39337679743766785 0.16048423945903778
0.17726117372512817 0.39526110887527466 0.16021303832530975
0.20711368322372437 0.3968278169631958 0.15979821979999542
0.24234315752983093 0.39920726418495178 0.15903867781162262
0.28034403920173645 0.40172460675239563 0.15777799487113953
0.32726263999938965 0.40551447868347168 0.15638689696788788
0.37933716177940369 0.4101073145866394 0.15495038032531738
0.43530076742172241 0.4152987003326416 0.15272726118564606
0.48328524827957153 0.41925394535064697 0.15100115537643433
0.52073931694030762 0.4215582013130188 0.14920403063297272
0.55860668420791626 0.42343831062316895 0.14732815325260162
0.59144270420074463 0.42440402507781982 0.14558959007263184
0.62675851583480835 0.42484718561172485 0.14356857538223267
0.65986675024032593 0.42516693472862244 0.14108532667160034
0.69285804033279419 0.42444068193435669 0.1383708268404007
0.72178655862808228 0.42283281683921814 0.13552190363407135
0.75229471921920776 0.42072832584381104 0.13229203224182129
0.77893447875976562 0.41764095425605774 0.12921184301376343
0.80778259038925171 0.41343230009078979 0.12514318525791168
0.83539801836013794 0.40769174695014954 0.12095769494771957
0.86068457365036011 0.40183216333389282 0.11677171289920807
0.88723719120025635 0.39442309737205505 0.11231282353401184
0.91197562217712402 0.38651275634765625 0.10719551891088486
0.93808364868164062 0.37691581249237061 0.10105375200510025
0.96281057596206665 0.36761665344238281 0.094869516789913177
0.98744016885757446 0.35628089308738708 0.087386459112167358
0.99948745965957642 0.34402337670326233 0.079449884593486786
1 0.33571591973304749 0.07437441498041153
1 0.33514609932899475 0.074078187346458435
0.11948837339878082 0.43018770217895508 0.17880801856517792
0.12844865024089813 0.43099650740623474 0.17853547632694244
0.14220328629016876 0.43200978636741638 0.17808057367801666
0.16203278303146362 0.43330717086791992 0.17782218754291534
0.18835847079753876 0.43514055013656616 0.17747402191162109
0.21909132599830627 0.4370991587638855 0.17695920169353485
0.25636628270149231 0.43965309858322144 0.17629583179950714
0.2966962456703186 0.44271501898765564 0.17501822113990784
0.34767970442771912 0.44704899191856384 0.17345324158668518
0.40021136403083801 0.45202037692070007 0.17197130620479584
0.45241200923919678 0.45698449015617371 0.16983616352081299
0.49634647369384766 0.4609871506690979 0.1679866760969162
0.53167200088500977 0.46379673480987549 0.16622452437877655
0.56832766532897949 0.46635037660598755 0.16476407647132874
