LUTs/Kodak Elite Color 200.cube
# Created by: G'MIC (https://gmic.eu)
TITLE "Kodak Elite Color 200"
# LUT size
LUT_3D_SIZE 5
# Data domain
# LUT data points
DOMAIN_MIN 0.000000 0.000000 0.000000
DOMAIN_MAX 0.903226 0.903226 0.903226
0.0069572310894727707 0.006055386271327734 0.0068479133769869804
0.14290434122085571 0.011215156875550747 0.013253387063741684
0.32071131467819214 0.021431814879179001 0.024030199274420738
0.5856553316116333 0.041148241609334946 0.044580243527889252
0.85428786277770996 0.088114678859710693 0.080185063183307648
0.081733249127864838 0.12997864186763763 0.02255278080701828
0.16513891518115997 0.13674071431159973 0.029064232483506203
0.34046632051467896 0.15055231750011444 0.043111562728881836
0.60306638479232788 0.17407050728797913 0.066004000604152679
0.86398923397064209 0.21553055942058563 0.10132012516260147
0.12601020932197571 0.29512020945549011 0.030148634687066078
0.20797513425350189 0.29951933026313782 0.035187046974897385
0.38405564427375793 0.3110845685005188 0.046745896339416504
0.6415330171585083 0.33241185545921326 0.067380450665950775
0.88851791620254517 0.36934861540794373 0.10035106539726257
0.18541547656059265 0.49824514985084534 0.00057695148279890418
0.2713962197303772 0.50061017274856567 0.0017012805910781026
0.46856182813644409 0.50707042217254639 0.0053276694379746914
0.70303791761398315 0.51905554533004761 0.014493474736809731
0.92783349752426147 0.54165458679199219 0.040721632540225983
0.36074301600456238 0.66084200143814087 0
0.43363407254219055 0.66082459688186646 0
0.58867043256759644 0.66052192449569702 0
0.79190069437026978 0.66044515371322632 0
0.98596429824829102 0.66082459688186646 0
0.011988474056124687 0.030848247930407524 0.15643410384654999
0.15313445031642914 0.040353760123252869 0.1695675253868103
0.33200407028198242 0.054097637534141541 0.18550711870193481
0.59588003158569336 0.079670973122119904 0.20748502016067505
0.85841244459152222 0.12650595605373383 0.24009025096893311
0.091849356889724731 0.16046978533267975 0.15947254002094269
0.16937784850597382 0.16746772825717926 0.16771379113197327
0.34687125682830811 0.18218977749347687 0.18330462276935577
0.6098867654800415 0.20644521713256836 0.20554746687412262
0.86629509925842285 0.2483305037021637 0.2388274222612381
0.10391141474246979 0.32461002469062805 0.15088306367397308
0.20335292816162109 0.32907739281654358 0.15681156516075134
0.38705199956893921 0.34155991673469543 0.17035415768623352
0.64353549480438232 0.36382526159286499 0.19203118979930878
0.886985182762146 0.4014228880405426 0.22767522931098938
0.16504126787185669 0.52827006578445435 0.08293132483959198
0.26107871532440186 0.53066563606262207 0.08726966381072998
0.46751669049263 0.53759050369262695 0.099179238080978394
0.70069617033004761 0.55094510316848755 0.11967212706804276
0.9215703010559082 0.57510185241699219 0.15303967893123627
0.38831949234008789 0.66164177656173706 1.8032516891253181e-05
0.45627692341804504 0.66103494167327881 1.8032516891253181e-05
0.60465019941329956 0.66159218549728394 0.0001622312847757712
0.80095481872558594 0.66475892066955566 0.0013466492528095841
0.98552173376083374 0.6779787540435791 0.011351858265697956
0.020172614604234695 0.071055136620998383 0.32299995422363281
0.16312339901924133 0.079669319093227386 0.33646291494369507
0.34356606006622314 0.093834258615970612 0.3526340126991272
0.60594314336776733 0.11974149197340012 0.37509825825691223
0.86072355508804321 0.16672413051128387 0.40873312950134277
0.10098956525325775 0.20109854638576508 0.34626656770706177
0.17706379294395447 0.20833157002925873 0.35539862513542175
0.35539001226425171 0.22278375923633575 0.37220501899719238
0.61739170551300049 0.24823617935180664 0.3962198793888092
0.86606878042221069 0.29176455736160278 0.43078845739364624
0.083995997905731201 0.37264007329940796 0.36669546365737915
0.19217804074287415 0.37771469354629517 0.3741743266582489
0.39071115851402283 0.39060273766517639 0.39049935340881348
0.64532876014709473 0.4139060378074646 0.41573813557624817
0.88110405206680298 0.45301589369773865 0.45101240277290344
0.10301443189382553 0.59105813503265381 0.34737125039100647
0.22719907760620117 0.59372532367706299 0.35325536131858826
0.45516511797904968 0.60130679607391357 0.36933818459510803
0.69002652168273926 0.6152915358543396 0.39594906568527222
0.90530574321746826 0.64007276296615601 0.43596261739730835
0.3618432879447937 0.73028212785720825 0.18719661235809326
0.43120303750038147 0.7313387393951416 0.19397221505641937
0.58268553018569946 0.73516732454299927 0.21357709169387817
0.77701079845428467 0.74257487058639526 0.24673782289028168
0.95903271436691284 0.7575678825378418 0.29949018359184265
0.038598451763391495 0.1257413774728775 0.5440058708190918
0.17615976929664612 0.13209728896617889 0.55749154090881348
0.36071377992630005 0.1426464319229126 0.57299667596817017
0.61904263496398926 0.16567371785640717 0.59216666221618652
0.86281055212020874 0.20914198458194733 0.61727190017700195
0.095148809254169464 0.24855774641036987 0.59083276987075806
0.17966923117637634 0.25514012575149536 0.59927558898925781
0.37160071730613708 0.26885104179382324 0.6134222149848938
0.62825125455856323 0.29312235116958618 0.63154679536819458
0.86586087942123413 0.33535772562026978 0.6552729606628418
0.098773077130317688 0.42716291546821594 0.63306689262390137
0.1887148916721344 0.43183347582817078 0.6385921835899353
0.40499609708786011 0.44307655096054077 0.65017688274383545
0.65195107460021973 0.46454083919525146 0.66663742065429688
0.87641161680221558 0.50216329097747803 0.68861335515975952
0.072933055460453033 0.66108608245849609 0.65222400426864624
0.20724150538444519 0.66328287124633789 0.65613096952438354
0.44770753383636475 0.66980224847793579 0.66600543260574341
0.68226462602615356 0.68205553293228149 0.68205863237380981
0.88972294330596924 0.7037804126739502 0.70446336269378662
0.30018001794815063 0.82843506336212158 0.60899096727371216
0.38082805275917053 0.8293578028678894 0.61338651180267334
0.54716712236404419 0.83247536420822144 0.62478011846542358
0.7424921989440918 0.83836847543716431 0.64409083127975464
0.92289948463439941 0.8497346043586731 0.67304199934005737
0.077119648456573486 0.18667356669902802 0.75424659252166748
0.20625892281532288 0.18612566590309143 0.7633289098739624
0.3960716724395752 0.18514002859592438 0.77295988798141479
0.64266037940979004 0.19380736351013184 0.78354847431182861
0.87027698755264282 0.23071859776973724 0.79755967855453491
0.12745949625968933 0.27181550860404968 0.79637515544891357
0.22516506910324097 0.27673283219337463 0.80163717269897461
0.41604176163673401 0.28780782222747803 0.80972611904144287
0.65472596883773804 0.30966925621032715 0.81948024034500122
0.87431508302688599 0.35045579075813293 0.83183830976486206
0.15300926566123962 0.45166945457458496 0.83634978532791138
0.25479689240455627 0.45526096224784851 0.83948880434036255
0.45392671227455139 0.4641697108745575 0.84555739164352417
0.67980903387069702 0.48293778300285339 0.85384804010391235
0.88423830270767212 0.51900613307952881 0.86467164754867554
0.17589102685451508 0.69884532690048218 0.86797326803207397
0.29322290420532227 0.69997483491897583 0.86991196870803833
0.48905035853385925 0.70617598295211792 0.87470865249633789
0.70277118682861328 0.71671521663665771 0.88200461864471436
0.89129269123077393 0.73727709054946899 0.89210516214370728
0.33545646071434021 0.89475035667419434 0.88288998603820801
0.40950515866279602 0.8954843282699585 0.88495171070098877
0.56386870145797729 0.89690190553665161 0.88953989744186401
0.74039065837860107 0.90043807029724121 0.89695775508880615
0.90841889381408691 0.90791767835617065 0.90781176090240479
