LUTs/Kodak Kodachrome 200.cube
# Created by: G'MIC (https://gmic.eu)
TITLE "Kodak Kodachrome 200"
# LUT size
LUT_3D_SIZE 5
# Data domain
# LUT data points
DOMAIN_MIN 0.000000 0.000000 0.000000
DOMAIN_MAX 0.903226 0.903226 0.903226
0.0050654280930757523 0.0050265025347471237 0.0038237071130424738
0.14835274219512939 0.0047318344004452229 0.005541081540286541
0.43248051404953003 0.0037564507219940424 0.010355714708566666
0.68819904327392578 0.0018798534292727709 0.01124216802418232
0.86974459886550903 1.9872597476933151e-05 0.012320920825004578
0.085936225950717926 0.1849215030670166 0.08556114137172699
0.20391012728214264 0.1834472119808197 0.089559756219387054
0.47716203331947327 0.17712892591953278 0.09661826491355896
0.70822453498840332 0.16482922434806824 0.091490082442760468
0.88504886627197266 0.13912831246852875 0.065529309213161469
0.097174674272537231 0.47181618213653564 0.22500772774219513
0.27914980053901672 0.47162440419197083 0.22749179601669312
0.5192105770111084 0.47125083208084106 0.22673660516738892
0.72065860033035278 0.46610072255134583 0.21070763468742371
0.89457625150680542 0.45383167266845703 0.17474061250686646
0.34972864389419556 0.67893975973129272 0.40853989124298096
0.42514732480049133 0.67908072471618652 0.40868028998374939
0.57568645477294922 0.67878413200378418 0.40486094355583191
0.73164480924606323 0.67737913131713867 0.38812559843063354
0.8982999324798584 0.67362874746322632 0.3388018012046814
0.52256417274475098 0.84659272432327271 0.57828730344772339
0.55825096368789673 0.84691131114959717 0.57828730344772339
0.64178216457366943 0.84728080034255981 0.57673931121826172
0.76043224334716797 0.84728080034255981 0.57014137506484985
0.91274875402450562 0.84624767303466797 0.54362684488296509
0.0025410780217498541 0.0047318344004452229 0.077757246792316437
0.13903829455375671 0.0037456753198057413 0.081569790840148926
0.42930760979652405 0.0035813841968774796 0.088886469602584839
0.68607491254806519 0.00090390973491594195 0.082260124385356903
0.87099909782409668 0 0.057231198996305466
0.076079919934272766 0.18207477033138275 0.1868547797203064
0.19346384704113007 0.18024739623069763 0.19031453132629395
0.47166720032691956 0.17457999289035797 0.19419045746326447
0.70408123731613159 0.16137257218360901 0.17983363568782806
0.88310486078262329 0.13521212339401245 0.1392274796962738
0.078675545752048492 0.47513264417648315 0.33695942163467407
0.26442557573318481 0.47455224394798279 0.34014064073562622
0.50993382930755615 0.47177803516387939 0.34166136384010315
0.71246445178985596 0.46726524829864502 0.32784014940261841
0.88915801048278809 0.45487275719642639 0.28290283679962158
0.33687356114387512 0.68076372146606445 0.48765453696250916
0.41495361924171448 0.68076092004776001 0.488840252161026
0.56731027364730835 0.68068701028823853 0.48899710178375244
0.72342753410339355 0.6795051097869873 0.48179110884666443
0.89014893770217896 0.67542332410812378 0.45100483298301697
0.51662874221801758 0.84880614280700684 0.62413328886032104
0.55217534303665161 0.84890872240066528 0.62459295988082886
0.63693881034851074 0.84898000955581665 0.62496107816696167
0.75596863031387329 0.84903097152709961 0.62236607074737549
0.90873700380325317 0.84835416078567505 0.60634630918502808
0.00013925142411608249 0.0042178845033049583 0.23630078136920929
0.11902221292257309 0.0037699637468904257 0.24213816225528717
0.4164542555809021 0.002050172770395875 0.25049534440040588
0.67513763904571533 0.00069698912557214499 0.24259741604328156
0.86276203393936157 0 0.2031397819519043
0.05754108726978302 0.17519910633563995 0.34602001309394836
0.17253305017948151 0.17280493676662445 0.35195145010948181
0.45694097876548767 0.16574341058731079 0.3611760139465332
0.68994110822677612 0.15218997001647949 0.3573320209980011
0.86972856521606445 0.12459652125835419 0.32602712512016296
0.052288398146629333 0.47364816069602966 0.47626131772994995
0.23592793941497803 0.47325292229652405 0.48287197947502136
0.49487364292144775 0.47122499346733093 0.49029725790023804
0.69862771034240723 0.46556922793388367 0.49028211832046509
0.8748670220375061 0.45237830281257629 0.47301444411277771
0.31288513541221619 0.68175607919692993 0.593181312084198
0.39650061726570129 0.68175607919692993 0.59548509120941162
0.55421537160873413 0.68174976110458374 0.59950309991836548
0.71239310503005981 0.68054991960525513 0.60063552856445312
0.87959504127502441 0.67636305093765259 0.59180009365081787
0.50533276796340942 0.8516349196434021 0.69679117202758789
0.54170733690261841 0.85196274518966675 0.69786328077316284
0.6277468204498291 0.85278230905532837 0.70009922981262207
0.74874544143676758 0.85284066200256348 0.70120543241500854
0.90351212024688721 0.85124766826629639 0.69586294889450073
0 0.00078047317219898105 0.39343288540840149
0.089484125375747681 0.00070934253744781017 0.40228986740112305
0.39558333158493042 0.00036722703953273594 0.41682061553001404
0.65807819366455078 6.7651399149326608e-07 0.42423915863037109
0.84591245651245117 0 0.41581955552101135
0.033517226576805115 0.15421389043331146 0.47691771388053894
0.14470456540584564 0.15133890509605408 0.48359814286231995
0.43813154101371765 0.1441461443901062 0.49635231494903564
0.67547166347503662 0.1289372593164444 0.50233167409896851
0.85559749603271484 0.10232476145029068 0.49501726031303406
0.023545926436781883 0.46601566672325134 0.5868910551071167
0.19529849290847778 0.46540582180023193 0.59254205226898193
0.47928553819656372 0.46277934312820435 0.60241943597793579
0.68765294551849365 0.45672369003295898 0.60868239402770996
0.86581647396087646 0.44172725081443787 0.60624581575393677
0.27786204218864441 0.68082320690155029 0.68342769145965576
0.3725835382938385 0.68077343702316284 0.68618106842041016
0.53983646631240845 0.68061321973800659 0.69214338064193726
0.70228284597396851 0.67881017923355103 0.69721496105194092
0.87263566255569458 0.67455339431762695 0.69740253686904907
0.48820137977600098 0.85512393712997437 0.774070143699646
0.52622658014297485 0.85512405633926392 0.77552241086959839
0.61545652151107788 0.85513556003570557 0.77885991334915161
0.73974746465682983 0.855141282081604 0.78278243541717529
0.89863282442092896 0.85393279790878296 0.78348493576049805
0 0 0.50167310237884521
0.052245508879423141 0 0.51026910543441772
0.36885470151901245 0 0.52725839614868164
0.64382386207580566 0 0.54054778814315796
0.83589404821395874 0 0.54543322324752808
0.0099602462723851204 0.11600301414728165 0.56839120388031006
0.1043630912899971 0.11266397684812546 0.5750730037689209
0.41245979070663452 0.10439379513263702 0.58979207277297974
0.6608845591545105 0.089563071727752686 0.59983289241790771
0.84491133689880371 0.065271750092506409 0.60144335031509399
0 0.44572412967681885 0.67516940832138062
0.13806605339050293 0.44474530220031738 0.68134719133377075
0.4578036367893219 0.44109365344047546 0.69330900907516479
0.67614555358886719 0.43265283107757568 0.7024766206741333
0.85886543989181519 0.41425105929374695 0.70546209812164307
0.20486028492450714 0.67456072568893433 0.77131181955337524
0.32779940962791443 0.67436367273330688 0.77494585514068604
0.51655304431915283 0.67360085248947144 0.78256338834762573
0.68832999467849731 0.67161530256271362 0.79043781757354736
0.8648790717124939 0.66611331701278687 0.79605203866958618
0.4535624086856842 0.85429680347442627 0.86204177141189575
0.49593320488929749 0.85444033145904541 0.86407369375228882
0.59249031543731689 0.85470515489578247 0.86888366937637329
0.72385728359222412 0.85442286729812622 0.87588411569595337
0.89014768600463867 0.85300588607788086 0.88252776861190796
