LUTs/Kodak Portra 400 2.cube
# Created by: G'MIC (https://gmic.eu)
TITLE "Kodak Portra 400 2"
# LUT size
LUT_3D_SIZE 5
# Data domain
# LUT data points
DOMAIN_MIN 0.000000 0.000000 0.000000
DOMAIN_MAX 0.903226 0.903226 0.903226
0.018918896093964577 0.020037354901432991 0.01958920992910862
0.19142457842826843 0.016860388219356537 0.015024811029434204
0.54831826686859131 0 0
0.85945409536361694 0 0
0.99998360872268677 0.14197574555873871 0
0 0.16218523681163788 0.037980947643518448
0.15461842715740204 0.18578383326530457 0.01203362550586462
0.54394125938415527 0.2340661883354187 0
0.83997267484664917 0.26684373617172241 0
0.99997353553771973 0.32708188891410828 0
0 0.42795148491859436 0.099338032305240631
0.0070533594116568565 0.40219360589981079 0.12682628631591797
0.43131348490715027 0.47940936684608459 0.00025385690969415009
0.78156423568725586 0.53258621692657471 0
0.98772561550140381 0.54329872131347656 0
0 0.65196841955184937 0.22834336757659912
0 0.63219153881072998 0.24417722225189209
0.34500196576118469 0.63875323534011841 0.23187893629074097
0.67675775289535522 0.69406509399414062 0.11007096618413925
0.94033479690551758 0.73036700487136841 0
0.26410654187202454 0.8439057469367981 0.46276012063026428
0.3431190550327301 0.83608376979827881 0.47181078791618347
0.4781004786491394 0.81664305925369263 0.49388048052787781
0.65355318784713745 0.84728068113327026 0.46812322735786438
0.86783820390701294 0.88161385059356689 0.40542128682136536
0.0017546025337651372 0.023815201595425606 0.20250602066516876
0.2504919171333313 3.7584108270038996e-08 0.24233591556549072
0.58573359251022339 0 0.24755324423313141
0.87512922286987305 0 0.21014341711997986
0.99998021125793457 0.09784611314535141 0.19231821596622467
0 0.22598022222518921 0.22688634693622589
0.21501889824867249 0.22938130795955658 0.23167769610881805
0.57927751541137695 0.22695179283618927 0.21998336911201477
0.85367852449417114 0.24685931205749512 0.19377729296684265
0.99998313188552856 0.31351253390312195 0.16105532646179199
0 0.51029700040817261 0.28720387816429138
0.13083371520042419 0.47576424479484558 0.27494266629219055
0.47144642472267151 0.50566726922988892 0.24174213409423828
0.79527181386947632 0.53342896699905396 0.11985793709754944
0.99160736799240112 0.53918904066085815 0.030283624306321144
0 0.68696600198745728 0.3409290611743927
0.1018703430891037 0.66835939884185791 0.34874039888381958
0.38591179251670837 0.64766401052474976 0.35034370422363281
0.68680089712142944 0.70179009437561035 0.29645213484764099
0.94194799661636353 0.73157346248626709 0.18108077347278595
0.29857516288757324 0.85381287336349487 0.50978386402130127
0.36963161826133728 0.84605890512466431 0.5163920521736145
0.49590137600898743 0.82367300987243652 0.5333525538444519
0.65782678127288818 0.84744393825531006 0.5205841064453125
0.86797916889190674 0.88260859251022339 0.47492173314094543
0 0.024305658414959908 0.53352814912796021
0.28880050778388977 0 0.57309436798095703
0.69578707218170166 0 0.6380082368850708
0.89222592115402222 0 0.61428326368331909
0.9999847412109375 0.017405228689312935 0.566855788230896
0 0.2445329874753952 0.50679409503936768
0.23127301037311554 0.24860385060310364 0.55301696062088013
0.66681307554244995 0.2655196487903595 0.62464499473571777
0.87140756845474243 0.2637980580329895 0.60327410697937012
0.99999737739562988 0.32822403311729431 0.55821883678436279
0 0.56438332796096802 0.56394463777542114
0.12319239228963852 0.56863677501678467 0.56880450248718262
0.56096899509429932 0.56901603937149048 0.5742608904838562
0.80538523197174072 0.5652233362197876 0.55745214223861694
0.98571497201919556 0.56746232509613037 0.53794151544570923
0.24639560282230377 0.76115655899047852 0.59752756357192993
0.39245069026947021 0.74927288293838501 0.59872192144393921
0.50870251655578613 0.703887939453125 0.56541311740875244
0.71234613656997681 0.72370302677154541 0.55216175317764282
0.94444990158081055 0.73344647884368896 0.49419903755187988
0.42835745215415955 0.88145828247070312 0.63928204774856567
0.44433671236038208 0.87569141387939453 0.62702751159667969
0.54166364669799805 0.85310333967208862 0.62491458654403687
0.67209118604660034 0.84670132398605347 0.62618064880371094
0.87131404876708984 0.88589590787887573 0.60679799318313599
0.1458720862865448 0.069816865026950836 0.76532137393951416
0.38200616836547852 0.03024265356361866 0.78078597784042358
0.69786852598190308 0.0023702867329120636 0.81646698713302612
0.93355029821395874 0.15436375141143799 0.84524399042129517
0.99998611211776733 0.25505480170249939 0.80565160512924194
0.027023192495107651 0.2724454402923584 0.75176441669464111
0.34237787127494812 0.28143742680549622 0.76727098226547241
0.66793537139892578 0.32177227735519409 0.80408596992492676
0.90743333101272583 0.40352785587310791 0.83694428205490112
0.99999880790710449 0.42539450526237488 0.80332005023956299
0 0.50281631946563721 0.68669629096984863
0.16747027635574341 0.51510244607925415 0.70420581102371216
0.57299667596817017 0.56194937229156494 0.76186507940292358
0.85068082809448242 0.63605743646621704 0.81516826152801514
0.98628556728363037 0.62772125005722046 0.80006974935531616
0.15004788339138031 0.7677956223487854 0.76429861783981323
0.33469736576080322 0.76764392852783203 0.76571619510650635
0.56560659408569336 0.76692992448806763 0.76800572872161865
0.77720266580581665 0.77110201120376587 0.77520656585693359
0.94636672735214233 0.76505571603775024 0.76321029663085938
0.46780186891555786 0.93300127983093262 0.79285514354705811
0.52568984031677246 0.92798310518264771 0.79219174385070801
0.64394259452819824 0.91178739070892334 0.78920960426330566
0.72678279876708984 0.87172073125839233 0.75874859094619751
0.88603806495666504 0.89362573623657227 0.75621473789215088
0.43464583158493042 0.25281000137329102 0.93066418170928955
0.52717751264572144 0.25859397649765015 0.93433487415313721
0.70416742563247681 0.29184982180595398 0.94439303874969482
0.89584612846374512 0.38865658640861511 0.96060240268707275
0.99999046325683594 0.47431337833404541 0.96864962577819824
0.41231462359428406 0.38505485653877258 0.92252898216247559
0.50776201486587524 0.39450728893280029 0.92687875032424927
0.68630194664001465 0.42848590016365051 0.93765854835510254
0.8790091872215271 0.50653612613677979 0.95464086532592773
0.99999934434890747 0.568409264087677 0.96459114551544189
0.31269904971122742 0.56965345144271851 0.89530587196350098
0.41203436255455017 0.56618744134902954 0.90295636653900146
0.63275748491287231 0.59810453653335571 0.91765737533569336
0.84559684991836548 0.661121666431427 0.94075626134872437
0.9992527961730957 0.70647126436233521 0.95773833990097046
0.055821433663368225 0.72446650266647339 0.87269091606140137
0.24348126351833344 0.72023254632949829 0.87060928344726562
0.46412324905395508 0.70988506078720093 0.86677020788192749
0.7748749852180481 0.76184332370758057 0.91302961111068726
0.97600603103637695 0.83238518238067627 0.95044213533401489
0.40216580033302307 0.92294853925704956 0.92062836885452271
0.46534672379493713 0.92241334915161133 0.92078125476837158
0.60161846876144409 0.92163646221160889 0.92137646675109863
0.76783329248428345 0.92196792364120483 0.92314237356185913
0.93125832080841064 0.92737185955047607 0.92922168970108032
