LUTs/Kodak Kodachrome 25.cube
# Created by: G'MIC (https://gmic.eu)
TITLE "Kodak Kodachrome 25"
# LUT size
LUT_3D_SIZE 32
# Data domain
DOMAIN_MIN 0.0 0.0 0.0
DOMAIN_MAX 1.0 1.0 1.0
# LUT data points
0.0030040426645427942 0.0034349407069385052 0.0028111645951867104
0.0094682155176997185 0.0037471666000783443 0.0027734825853258371
0.019267771393060684 0.0039313384331762791 0.0027577129658311605
0.031899433583021164 0.004099125973880291 0.0027813934721052647
0.047031305730342865 0.0045060147531330585 0.0027871718630194664
0.061265058815479279 0.0047087743878364563 0.0028696281369775534
0.076689779758453369 0.0048630428500473499 0.0029680880252271891
0.093572519719600677 0.0048994650132954121 0.0029458566568791866
0.11171475052833557 0.0049000424332916737 0.0027729247231036425
0.13113421201705933 0.0049382736906409264 0.0026616447139531374
0.15502725541591644 0.0049431943334639072 0.0025495835579931736
0.18415722250938416 0.0046320296823978424 0.0021156638395041227
0.21612408757209778 0.0036719103809446096 0.0012193601578474045
0.26354432106018066 0.0029815235175192356 0.00039348035352304578
0.31883805990219116 0.0013045043451711535 3.4521770430728793e-05
0.38987904787063599 8.6122985521797091e-05 0
0.4624226987361908 1.7727811609802302e-06 0
0.53746181726455688 0 0
0.61152452230453491 0 0
0.70687061548233032 0 0
0.80273610353469849 6.8096278482698835e-06 0
0.90209674835205078 0.00024324806872755289 0
0.97699505090713501 0.00079867150634527206 0
0.99979287385940552 0.0024700050707906485 0
1 0.0087599419057369232 0
1 0.02040029875934124 1.4079659194976557e-05
1 0.046515371650457382 0.0013751361984759569
1 0.085386820137500763 0.010000699199736118
1 0.13556647300720215 0.03578481450676918
1 0.19245330989360809 0.073830381035804749
1 0.24613533914089203 0.11754199862480164
1 0.28753244876861572 0.15288899838924408
0.0082607660442590714 0.013325698673725128 0.0057683954946696758
0.015210499987006187 0.013787584379315376 0.0057730074040591717
0.026563264429569244 0.014217860996723175 0.0058271209709346294
0.041038293391466141 0.014643949456512928 0.0058286618441343307
0.057162567973136902 0.015179362148046494 0.0058119064196944237
0.072106488049030304 0.015686223283410072 0.0058957831934094429
0.088990457355976105 0.016190148890018463 0.0059246965683996677
0.10720369219779968 0.016410201787948608 0.0057387198321521282
0.12753143906593323 0.016413776203989983 0.0052117337472736835
0.15025779604911804 0.016242709010839462 0.0048081283457577229
0.17969435453414917 0.015552048571407795 0.0039111305959522724
0.21843022108078003 0.013898125849664211 0.0030606708023697138
0.26260882616043091 0.011741588823497295 0.001316000591032207
0.32363885641098022 0.0087144505232572556 0.00018883842858485878
0.38417750597000122 0.005359363742172718 2.6845794920404842e-08
0.44840201735496521 0.003729592077434063 0
0.51019662618637085 0.002891133539378643 0
0.57888150215148926 0.0030154380947351456 0
0.65428811311721802 0.0035016888286918402 0
0.75088149309158325 0.0043377773836255074 0
0.83642899990081787 0.0049912929534912109 0
0.91590094566345215 0.0080828052014112473 0
0.97751003503799438 0.013776070438325405 0
0.99961268901824951 0.023211056366562843 1.5954071841406403e-07
1 0.043390385806560516 4.2138344724662602e-05
1 0.072843782603740692 0.001023261109367013
1 0.11728380620479584 0.010625299066305161
1 0.16632148623466492 0.034755837172269821
1 0.21452818810939789 0.070857785642147064
1 0.25863993167877197 0.10715008527040482
1 0.29914724826812744 0.14162540435791016
1 0.33188331127166748 0.16948938369750977
0.016491886228322983 0.029309956356883049 0.010070167481899261
0.023476529866456985 0.030037296935915947 0.0099177509546279907
0.034322883933782578 0.030946621671319008 0.0098275244235992432
0.049200497567653656 0.031668577343225479 0.0098686367273330688
0.065712004899978638 0.032340038567781448 0.0097695263102650642
0.081791162490844727 0.032807786017656326 0.0096997842192649841
0.10049166530370712 0.033176392316818237 0.0095100924372673035
0.12108500301837921 0.033183537423610687 0.0092275571078062057
0.14504428207874298 0.033095963299274445 0.0084719341248273849
0.17320030927658081 0.032296150922775269 0.0072949416935443878
0.21173615753650665 0.030279198661446571 0.0056642675772309303
0.26157206296920776 0.027038430795073509 0.0033425420988351107
0.31313896179199219 0.023665798828005791 0.0014115747762843966
0.37142667174339294 0.020084662362933159 0.00026100256945937872
0.42110934853553772 0.018620293587446213 9.0551067842170596e-05
0.47455266118049622 0.020097434520721436 0.00011344840459059924
0.53059476613998413 0.022930394858121872 5.7949382608057931e-05
0.60053151845932007 0.026386884972453117 1.0493445188330952e-05
0.68079560995101929 0.028027355670928955 0
0.77461987733840942 0.029139738529920578 0
0.85077136754989624 0.030939346179366112 0
0.91971951723098755 0.038749713450670242 0
0.97338145971298218 0.051849350333213806 7.6625570955002331e-07
0.99830788373947144 0.070448450744152069 0.00013691875210497528
0.99999171495437622 0.10164940357208252 0.0025515565648674965
1 0.13916604220867157 0.011673123575747013
1 0.18379147350788116 0.035157065838575363
1 0.22523884475231171 0.065162084996700287
1 0.263691246509552 0.097400903701782227
1 0.29902857542037964 0.1269848495721817
1 0.33331021666526794 0.15614740550518036
1 0.36115202307701111 0.18103556334972382
0.02715473435819149 0.050985146313905716 0.015897259116172791
0.034655269235372543 0.051625002175569534 0.01585555262863636
0.044864315539598465 0.052411194890737534 0.015848588198423386
0.058325987309217453 0.053333938121795654 0.015838285908102989
0.074990637600421906 0.054265651851892471 0.015693642199039459
0.092383682727813721 0.055050164461135864 0.015497243963181973
0.11422156542539597 0.055495396256446838 0.014965823851525784
0.13845862448215485 0.055467486381530762 0.014097600243985653
0.16915890574455261 0.054806079715490341 0.012664386071264744
0.20489238202571869 0.053192500025033951 0.01065404899418354
0.25177103281021118 0.050777018070220947 0.0079922471195459366
0.30367359519004822 0.049171801656484604 0.0055047553032636642
0.34898093342781067 0.048493657261133194 0.0040783695876598358
0.3948444128036499 0.04982144758105278 0.0037453866098076105
0.43547314405441284 0.053672172129154205 0.004096384160220623
0.48466518521308899 0.059696812182664871 0.004217587411403656
0.54467171430587769 0.064447097480297089 0.0031798400450497866
0.62513536214828491 0.065854080021381378 0.0012600505724549294
0.70908361673355103 0.064720824360847473 0.00025768540217541158
0.7953224778175354 0.0653572678565979 1.8315542547497898e-05
0.86036455631256104 0.069866761565208435 2.5536079192534089e-05
0.91790693998336792 0.082308396697044373 0.00023350999981630594
0.96008777618408203 0.10207092761993408 0.0017660950543358922
0.98552435636520386 0.1280524730682373 0.0062524592503905296
0.99457883834838867 0.16411906480789185 0.019391359761357307
0.9980437159538269 0.2008594274520874 0.039682574570178986
0.99971485137939453 0.23824633657932281 0.066178843379020691
1 0.27134290337562561 0.092089980840682983
1 0.30264845490455627 0.11748278886079788
1 0.33228746056556702 0.14257784187793732
1 0.36150306463241577 0.16846127808094025
1 0.38595673441886902 0.19139517843723297
0.040197640657424927 0.074936553835868835 0.024424709379673004
0.047554023563861847 0.075865715742111206 0.0246601402759552
0.057425297796726227 0.077056281268596649 0.025013070553541183
0.069524236023426056 0.078230045735836029 0.024940485134720802
0.084385216236114502 0.079446651041507721 0.024750418961048126
0.10412626713514328 0.080552555620670319 0.024268018081784248
0.13148783147335052 0.081301741302013397 0.023229429498314857
0.1610553115606308 0.081461988389492035 0.021986005827784538
0.1985505223274231 0.081026069819927216 0.019666383042931557
0.23859022557735443 0.080771848559379578 0.017425954341888428
0.28314286470413208 0.081600204110145569 0.01552877202630043
0.32513406872749329 0.085133671760559082 0.014871994964778423
0.36049264669418335 0.089240945875644684 0.014977375976741314
0.40023738145828247 0.094743974506855011 0.015429274179041386
0.44029110670089722 0.099803686141967773 0.015686703845858574
0.49694892764091492 0.10289002954959869 0.014160175807774067
0.56973946094512939 0.10277232527732849 0.0099816881120204926
0.65793603658676147 0.099983945488929749 0.0052010780200362206
0.73612320423126221 0.099283970892429352 0.002693279180675745
0.80918592214584351 0.10298915207386017 0.0016705761663615704
0.86168605089187622 0.11214464157819748 0.0024526924826204777
0.90583235025405884 0.13089635968208313 0.0057979258708655834
0.93492335081100464 0.15815474092960358 0.014982945285737514
0.95354151725769043 0.1878502368927002 0.02929358184337616
0.96912878751754761 0.22168625891208649 0.05008414015173912
0.98169487714767456 0.25228720903396606 0.072233900427818298
0.99323415756225586 0.28208595514297485 0.093902379274368286
0.99932461977005005 0.30883413553237915 0.11341579258441925
0.99999606609344482 0.33506074547767639 0.13448342680931091
1 0.3605269193649292 0.15584738552570343
1 0.38613814115524292 0.17967881262302399
1 0.4077429473400116 0.20184542238712311
0.051901735365390778 0.10767335444688797 0.041225232183933258
0.059127576649188995 0.10885666310787201 0.041482128202915192
0.06919638067483902 0.11065150052309036 0.041692987084388733
0.081724494695663452 0.11244505643844604 0.041871599853038788
0.097039490938186646 0.11434126645326614 0.041641060262918472
0.11858891695737839 0.11613819003105164 0.041206430643796921
0.15013621747493744 0.11760558933019638 0.03996247798204422
0.183246910572052 0.11879086494445801 0.038495399057865143
0.22078962624073029 0.1201992854475975 0.036825217306613922
0.25571075081825256 0.12246093153953552 0.035972237586975098
0.29279956221580505 0.12595981359481812 0.035745363682508469
0.32963716983795166 0.13054265081882477 0.035859681665897369
0.36514252424240112 0.13431240618228912 0.035505577921867371
0.40956708788871765 0.13727210462093353 0.034271616488695145
0.45855951309204102 0.13856442272663116 0.031453404575586319
0.52735704183578491 0.13701042532920837 0.02532660961151123
0.60593283176422119 0.13464890420436859 0.018083933740854263
0.6877596378326416 0.13367830216884613 0.012874031439423561
0.7519986629486084 0.13771633803844452 0.011498184874653816
0.80871891975402832 0.14825960993766785 0.013465894386172295
0.84799891710281372 0.1642049252986908 0.018939940258860588
0.87971925735473633 0.18889795243740082 0.029996912926435471
0.90248996019363403 0.21721459925174713 0.046416860073804855
0.92077594995498657 0.24360492825508118 0.063859410583972931
0.93948668241500854 0.27081775665283203 0.082167543470859528
0.95646804571151733 0.29534998536109924 0.098830200731754303
0.97435158491134644 0.31950283050537109 0.11542115360498428
0.98977082967758179 0.34164401888847351 0.13132467865943909
0.9984021782875061 0.36421144008636475 0.14844450354576111
0.9999701976776123 0.38636550307273865 0.16680029034614563
1 0.40891969203948975 0.18899235129356384
1 0.42822673916816711 0.21054933965206146
0.064413197338581085 0.15589937567710876 0.069137014448642731
0.072913043200969696 0.15702915191650391 0.069321513175964355
0.084908314049243927 0.15846425294876099 0.069090820848941803
0.099566332995891571 0.15999519824981689 0.068673484027385712
0.11883599311113358 0.16131873428821564 0.067838393151760101
0.14197860658168793 0.16255909204483032 0.066397801041603088
0.16938398778438568 0.16399088501930237 0.064939282834529877
0.20005834102630615 0.16551123559474945 0.063592381775379181
0.23345361649990082 0.16741330921649933 0.06247711181640625
0.26512852311134338 0.16969136893749237 0.061556495726108551
0.30111128091812134 0.17199259996414185 0.060666739940643311
0.34058219194412231 0.17437727749347687 0.059501141309738159
0.38144627213478088 0.17568692564964294 0.057160671800374985
0.43550258874893188 0.17582222819328308 0.052687462419271469
0.49458298087120056 0.1743752658367157 0.046736348420381546
0.5681268572807312 0.17247778177261353 0.038589771836996078
0.64004683494567871 0.17274942994117737 0.032329630106687546
0.70451420545578003 0.17896471917629242 0.031135626137256622
0.75100940465927124 0.19054634869098663 0.034679997712373734
0.79165148735046387 0.20829315483570099 0.042862638831138611
0.8209223747253418 0.22784914076328278 0.053822886198759079
0.84724527597427368 0.25193217396736145 0.068500369787216187
0.87076795101165771 0.27549698948860168 0.083430156111717224
0.89188063144683838 0.29594510793685913 0.096543364226818085
0.91372019052505493 0.31682565808296204 0.10970794409513474
0.93364167213439941 0.33629012107849121 0.12237527221441269
0.95423001050949097 0.35551822185516357 0.13507083058357239
0.972625732421875 0.37406247854232788 0.14747229218482971
0.98982959985733032 0.39337921142578125 0.16162148118019104
0.99898737668991089 0.4126071035861969 0.17745174467563629
0.99999737739562988 0.43247100710868835 0.19768550992012024
1 0.44959157705307007 0.2180362194776535
0.087757907807826996 0.20227336883544922 0.094503358006477356
0.096911154687404633 0.20252817869186401 0.093520022928714752
0.10950744897127151 0.20285256206989288 0.091932229697704315
0.12518054246902466 0.2032291442155838 0.090811826288700104
0.14457373321056366 0.20379438996315002 0.089067742228507996
0.1650950163602829 0.20488937199115753 0.087489098310470581
0.18777069449424744 0.20597530901432037 0.086054123938083649
0.21493664383888245 0.20733837783336639 0.085031196475028992
0.24674294888973236 0.20905821025371552 0.083799220621585846
0.27945578098297119 0.21055656671524048 0.082150042057037354
0.31830650568008423 0.21207819879055023 0.080345422029495239
0.36403727531433105 0.21305908262729645 0.077625729143619537
0.41212648153305054 0.21326373517513275 0.073972426354885101
0.47250834107398987 0.21334701776504517 0.068761982023715973
0.53119397163391113 0.21436610817909241 0.063889965415000916
0.59390795230865479 0.21770349144935608 0.060517542064189911
0.64909869432449341 0.22484384477138519 0.06026453897356987
0.696674644947052 0.23713387548923492 0.064555943012237549
0.7324756383895874 0.25197398662567139 0.071720317006111145
0.76604932546615601 0.26975575089454651 0.081346042454242706
0.79336893558502197 0.28637316823005676 0.090606003999710083
0.82123231887817383 0.30501383543014526 0.10096365958452225
0.84725725650787354 0.32276886701583862 0.11121674627065659
0.87068802118301392 0.33891323208808899 0.12073863297700882
0.89434373378753662 0.3551349937915802 0.13080723583698273
0.9160192608833313 0.37086361646652222 0.14016656577587128
0.93769973516464233 0.38744422793388367 0.15050740540027618
0.95764303207397461 0.40308493375778198 0.16091609001159668
0.97758418321609497 0.41974642872810364 0.17259831726551056
0.99369317293167114 0.43645155429840088 0.18683235347270966
0.99976855516433716 0.45387500524520874 0.20519274473190308
1 0.46906408667564392 0.22368526458740234
0.10506179928779602 0.24633310735225677 0.11477077007293701
0.11141299456357956 0.24667160212993622 0.1144309863448143
0.12212017178535461 0.24695530533790588 0.11355903744697571
0.13589678704738617 0.24788473546504974 0.11243224143981934
0.15278691053390503 0.24949915707111359 0.11166328191757202
0.17268496751785278 0.25060927867889404 0.11068741977214813
0.19907860457897186 0.25240603089332581 0.10994667559862137
0.22829428315162659 0.25427311658859253 0.10869541019201279
0.26221510767936707 0.25677138566970825 0.10756748169660568
0.29899862408638 0.25826951861381531 0.10608083754777908
0.34439516067504883 0.26053071022033691 0.10359996557235718
0.39624902606010437 0.2618827223777771 0.10040467977523804
0.44661277532577515 0.2636076807975769 0.097317487001419067
0.50166738033294678 0.26734420657157898 0.094834290444850922
0.54935109615325928 0.27264153957366943 0.094255261123180389
0.59678739309310913 0.28112852573394775 0.09536290168762207
0.63833111524581909 0.29171210527420044 0.099000699818134308
0.67793834209442139 0.30368095636367798 0.10396119207143784
0.71030157804489136 0.31565910577774048 0.10920292139053345
0.74292582273483276 0.32902535796165466 0.11561539769172668
0.77089256048202515 0.34079459309577942 0.12153125554323196
0.80047661066055298 0.35443854331970215 0.12823878228664398
0.82804840803146362 0.36757087707519531 0.13490772247314453
0.85247617959976196 0.38014760613441467 0.14157164096832275
0.87739765644073486 0.39296427369117737 0.14916510879993439
0.89995110034942627 0.4058588445186615 0.15667071938514709
0.92266005277633667 0.41955262422561646 0.16461493074893951
0.94351398944854736 0.43270319700241089 0.17309430241584778
0.96454328298568726 0.4470272958278656 0.18412250280380249
0.98491191864013672 0.46140033006668091 0.19690482318401337
0.99871987104415894 0.47673994302749634 0.21243526041507721
1 0.489919513463974 0.22822147607803345
0.09600483626127243 0.29890927672386169 0.14314232766628265
0.10053054243326187 0.2996198832988739 0.1429474800825119
0.10776301473379135 0.30081450939178467 0.14280517399311066
0.11938905715942383 0.30217364430427551 0.14272002875804901
0.13989421725273132 0.3043990433216095 0.14244429767131805
0.16675856709480286 0.3062441349029541 0.1422751247882843
0.20032936334609985 0.30895009636878967 0.14100384712219238
0.23512989282608032 0.31127682328224182 0.13879533112049103
0.27666142582893372 0.3137819766998291 0.13774560391902924
0.31969642639160156 0.31609746813774109 0.13508614897727966
0.36867201328277588 0.31858456134796143 0.13217438757419586
0.4188588559627533 0.32128533720970154 0.12917175889015198
0.46331197023391724 0.32451000809669495 0.12718632817268372
0.5092850923538208 0.3291051983833313 0.125754714012146
0.54849720001220703 0.33455070853233337 0.12596789002418518
0.58921319246292114 0.34205657243728638 0.12712974846363068
0.62696713209152222 0.35005465149879456 0.1294037252664566
0.66401869058609009 0.35875049233436584 0.13259314000606537
0.6959269642829895 0.36680811643600464 0.13553349673748016
0.72857546806335449 0.37641546130180359 0.13935321569442749
0.75676006078720093 0.38540986180305481 0.14295846223831177
0.78628075122833252 0.39550954103469849 0.14760440587997437
0.81437760591506958 0.40588405728340149 0.15257309377193451
0.83905726671218872 0.41587027907371521 0.15750561654567719
0.86453616619110107 0.42612257599830627 0.16346825659275055
0.88736838102340698 0.4368150532245636 0.16936685144901276
0.91051125526428223 0.44845065474510193 0.17652890086174011
0.93189674615859985 0.45975139737129211 0.18455876410007477
0.95377689599990845 0.4721483588218689 0.19472917914390564
0.97580260038375854 0.48458784818649292 0.20576456189155579
0.99547308683395386 0.49793326854705811 0.21856927871704102
0.99996691942214966 0.50963747501373291 0.23165729641914368
0.041021820157766342 0.37162947654724121 0.18247686326503754
0.048630546778440475 0.37224066257476807 0.18242722749710083
0.066436506807804108 0.37275752425193787 0.1822940856218338
0.095197945833206177 0.37334159016609192 0.18146207928657532
0.13227903842926025 0.3749353289604187 0.17892439663410187
0.17149841785430908 0.37551090121269226 0.17758660018444061
0.21459957957267761 0.37650913000106812 0.17556248605251312
0.25837200880050659 0.37754988670349121 0.1726633757352829
0.30520948767662048 0.37930294871330261 0.16936883330345154
0.34897926449775696 0.38020074367523193 0.16607582569122314
0.39406925439834595 0.3815038800239563 0.16269420087337494
0.43721306324005127 0.38379961252212524 0.15961438417434692
0.47454172372817993 0.38580220937728882 0.15767161548137665
0.51434648036956787 0.38907483220100403 0.15545056760311127
0.54936838150024414 0.39261534810066223 0.15401653945446014
0.58645874261856079 0.39746367931365967 0.15336792171001434
0.6217036247253418 0.40264144539833069 0.15360145270824432
0.65717881917953491 0.40866294503211975 0.15490488708019257
0.6875266432762146 0.41446587443351746 0.15628689527511597
0.71934247016906738 0.42112362384796143 0.1584344208240509
0.74670445919036865 0.42777106165885925 0.16072978079319
0.77563172578811646 0.43527117371559143 0.16402743756771088
0.80344921350479126 0.44381061196327209 0.16733881831169128
0.82799214124679565 0.45131579041481018 0.17132435739040375
0.85328096151351929 0.45999816060066223 0.17675958573818207
0.87613075971603394 0.46859946846961975 0.18226492404937744
0.89937448501586914 0.47838038206100464 0.1891314685344696
0.92118364572525024 0.48784747719764709 0.19648143649101257
0.94394761323928833 0.49819573760032654 0.20495821535587311
0.96697509288787842 0.50883036851882935 0.21428008377552032
0.9902985692024231 0.52032780647277832 0.22478175163269043
0.99958962202072144 0.53042346239089966 0.23538640141487122
0.10862120240926743 0.43443799018859863 0.21330735087394714
0.12300801277160645 0.43416917324066162 0.2126968652009964
0.14295466244220734 0.43415144085884094 0.21188938617706299
0.16917309165000916 0.43396517634391785 0.20938652753829956
0.20276656746864319 0.43372604250907898 0.20735786855220795
0.23701561987400055 0.43320199847221375 0.20440350472927094
0.27549171447753906 0.43242058157920837 0.2012825608253479
0.31250759959220886 0.43232202529907227 0.19821344316005707
0.35064178705215454 0.43242070078849792 0.19461601972579956
0.3853289783000946 0.43297424912452698 0.19144274294376373
0.4221707284450531 0.43404802680015564 0.18805614113807678
0.45757633447647095 0.43520060181617737 0.18517245352268219
0.4895966649055481 0.4366973340511322 0.18277738988399506
0.52417975664138794 0.43874943256378174 0.18021823465824127
0.55545425415039062 0.44099205732345581 0.17783984541893005
0.58985620737075806 0.4442078173160553 0.1760844886302948
0.62263554334640503 0.4477614164352417 0.17491766810417175
0.65550100803375244 0.45205062627792358 0.17418329417705536
0.68444216251373291 0.45631653070449829 0.17375557124614716
0.71490579843521118 0.46116438508033752 0.17384867370128632
0.7413209080696106 0.46632906794548035 0.17505788803100586
0.76936608552932739 0.47205102443695068 0.17741836607456207
0.79610025882720947 0.47870746254920959 0.18060377240180969
0.82001960277557373 0.48500794172286987 0.18443334102630615
0.8446582555770874 0.49195235967636108 0.18922914564609528
0.86712110042572021 0.49918156862258911 0.19433099031448364
0.89050507545471191 0.50715404748916626 0.20038916170597076
0.91279637813568115 0.51527267694473267 0.20634259283542633
0.93617862462997437 0.52381360530853271 0.21356639266014099
0.95997035503387451 0.53289449214935303 0.2214493453502655
0.98502838611602783 0.54260969161987305 0.23033510148525238
0.99880832433700562 0.55102741718292236 0.23895646631717682
0.21015971899032593 0.4753589928150177 0.23025906085968018
0.22224090993404388 0.47528514266014099 0.2301902174949646
0.23900023102760315 0.47526273131370544 0.22894705832004547
0.25909292697906494 0.47502008080482483 0.22641898691654205
0.28125447034835815 0.4745018482208252 0.22584325075149536
0.30565419793128967 0.47432807087898254 0.22275556623935699
0.333687424659729 0.47428092360496521 0.22083410620689392
0.36049056053161621 0.47426947951316833 0.21804910898208618
0.39009645581245422 0.47427019476890564 0.21522803604602814
0.41774699091911316 0.47431322932243347 0.21278829872608185
0.44800490140914917 0.47477471828460693 0.20969541370868683
0.47824791073799133 0.47545334696769714 0.20705066621303558
0.50563603639602661 0.4768528938293457 0.20474205911159515
0.53655326366424561 0.47826471924781799 0.20213931798934937
0.56488078832626343 0.47980362176895142 0.19992828369140625
0.59620070457458496 0.48225370049476624 0.19762171804904938
0.6263999342918396 0.48487979173660278 0.19593244791030884
0.65680253505706787 0.4878552258014679 0.19416414201259613
0.68398851156234741 0.49140211939811707 0.19301994144916534
0.71278518438339233 0.49541431665420532 0.19171269237995148
0.73829931020736694 0.49930635094642639 0.19124880433082581
0.76543682813644409 0.5039982795715332 0.19148798286914825
0.79139578342437744 0.50897932052612305 0.19273819029331207
0.81477862596511841 0.514293372631073 0.1953289657831192
0.83879798650741577 0.52041202783584595 0.19901828467845917
