LUTs/Kodak E-100 GX Ektachrome 100.cube
# Created by: G'MIC (https://gmic.eu)
TITLE "Kodak E-100 GX Ektachrome 100"
# LUT size
LUT_3D_SIZE 5
# Data domain
# LUT data points
DOMAIN_MIN 0.000000 0.000000 0.000000
DOMAIN_MAX 0.903226 0.903226 0.903226
0.0075314287096261978 0.0082025555893778801 0.0069669000804424286
0.14525458216667175 0.0019304128363728523 0.0025945361703634262
0.34282296895980835 0 1.6297888578264974e-05
0.56776255369186401 0.00015022707520984113 0
0.7721247673034668 0.0072078905068337917 0
0.1270989328622818 0.1993730366230011 0.078694909811019897
0.22326178848743439 0.18449114263057709 0.068221479654312134
0.40866592526435852 0.14710253477096558 0.045378219336271286
0.60098487138748169 0.072264432907104492 0.015612158924341202
0.77392470836639404 0.0040276139043271542 0.00042582352762110531
0.22935016453266144 0.44396200776100159 0.17536216974258423
0.32738950848579407 0.43910986185073853 0.1693841964006424
0.49398767948150635 0.42033490538597107 0.15579277276992798
0.68195301294326782 0.37082597613334656 0.13396108150482178
0.8419988751411438 0.24207065999507904 0.097661808133125305
0.4115617573261261 0.68917036056518555 0.2944948673248291
0.46625971794128418 0.68791967630386353 0.2912924587726593
0.59973746538162231 0.68022578954696655 0.27995461225509644
0.75914245843887329 0.66157752275466919 0.26244530081748962
0.92166924476623535 0.61149114370346069 0.23580068349838257
0.60525190830230713 0.89597749710083008 0.43456614017486572
0.63927841186523438 0.89597749710083008 0.43243834376335144
0.72256189584732056 0.89567011594772339 0.42616349458694458
0.84197849035263062 0.89088684320449829 0.41512271761894226
0.97833216190338135 0.87450605630874634 0.39666688442230225
0.0021599717438220978 0.013699828647077084 0.14168107509613037
0.12418507784605026 0.0053334496915340424 0.12869285047054291
0.32522311806678772 0.00032933842157945037 0.1067136824131012
0.55327868461608887 0 0.080401308834552765
0.75944328308105469 0.0039215688593685627 0.049863036721944809
0.10445254296064377 0.21107999980449677 0.21868038177490234
0.19984842836856842 0.1965186595916748 0.20921145379543304
0.39370527863502502 0.16051213443279266 0.18898364901542664
0.58925473690032959 0.080856695771217346 0.1576140820980072
0.76067095994949341 0.0036042036954313517 0.1195291131734848
0.1949474960565567 0.45180895924568176 0.30552157759666443
0.30313277244567871 0.44695326685905457 0.29956585168838501
0.47798198461532593 0.42856493592262268 0.2860170304775238
0.6697278618812561 0.38128980994224548 0.26312258839607239
0.83225399255752563 0.25346389412879944 0.22939899563789368
0.38863849639892578 0.69291681051254272 0.40810325741767883
0.44635245203971863 0.69138437509536743 0.40482211112976074
0.58433055877685547 0.68414866924285889 0.39483204483985901
0.74641048908233643 0.66573268175125122 0.37950944900512695
0.91076236963272095 0.61639964580535889 0.35695257782936096
0.59147882461547852 0.89824396371841431 0.52002167701721191
0.62618225812911987 0.89824432134628296 0.51710432767868042
0.71069800853729248 0.89666980504989624 0.51254892349243164
0.83149063587188721 0.89271950721740723 0.50311267375946045
0.9688604474067688 0.87671589851379395 0.4874688982963562
1.8774415366351604e-05 0.020901402458548546 0.32378381490707397
0.094300024211406708 0.0098015666007995605 0.31388068199157715
0.30183380842208862 0.0011652649845927954 0.29498112201690674
0.53080165386199951 0 0.27170068025588989
0.73911136388778687 0 0.24843695759773254
0.065923526883125305 0.22831130027770996 0.40657910704612732
0.16576085984706879 0.21458278596401215 0.39886495471000671
0.36915621161460876 0.17933115363121033 0.38093170523643494
0.57044631242752075 0.096126310527324677 0.35271593928337097
0.73976176977157593 0.0013469087425619364 0.31866559386253357
0.12526625394821167 0.46390184760093689 0.48895928263664246
0.25433894991874695 0.45978185534477234 0.48394837975502014
0.44863623380661011 0.44286689162254333 0.47151908278465271
0.64844262599945068 0.39885792136192322 0.45178940892219543
0.81651484966278076 0.27594903111457825 0.42170119285583496
0.34104880690574646 0.6998133659362793 0.57766473293304443
0.40646037459373474 0.69844365119934082 0.5748065710067749
0.55472016334533691 0.69198334217071533 0.5660400390625
0.72329199314117432 0.67417454719543457 0.55296403169631958
0.89233171939849854 0.62664937973022461 0.53358221054077148
0.56251758337020874 0.90002423524856567 0.66639161109924316
0.5988127589225769 0.89996576309204102 0.66461002826690674
0.6868361234664917 0.89989256858825684 0.65977120399475098
0.81134277582168579 0.89584445953369141 0.65136528015136719
0.9514305591583252 0.88092547655105591 0.63801866769790649
0 0.039933156222105026 0.52852141857147217
0.047867711633443832 0.022268444299697876 0.51995182037353516
0.26863914728164673 0.0069742714986205101 0.50123554468154907
0.50053870677947998 0 0.47797885537147522
0.71350789070129395 0 0.45881253480911255
0.034720811992883682 0.25850537419319153 0.60681885480880737
0.11108117550611496 0.24493329226970673 0.59956479072570801
0.33306202292442322 0.21100409328937531 0.58176767826080322
0.54849445819854736 0.12986427545547485 0.55497676134109497
0.71942400932312012 0.0059458985924720764 0.5213550329208374
0.032813206315040588 0.48488840460777283 0.67935824394226074
0.16178505122661591 0.48056048154830933 0.67395704984664917
0.40644976496696472 0.46498936414718628 0.6608702540397644
0.62158375978469849 0.42461153864860535 0.64146977663040161
0.80033409595489502 0.31324124336242676 0.61377197504043579
0.26411399245262146 0.71063250303268433 0.74885833263397217
0.34687256813049316 0.7095639705657959 0.74585461616516113
0.51464956998825073 0.70382148027420044 0.73711919784545898
0.69493913650512695 0.68770551681518555 0.72427111864089966
0.8718639612197876 0.64275801181793213 0.70632266998291016
0.5217549204826355 0.90468740463256836 0.81822961568832397
0.56111019849777222 0.90469825267791748 0.81648391485214233
0.65537577867507935 0.90424013137817383 0.81193011999130249
0.78627359867095947 0.90157580375671387 0.80430978536605835
0.9315791130065918 0.88771110773086548 0.79281324148178101
0 0.085375405848026276 0.72159421443939209
0.0090936943888664246 0.058321904391050339 0.71283113956451416
0.22888252139091492 0.028968766331672668 0.69294917583465576
0.47094467282295227 0.000502005685120821 0.66572684049606323
0.68743687868118286 0 0.64574861526489258
0.0030384655110538006 0.30494385957717896 0.79068440198898315
0.046936850994825363 0.29328423738479614 0.78408706188201904
0.27989855408668518 0.26181462407112122 0.76550203561782837
0.52480971813201904 0.18687035143375397 0.73880815505981445
0.70521026849746704 0.032319292426109314 0.70462191104888916
0 0.51538753509521484 0.85481679439544678
0.0032167504541575909 0.51201611757278442 0.84968268871307373
0.34137684106826782 0.49945837259292603 0.83550816774368286
0.58709079027175903 0.46367126703262329 0.81619793176651001
0.78383362293243408 0.36976400017738342 0.79100281000137329
0.084914781153202057 0.72820430994033813 0.91440844535827637
0.22876642644405365 0.72753936052322388 0.9109807014465332
0.45004025101661682 0.72323673963546753 0.90177375078201294
0.65534698963165283 0.70971506834030151 0.88884574174880981
0.8475639820098877 0.66975337266921997 0.87165528535842896
0.44745966792106628 0.91081100702285767 0.96634793281555176
0.49523976445198059 0.91123753786087036 0.96419751644134521
0.60446882247924805 0.9118836522102356 0.95912790298461914
0.74964672327041626 0.91040462255477905 0.95101249217987061
0.90748745203018188 0.89981251955032349 0.93999344110488892
