LUTs/Kodak E-100 GX Ektachrome 100.cube
# Created by: G'MIC (https://gmic.eu)
TITLE "Kodak E-100 GX Ektachrome 100"
# LUT size
LUT_3D_SIZE 32
# Data domain
DOMAIN_MIN 0.0 0.0 0.0
DOMAIN_MAX 1.0 1.0 1.0
# LUT data points
0.0075314287096261978 0.0082025555893778801 0.0069669000804424286
0.019768597558140755 0.0061347540467977524 0.0061637912876904011
0.036821752786636353 0.0054231840185821056 0.0054826843552291393
0.056471318006515503 0.0048951627686619759 0.004929522518068552
0.077039845287799835 0.0037554788868874311 0.0041911210864782333
0.09706512838602066 0.0031017751898616552 0.0037508097011595964
0.12053674459457397 0.0025517737958580256 0.0033836588263511658
0.14525458216667175 0.0019304128363728523 0.0025945361703634262
0.17096142470836639 0.0011027681175619364 0.0019500185735523701
0.1952877938747406 0.00074208492878824472 0.0013677435927093029
0.22224201261997223 0.00054658617591485381 0.00092617259360849857
0.25140798091888428 0.00033949152566492558 0.00054139195708557963
0.27942457795143127 0.00021834336803294718 0.00027832837076857686
0.31200215220451355 1.3567864698416088e-05 9.5809373306110501e-05
0.34282296895980835 0 1.6297888578264974e-05
0.37658751010894775 0 0
0.4087047278881073 0 0
0.4414341151714325 0 0
0.47143685817718506 0 0
0.50496315956115723 0 0
0.53516572713851929 0 0
0.56776255369186401 0.00015022707520984113 0
0.59962773323059082 0.0024031361099332571 0
0.62831079959869385 0.0039081936702132225 0
0.65839052200317383 0.0039215688593685627 0
0.68607723712921143 0.0039215688593685627 0
0.71539366245269775 0.0039215688593685627 0
0.74333447217941284 0.0041531221941113472 0
0.7721247673034668 0.0072078905068337917 0
0.80108517408370972 0.0066742049530148506 0
0.83104503154754639 0.0056335544213652611 0
0.84384894371032715 0.0071846134960651398 0
0.017374008893966675 0.026093531399965286 0.012651317752897739
0.030083391815423965 0.023836322128772736 0.011800790205597878
0.048776481300592422 0.021644264459609985 0.010960726998746395
0.068794921040534973 0.019988862797617912 0.010055014863610268
0.089687041938304901 0.017675209790468216 0.0091941514983773232
0.10983183979988098 0.016633786261081696 0.0083780139684677124
0.13371282815933228 0.014775042422115803 0.0074487482197582722
0.15815670788288116 0.012753929011523724 0.0062564960680902004
0.18320077657699585 0.010794078931212425 0.0051096328534185886
0.20691202580928802 0.009410148486495018 0.0043278750963509083
0.23338577151298523 0.0080208005383610725 0.0034315078519284725
0.26169708371162415 0.0061999447643756866 0.0025013999547809362
0.28865286707878113 0.0050462237559258938 0.0016655349172651768
0.31978464126586914 0.0038144805002957582 0.00093267840566113591
0.34884768724441528 0.0027009451296180487 0.00045197003055363894
0.38083928823471069 0.00078320241300389171 0.00015866602188907564
0.4115702211856842 0.00027168108499608934 4.0667924622539431e-05
0.44358417391777039 2.3030854208627716e-05 1.0998338439094368e-05
0.47336110472679138 0 0
0.50654101371765137 0 0
0.53659570217132568 0 0
0.56887263059616089 2.6201400032732636e-05 0
0.60051685571670532 0.0019995395559817553 0
0.62878710031509399 0.0039008879102766514 0
0.65866410732269287 0.0039215688593685627 0
0.68626922369003296 0.0039215688593685627 0
0.71537214517593384 0.0039215688593685627 0
0.74297773838043213 0.0040687946602702141 0
0.77180469036102295 0.0069382283836603165 0
0.80060774087905884 0.0060425810515880585 0
0.83034342527389526 0.0048801014199852943 0
0.84330952167510986 0.0060103773139417171 0
0.031521335244178772 0.051736060529947281 0.020022580400109291
0.04275122657418251 0.049286823719739914 0.019079981371760368
0.0592658631503582 0.046647533774375916 0.017654793336987495
0.079038210213184357 0.044057004153728485 0.016516182571649551
0.10018859058618546 0.041529219597578049 0.015372296795248985
0.12068635225296021 0.039232198148965836 0.014304895885288715
0.14522336423397064 0.036613311618566513 0.01282890047878027
0.16931222379207611 0.033970765769481659 0.011485349386930466
0.19397576153278351 0.030976129695773125 0.0099165141582489014
0.21761293709278107 0.028183002024888992 0.0085608242079615593
0.24401514232158661 0.025228222832083702 0.0073313191533088684
0.27232328057289124 0.022565567865967751 0.005928579717874527
0.299324631690979 0.019946129992604256 0.0047269058413803577
0.33022120594978333 0.017248282209038734 0.003466007299721241
0.35871031880378723 0.013397527858614922 0.0024200303014367819
0.38936930894851685 0.0093606896698474884 0.0014597190311178565
0.41841337084770203 0.0059370831586420536 0.00079890183405950665
0.44812890887260437 0.0036408351734280586 0.00044313550461083651
0.47633779048919678 0.0016849078238010406 0.00017620460130274296
0.50849920511245728 0.00020696286810562015 1.4501778423436917e-05
0.53792881965637207 0 0
0.57005441188812256 1.325697849097196e-05 0
0.60139596462249756 0.0016168223228305578 0
0.62951904535293579 0.0038510092999786139 0
0.6590849757194519 0.0039215688593685627 0
0.68656498193740845 0.0039215688593685627 0
0.71563780307769775 0.0039215688593685627 0
0.74324119091033936 0.0040182573720812798 0
0.77179747819900513 0.0066749402321875095 0
0.80048960447311401 0.0052679646760225296 0
0.82997846603393555 0.0043907668441534042 0
0.8428768515586853 0.0052833277732133865 0
0.04895126074552536 0.079188168048858643 0.029142409563064575
0.058772742748260498 0.076953515410423279 0.028025144711136818
0.071601554751396179 0.074365928769111633 0.026652457192540169
0.089597739279270172 0.07172151654958725 0.025068895891308784
0.11058229207992554 0.069087252020835876 0.023590110242366791
0.13139647245407104 0.066547520458698273 0.022199859842658043
0.15638154745101929 0.063390627503395081 0.020437432453036308
0.17972280085086823 0.060224235057830811 0.01882118359208107
0.20424455404281616 0.056789625436067581 0.016762010753154755
0.22765804827213287 0.053407438099384308 0.015178474597632885
0.25398123264312744 0.049857020378112793 0.013253347016870975
0.28255048394203186 0.046110678464174271 0.011147595942020416
0.30954852700233459 0.042495016008615494 0.0095071634277701378
0.34024187922477722 0.038061060011386871 0.0076875737868249416
0.36826303601264954 0.032626498490571976 0.0060211489908397198
0.39849123358726501 0.026331113651394844 0.004460121039301157
0.42713040113449097 0.02095789834856987 0.0033754399046301842
0.45636910200119019 0.015963086858391762 0.0023934871423989534
0.48365047574043274 0.010771321132779121 0.0014349069679155946
0.51365691423416138 0.0055074836127460003 0.00058342359261587262
0.54117870330810547 0.0025453448761254549 0.00018595554865896702
0.57183331251144409 0.0007514028693549335 2.1535695850616321e-05
0.60241001844406128 0.0014939885586500168 0
0.63044452667236328 0.0038196691311895847 0
0.65968680381774902 0.0039215688593685627 0
0.68709558248519897 0.0039215688593685627 0
0.71597027778625488 0.0039215688593685627 0
0.74341022968292236 0.0039492743089795113 0
0.7718321681022644 0.006263210903853178 0
0.80034488439559937 0.0047668903134763241 0
0.82971203327178955 0.0040290793403983116 0
0.8427242636680603 0.0043339217081665993 0
0.068277992308139801 0.10788004100322723 0.040365662425756454
0.07647443562746048 0.10588884353637695 0.039373099803924561
0.087436892092227936 0.10328879207372665 0.037910852581262589
0.10195949673652649 0.10046253353357315 0.035998594015836716
0.12122707068920135 0.097595244646072388 0.034204933792352676
0.14250661432743073 0.094834394752979279 0.032250251621007919
0.16770222783088684 0.091461323201656342 0.030295638367533684
0.19017845392227173 0.088125042617321014 0.028260592371225357
0.214463010430336 0.08411165326833725 0.02591296099126339
0.23761001229286194 0.080409020185470581 0.02383735217154026
0.26410779356956482 0.076319098472595215 0.021423205733299255
0.29263618588447571 0.072180852293968201 0.018581287935376167
0.31950071454048157 0.06811089813709259 0.016200296580791473
0.34988698363304138 0.062763199210166931 0.014054370112717152
0.37750834226608276 0.056646507233381271 0.011668886989355087
0.40732881426811218 0.049459289759397507 0.0093582654371857643
0.43560749292373657 0.042597021907567978 0.0076022879220545292
0.46477845311164856 0.035138688981533051 0.006030235905200243
0.49196967482566833 0.027352148666977882 0.0043337508104741573
0.52164983749389648 0.018768709152936935 0.0028026506770402193
0.54806584119796753 0.01259860023856163 0.0015063006430864334
0.57658141851425171 0.0066859847865998745 0.00051995599642395973
0.60481423139572144 0.0033947126939892769 0.00011510355398058891
0.63159435987472534 0.0038389787077903748 2.8475717499532038e-06
0.66044658422470093 0.0039215688593685627 0
0.68780183792114258 0.0039215688593685627 0
0.71646803617477417 0.0039215688593685627 0
0.74375057220458984 0.0039395228959619999 0
0.77202564477920532 0.0053510530851781368 0
0.80040097236633301 0.0042725694365799427 0
0.82973605394363403 0.0039219707250595093 0
0.84273892641067505 0.0039237798191606998 0
0.087812513113021851 0.1371835470199585 0.053050603717565536
0.095077924430370331 0.13546170294284821 0.052070707082748413
0.10515040159225464 0.13304530084133148 0.050393525511026382
0.11748788505792618 0.13039621710777283 0.048691868782043457
0.13289409875869751 0.12782366573810577 0.046622186899185181
0.15409509837627411 0.12485345453023911 0.044502399861812592
0.1787777841091156 0.12120289355516434 0.042124714702367783
0.20055748522281647 0.11752522736787796 0.040034439414739609
0.22452384233474731 0.11319010704755783 0.037562698125839233
0.2476632297039032 0.10907561331987381 0.035012420266866684
0.27429857850074768 0.10434652864933014 0.032103713601827621
0.30297002196311951 0.099452272057533264 0.028566112741827965
0.3298356831073761 0.094765573740005493 0.025609957054257393
0.35975179076194763 0.088766112923622131 0.02269352599978447
0.38679546117782593 0.082164213061332703 0.019884312525391579
0.41602969169616699 0.074460826814174652 0.016625624150037766
0.44391137361526489 0.067158900201320648 0.014170602895319462
0.47289732098579407 0.058678291738033295 0.011867341585457325
0.50007754564285278 0.049927327781915665 0.0092373955994844437
0.52955353260040283 0.039585623890161514 0.0068638650700449944
0.55582565069198608 0.030689546838402748 0.0048920079134404659
0.58399593830108643 0.021006457507610321 0.0029237458948045969
0.61103993654251099 0.012920968234539032 0.0015859059058129787
0.63540023565292358 0.0073686684481799603 0.00061338732484728098
0.6623002290725708 0.0045843878760933876 0.00016999636136461049
0.68886661529541016 0.0039387233555316925 2.1078934878460132e-05
0.71717387437820435 0.0039215688593685627 0
0.74414360523223877 0.0039255796000361443 0
0.77238565683364868 0.0043179024942219257 0
0.80068624019622803 0.0040301177650690079 0
0.8299945592880249 0.0039215688593685627 0
0.84275496006011963 0.0039215688593685627 0
0.11002200841903687 0.16995948553085327 0.066879354417324066
0.11666629463434219 0.16859672963619232 0.065955527126789093
0.12590833008289337 0.1666875034570694 0.064592696726322174
0.13664022088050842 0.16470050811767578 0.063015669584274292
0.14977662265300751 0.16232629120349884 0.060969512909650803
0.16799555718898773 0.15936353802680969 0.05877380445599556
0.19055598974227905 0.15604384243488312 0.056465387344360352
0.21219818294048309 0.1523769199848175 0.054244682192802429
0.23588566482067108 0.14808432757854462 0.051682420074939728
0.2593654990196228 0.14377374947071075 0.049153037369251251
0.28622311353683472 0.13868629932403564 0.04605618491768837
0.31510457396507263 0.1332143247127533 0.0420658178627491
0.34186276793479919 0.12780646979808807 0.038584239780902863
0.37131977081298828 0.12102227658033371 0.03485025092959404
0.39769387245178223 0.11370261758565903 0.031582359224557877
0.42617353796958923 0.1053355485200882 0.027460290119051933
0.4537777304649353 0.096718825399875641 0.023962486535310745
0.4826945960521698 0.08737589418888092 0.020569471642374992
0.50944769382476807 0.078121460974216461 0.017140228301286697
0.53857988119125366 0.067228518426418304 0.013673542998731136
0.56459659337997437 0.057031597942113876 0.010980965569615364
0.59262615442276001 0.04522724449634552 0.007963031530380249
0.61948549747467041 0.033196363598108292 0.0056053232401609421
0.64325451850891113 0.02235909178853035 0.0035676492843776941
0.6679808497428894 0.012114916928112507 0.0018853170331567526
0.69147270917892456 0.0056681903079152107 0.00074160500662401319
0.71832180023193359 0.0039948602207005024 0.00018850748892873526
0.74490255117416382 0.0039216256700456142 3.2948417356237769e-05
0.7730255126953125 0.0039270953275263309 3.5033760923397494e-06
0.80126070976257324 0.0039230566471815109 0
0.83034247159957886 0.0039215688593685627 0
0.84278208017349243 0.0039215688593685627 0
0.1270989328622818 0.1993730366230011 0.078694909811019897
0.13357076048851013 0.19828474521636963 0.078003436326980591
0.14197021722793579 0.19706346094608307 0.077255919575691223
0.15288004279136658 0.19535495340824127 0.075998008251190186
0.16657207906246185 0.19314371049404144 0.07427690178155899
0.18222355842590332 0.19053724408149719 0.072280190885066986
0.20173393189907074 0.18756034970283508 0.070255279541015625
0.22326178848743439 0.18449114263057709 0.068221479654312134
0.24683099985122681 0.18078501522541046 0.065931685268878937
0.27054086327552795 0.17663535475730896 0.063170745968818665
0.29790812730789185 0.17185373604297638 0.059954747557640076
0.3269469141960144 0.16652350127696991 0.056586578488349915
0.35367882251739502 0.1610390692949295 0.052953250706195831
0.38275599479675293 0.1543525904417038 0.049199827015399933
0.40866592526435852 0.14710253477096558 0.045378219336271286
0.43672892451286316 0.13826657831668854 0.04110996425151825
0.464061439037323 0.12851496040821075 0.036585185676813126
0.49276155233383179 0.11775685846805573 0.032239537686109543
0.51900368928909302 0.10770469158887863 0.027960970997810364
0.54767131805419922 0.095878422260284424 0.023414425551891327
0.57330352067947388 0.084740541875362396 0.019623080268502235
0.60098487138748169 0.072264432907104492 0.015612158924341202
0.62753832340240479 0.059188101440668106 0.012256050482392311
0.65125036239624023 0.045921970158815384 0.0094309113919734955
0.6758044958114624 0.03143695741891861 0.006516648456454277
0.69844162464141846 0.018760446459054947 0.0042347521521151066
0.72227948904037476 0.0087633430957794189 0.0022997583728283644
0.74657309055328369 0.00474897725507617 0.0010876319138333201
0.77392470836639404 0.0040276139043271542 0.00042582352762110531
0.80201756954193115 0.0039215688593685627 8.7623266153968871e-05
0.83076906204223633 0.0039215688593685627 4.8460492507729214e-06
0.84278261661529541 0.0039215688593685627 0
0.13414348661899567 0.23138760030269623 0.091179929673671722
0.14052961766719818 0.23059284687042236 0.090700261294841766
0.14949098229408264 0.22999870777130127 0.089705310761928558
0.1614825576543808 0.22828835248947144 0.088431544601917267
0.17660297453403473 0.2261880487203598 0.087238654494285583
0.1934361457824707 0.22385984659194946 0.085610009729862213
0.21394781768321991 0.22148488461971283 0.083797961473464966
0.23543630540370941 0.21839331090450287 0.082292504608631134
0.25899672508239746 0.21512423455715179 0.08009849488735199
0.28303337097167969 0.21177859604358673 0.077591054141521454
0.3107052743434906 0.20708666741847992 0.074770137667655945
0.33986711502075195 0.20197482407093048 0.071647733449935913
0.36649993062019348 0.19698514044284821 0.068603299558162689
0.39498442411422729 0.19108356535434723 0.065275833010673523
0.42061105370521545 0.1845085620880127 0.061523400247097015
0.44857704639434814 0.17604081332683563 0.057376578450202942
0.47581815719604492 0.1664930135011673 0.05312623456120491
0.50438773632049561 0.15539863705635071 0.04795634001493454
0.53043943643569946 0.14463207125663757 0.042760886251926422
0.55859792232513428 0.13147653639316559 0.037801336497068405
0.58374238014221191 0.11907533556222916 0.032693557441234589
0.61093413829803467 0.10480520129203796 0.027491377666592598
0.6368984580039978 0.090508930385112762 0.022749466821551323
0.66041058301925659 0.076446361839771271 0.018634170293807983
0.68466854095458984 0.060154430568218231 0.01456725224852562
0.70723569393157959 0.044153589755296707 0.01117449626326561
0.73052513599395752 0.027219207957386971 0.007821766659617424
0.75203782320022583 0.014015501365065575 0.0052991812117397785
0.77607530355453491 0.0068086208775639534 0.0028222659602761269
0.8030664324760437 0.0040225056000053883 0.0012169779511168599
0.83146381378173828 0.0039215688593685627 0.0004224418371450156
0.84317725896835327 0.0039215688593685627 0.00022532590082846582
0.13829140365123749 0.2639777660369873 0.10520689934492111
0.1452767550945282 0.26388302445411682 0.10433845221996307
0.15581551194190979 0.26317319273948669 0.10348278284072876
0.17006902396678925 0.26079240441322327 0.10293463617563248
0.18724943697452545 0.25966760516166687 0.10168019682168961
0.20510096848011017 0.25724264979362488 0.099885769188404083
0.22622981667518616 0.25496992468833923 0.098993211984634399
0.2474251389503479 0.25207659602165222 0.09657973051071167
0.27149292826652527 0.2488812655210495 0.094939149916172028
0.2957078218460083 0.24578315019607544 0.09215787798166275
0.32346677780151367 0.24130901694297791 0.089289739727973938
0.35248816013336182 0.23657910525798798 0.085975833237171173
0.37862825393676758 0.23162473738193512 0.083293706178665161
0.40654864907264709 0.22596694529056549 0.079886309802532196
0.43188264966011047 0.21970760822296143 0.076362207531929016
0.45985743403434753 0.21213297545909882 0.072693526744842529
0.4872526228427887 0.20339663326740265 0.068876788020133972
0.51573580503463745 0.19323867559432983 0.064216151833534241
0.54187846183776855 0.18311835825443268 0.059498865157365799
0.56999987363815308 0.17033548653125763 0.054677069187164307
0.59499937295913696 0.15760090947151184 0.049238599836826324
0.62164026498794556 0.14220546185970306 0.043280329555273056
0.64717203378677368 0.12583921849727631 0.037503346800804138
0.67009627819061279 0.1103912815451622 0.03224998340010643
0.69388484954833984 0.092620186507701874 0.026665568351745605
0.71619850397109985 0.07548309862613678 0.021942973136901855
0.73921847343444824 0.056452374905347824 0.016998140141367912
0.76053357124328613 0.038110435009002686 0.013051979243755341
0.78248906135559082 0.0199603121727705 0.0087823104113340378
0.80568981170654297 0.0070993630215525627 0.0053950301371514797
0.83263760805130005 0.0040954179130494595 0.0031154986936599016
0.84496700763702393 0.0039215688593685627 0.0024304878897964954
0.14848244190216064 0.30214369297027588 0.11992510408163071
0.15756429731845856 0.30100277066230774 0.11945915222167969
0.1702415943145752 0.30037257075309753 0.11889704316854477
0.18481698632240295 0.29922729730606079 0.11816513538360596
0.20112793147563934 0.29720914363861084 0.11736048012971878
0.219228595495224 0.29560139775276184 0.1163504496216774
0.23985370993614197 0.29308739304542542 0.11477489024400711
0.26124727725982666 0.29069685935974121 0.1129482313990593
0.2858034074306488 0.28763249516487122 0.11058750003576279
0.31033533811569214 0.28423511981964111 0.10884106904268265
0.33803543448448181 0.28028735518455505 0.10616305470466614
0.3663228452205658 0.27575790882110596 0.10338038951158524
0.39172026515007019 0.27101287245750427 0.10104271769523621
0.41918501257896423 0.26513189077377319 0.097326375544071198
0.44427147507667542 0.25914493203163147 0.094024278223514557
0.472089022397995 0.25153350830078125 0.090331584215164185
0.4994736909866333 0.24340903759002686 0.085846275091171265
0.5281141996383667 0.23396097123622894 0.081353835761547089
0.55422258377075195 0.22434411942958832 0.077213995158672333
0.58235901594161987 0.21288235485553741 0.072498612105846405
0.6072690486907959 0.20120739936828613 0.068171165883541107
0.63407552242279053 0.18668676912784576 0.062704369425773621
0.65952157974243164 0.17027105391025543 0.057072117924690247
0.68186652660369873 0.15355455875396729 0.051311857998371124
0.70521152019500732 0.13382972776889801 0.044691216200590134
0.72690051794052124 0.11431162804365158 0.03854239359498024
0.74936628341674805 0.093222610652446747 0.031866203993558884
0.77045857906341553 0.072637185454368591 0.025955729186534882
0.79230296611785889 0.049073781818151474 0.019613325595855713
0.81338083744049072 0.025047358125448227 0.013888527639210224
0.83589464426040649 0.0082777785137295723 0.0090994620695710182
0.84686315059661865 0.0046329847536981106 0.0074324388988316059
0.16888712346553802 0.34085482358932495 0.13538260757923126
0.17653964459896088 0.34046944975852966 0.13514560461044312
0.18692319095134735 0.33953744173049927 0.13497389853000641
0.20002046227455139 0.33782830834388733 0.13441194593906403
0.21618345379829407 0.33667072653770447 0.1333298534154892
0.23394066095352173 0.33522358536720276 0.13206478953361511
0.25438177585601807 0.33296096324920654 0.13095304369926453
0.27617168426513672 0.33095720410346985 0.12896730005741119
0.30089542269706726 0.32815217971801758 0.12696680426597595
0.3255428671836853 0.32523876428604126 0.12454640865325928
0.35291096568107605 0.32158428430557251 0.12238315492868423
0.38037839531898499 0.31739535927772522 0.11971858143806458
0.40494510531425476 0.31317740678787231 0.11719205230474472
0.43193811178207397 0.30729103088378906 0.11404213309288025
0.45681419968605042 0.30132102966308594 0.11112973093986511
0.48467907309532166 0.29381838440895081 0.10793498158454895
0.51204544305801392 0.28573060035705566 0.10430531203746796
0.54074108600616455 0.27649757266044617 0.10027539730072021
0.56687402725219727 0.26693758368492126 0.096150465309619904
0.59491848945617676 0.25577369332313538 0.091351151466369629
0.61969614028930664 0.24490185081958771 0.086952626705169678
0.64641553163528442 0.23135648667812347 0.081680677831172943
0.67188966274261475 0.21647697687149048 0.076359972357749939
0.69437789916992188 0.20109264552593231 0.071683414280414581
0.71783447265625 0.18202325701713562 0.065757140517234802
0.73937314748764038 0.16180628538131714 0.059504095464944839
0.76122051477432251 0.13787281513214111 0.052000995725393295
0.78174716234207153 0.11388013511896133 0.044488850980997086
0.80304843187332153 0.087545186281204224 0.036347661167383194
0.82390856742858887 0.059408009052276611 0.028411734849214554
0.84440672397613525 0.030703410506248474 0.020597569644451141
0.85294073820114136 0.019138224422931671 0.017520815134048462
0.18682949244976044 0.37415802478790283 0.14842556416988373
0.19333271682262421 0.37415802478790283 0.14835429191589355
0.20301824808120728 0.37413573265075684 0.14786738157272339
0.21592073142528534 0.3728194534778595 0.1472117006778717
0.23123311996459961 0.3703920841217041 0.14638739824295044
0.24816294014453888 0.37015753984451294 0.14544980227947235
0.26912957429885864 0.36862173676490784 0.14416584372520447
0.29079049825668335 0.3663947582244873 0.14274615049362183
0.31531044840812683 0.36426311731338501 0.14087581634521484
0.33971685171127319 0.36167600750923157 0.13909809291362762
0.36633726954460144 0.35860729217529297 0.13694840669631958
0.39301630854606628 0.35493096709251404 0.13454309105873108
0.41705355048179626 0.35115611553192139 0.13219687342643738
0.44363135099411011 0.34617403149604797 0.12949025630950928
0.46839836239814758 0.34048232436180115 0.1269184947013855
0.49637115001678467 0.33358874917030334 0.12349803745746613
0.52385938167572021 0.32603564858436584 0.11982982605695724
0.55241572856903076 0.31721049547195435 0.1160375103354454
0.57851439714431763 0.30809137225151062 0.11224585026502609
0.60646176338195801 0.2970258891582489 0.10794247686862946
0.63103204965591431 0.28650614619255066 0.10424598306417465
0.65754169225692749 0.27339020371437073 0.099806718528270721
0.68306851387023926 0.25889092683792114 0.094630979001522064
0.70573341846466064 0.24445928633213043 0.089511826634407043
0.72936385869979858 0.22669960558414459 0.083847343921661377
0.75112509727478027 0.20792593061923981 0.078136809170246124
