LUTs/Kodak Portra 400 NC 1 -.cube
# Created by: G'MIC (https://gmic.eu)
TITLE "Kodak Portra 400 NC 1 -"
# LUT size
LUT_3D_SIZE 5
# Data domain
# LUT data points
DOMAIN_MIN 0.000000 0.000000 0.000000
DOMAIN_MAX 0.903226 0.903226 0.903226
0.00067254831083118916 0.00074817548738792539 0.00093512871535494924
0.13410082459449768 0.014781738631427288 1.8471822841092944e-05
0.49155500531196594 0.0090844109654426575 0
0.78115367889404297 0.00031475623836740851 0
0.95659548044204712 0.095366351306438446 0
0 0.156915083527565 0.015911409631371498
0.1543392539024353 0.19578719139099121 2.1745091771663283e-07
0.58318865299224854 0.24834762513637543 0
0.80832123756408691 0.23787851631641388 0
0.96752578020095825 0.25589519739151001 0
7.3902640451706247e-07 0.49116396903991699 0.17829258739948273
0.1985783725976944 0.48975378274917603 0.17986588180065155
0.50290799140930176 0.53937649726867676 0.0024470621719956398
0.80423116683959961 0.53764384984970093 0
0.98155105113983154 0.48592889308929443 0
0.3251788318157196 0.69927406311035156 0.38343074917793274
0.38106223940849304 0.69451773166656494 0.38461440801620483
0.49061989784240723 0.70372802019119263 0.35061708092689514
0.68939220905303955 0.73296165466308594 0.22899581491947174
0.93380993604660034 0.74608659744262695 0.038728326559066772
0.57857835292816162 0.8548506498336792 0.60167568922042847
0.59664994478225708 0.85320580005645752 0.60220837593078613
0.64374470710754395 0.84952765703201294 0.60299587249755859
0.72009134292602539 0.86706292629241943 0.56466037034988403
0.86009132862091064 0.88835501670837402 0.49531954526901245
2.6149336918024346e-05 0.00066625489853322506 0.1711336225271225
0.174285888671875 0 0.1824241578578949
0.52752566337585449 0 0.17523160576820374
0.77341204881668091 0 0.17520762979984283
0.9448668360710144 0.089751660823822021 0.16844068467617035
0 0.20874118804931641 0.21857723593711853
0.20936746895313263 0.22602210938930511 0.23899559676647186
0.57626664638519287 0.22997012734413147 0.22575788199901581
0.79397976398468018 0.22962431609630585 0.19662013649940491
0.95583486557006836 0.26095712184906006 0.17685800790786743
0.20397831499576569 0.53067076206207275 0.35426244139671326
0.31826603412628174 0.52449542284011841 0.35427546501159668
0.53140729665756226 0.549216628074646 0.28732830286026001
0.80735301971435547 0.52962011098861694 0.21684591472148895
0.96984553337097168 0.49467429518699646 0.1992768794298172
0.40458494424819946 0.71222102642059326 0.4715237021446228
0.44567492604255676 0.70822817087173462 0.47163301706314087
0.52992641925811768 0.70661598443984985 0.45336827635765076
0.69927269220352173 0.73555731773376465 0.37116670608520508
0.93144220113754272 0.74457478523254395 0.29185038805007935
0.60172575712203979 0.857807457447052 0.63673496246337891
0.61831933259963989 0.85653102397918701 0.63701355457305908
0.66103345155715942 0.85151481628417969 0.63664549589157104
0.73098409175872803 0.86665713787078857 0.60713177919387817
0.86369478702545166 0.88860350847244263 0.54603284597396851
0 0.0040060901083052158 0.51417648792266846
0.23063735663890839 3.2178348192246631e-05 0.52188205718994141
0.59240275621414185 0.0001220774429384619 0.53851473331451416
0.80856549739837646 0.11193724721670151 0.47895914316177368
0.9605482816696167 0.15340682864189148 0.42970553040504456
0 0.27008223533630371 0.53626668453216553
0.24446932971477509 0.26816380023956299 0.55153179168701172
0.6060217022895813 0.3006037175655365 0.55832064151763916
0.80149102210998535 0.33635714650154114 0.50603175163269043
0.94862443208694458 0.30241590738296509 0.44725894927978516
0.21855388581752777 0.56295531988143921 0.55937802791595459
0.39105498790740967 0.57108008861541748 0.56923156976699829
0.59228456020355225 0.57494562864303589 0.57646048069000244
0.76949971914291382 0.55119782686233521 0.53821229934692383
0.92686879634857178 0.53393417596817017 0.49876469373703003
0.51681792736053467 0.74320739507675171 0.62307935953140259
0.55891746282577515 0.74263173341751099 0.62921029329299927
0.61144363880157471 0.72893047332763672 0.6151919960975647
0.72522449493408203 0.74381721019744873 0.57307684421539307
0.92832845449447632 0.74038708209991455 0.53247970342636108
0.6524614691734314 0.86841666698455811 0.71452444791793823
0.66503649950027466 0.86679238080978394 0.7134820818901062
0.69917535781860352 0.86154848337173462 0.70985490083694458
0.75610488653182983 0.86591160297393799 0.69552266597747803
0.87326359748840332 0.88948249816894531 0.65073460340499878
0 0.11711564660072327 0.73698794841766357
0.27488133311271667 0.13298271596431732 0.74175620079040527
0.58447402715682983 0.18774402141571045 0.74212396144866943
0.81167346239089966 0.28085139393806458 0.74321705102920532
0.94407838582992554 0.38363721966743469 0.69515043497085571
0.048162583261728287 0.31159123778343201 0.74447274208068848
0.32675585150718689 0.32550874352455139 0.74643129110336304
0.59578961133956909 0.36427727341651917 0.74563455581665039
0.80497443675994873 0.42576366662979126 0.74750626087188721
0.93555343151092529 0.48111575841903687 0.70603817701339722
0.2067810595035553 0.55617570877075195 0.72678554058074951
0.37264198064804077 0.56475692987442017 0.73279446363449097
0.58771342039108276 0.57522052526473999 0.74320703744888306
0.78345990180969238 0.61355406045913696 0.7509341835975647
0.91991257667541504 0.63607406616210938 0.72764068841934204
0.48763072490692139 0.75794464349746704 0.74838685989379883
0.53697234392166138 0.75971043109893799 0.75145435333251953
0.64061397314071655 0.76095318794250488 0.75562554597854614
0.77074313163757324 0.76487499475479126 0.76410919427871704
0.90339058637619019 0.73725706338882446 0.7247658371925354
0.70571571588516235 0.88673120737075806 0.81374388933181763
0.72146981954574585 0.88656520843505859 0.8151889443397522
0.76070153713226318 0.88444322347640991 0.81661570072174072
0.80268973112106323 0.87571746110916138 0.80518406629562378
0.89041984081268311 0.8928489089012146 0.7777363657951355
0.34091418981552124 0.32595145702362061 0.90151101350784302
0.44088852405548096 0.34121733903884888 0.90050214529037476
0.61939221620559692 0.38634499907493591 0.89702898263931274
0.80135774612426758 0.46846786141395569 0.89349138736724854
0.95137041807174683 0.53189396858215332 0.89334791898727417
0.38863715529441833 0.43618446588516235 0.89939063787460327
0.47216871380805969 0.44910767674446106 0.89927363395690918
0.62862783670425415 0.48001685738563538 0.89597874879837036
0.79882889986038208 0.53729057312011719 0.89310383796691895
0.94448000192642212 0.58875590562820435 0.89317220449447632
0.43595719337463379 0.60906320810317993 0.88822466135025024
0.48679748177528381 0.60542893409729004 0.89072304964065552
0.62204909324645996 0.61782622337341309 0.89106506109237671
0.78933292627334595 0.65671515464782715 0.89151102304458618
0.93190699815750122 0.69040882587432861 0.89437085390090942
0.4519592821598053 0.7595677375793457 0.88134604692459106
0.48966029286384583 0.75838744640350342 0.88136732578277588
0.58354407548904419 0.75322997570037842 0.8805510401725769
0.76536881923675537 0.76335102319717407 0.89049279689788818
0.9240565299987793 0.79450052976608276 0.90094542503356934
0.66986018419265747 0.90002751350402832 0.90336591005325317
0.68935447931289673 0.90023255348205566 0.90433573722839355
0.74213790893554688 0.90166330337524414 0.90693426132202148
0.82409113645553589 0.90530282258987427 0.91267108917236328
0.92617666721343994 0.91181439161300659 0.92066866159439087
