LUTs/Kodak Elite Color 400.cube
# Created by: G'MIC (https://gmic.eu)
TITLE "Kodak Elite Color 400"
# LUT size
LUT_3D_SIZE 5
# Data domain
# LUT data points
DOMAIN_MIN 0.000000 0.000000 0.000000
DOMAIN_MAX 0.903226 0.903226 0.903226
0.0067718126811087132 0.0060946736484766006 0.0054614893160760403
0.14552158117294312 0.00032098661176860332 0.0067398762330412865
0.32691860198974609 0 0.0067396154627203941
0.57465332746505737 0 0.0033919874113053083
0.82072430849075317 0 0.0039215688593685627
0.1114201620221138 0.16233015060424805 0.040882967412471771
0.2057984322309494 0.1431792825460434 0.04180433601140976
0.38009542226791382 0.099091567099094391 0.042159263044595718
0.61018675565719604 0.021852986887097359 0.034596133977174759
0.83824455738067627 0 0.012518066912889481
0.19551068544387817 0.3703916072845459 0.09083915501832962
0.28348511457443237 0.36160829663276672 0.090940214693546295
0.45359915494918823 0.33243319392204285 0.089439474046230316
0.67195999622344971 0.26483443379402161 0.078677035868167877
0.87802356481552124 0.12214313447475433 0.052313778549432755
0.35556188225746155 0.62909460067749023 0.10899236053228378
0.41469642519950867 0.62525850534439087 0.10898660123348236
0.55855017900466919 0.61137557029724121 0.10701755434274673
0.73793560266494751 0.57713180780410767 0.09836241602897644
0.92122983932495117 0.49510425329208374 0.072531998157501221
0.58623433113098145 0.8562169075012207 0.052717216312885284
0.61843925714492798 0.85493928194046021 0.049125637859106064
0.69817107915878296 0.85061502456665039 0.044893305748701096
0.8126903772354126 0.8393438458442688 0.042997915297746658
0.95655244588851929 0.81161361932754517 0.035224460065364838
0.00051649543456733227 0.021607061848044395 0.13567627966403961
0.11332876980304718 0.0065576713532209396 0.13677722215652466
0.30464869737625122 5.4362737955671037e-07 0.13523226976394653
0.56289100646972656 0 0.12084425240755081
0.81792342662811279 0 0.08526013046503067
0.087323322892189026 0.1873147040605545 0.16860857605934143
0.17219658195972443 0.16972342133522034 0.17010205984115601
0.35938745737075806 0.12704925239086151 0.17134074866771698
0.60035276412963867 0.0411672443151474 0.16299813985824585
0.83417767286300659 0 0.12921145558357239
0.1507125198841095 0.38957756757736206 0.19822527468204498
0.24831417202949524 0.38049384951591492 0.19974797964096069
0.43361499905586243 0.35309460759162903 0.20122590661048889
0.66085958480834961 0.28732436895370483 0.19663134217262268
0.87388229370117188 0.14824531972408295 0.1738109290599823
0.32393518090248108 0.64090263843536377 0.21915228664875031
0.38862282037734985 0.63691580295562744 0.2192172110080719
0.54139965772628784 0.62268447875976562 0.21775788068771362
0.72691142559051514 0.5899350643157959 0.20964005589485168
0.91455739736557007 0.51076382398605347 0.18511100113391876
0.57123887538909912 0.86043095588684082 0.24122613668441772
0.60462719202041626 0.85921669006347656 0.24043078720569611
0.68688881397247314 0.85489237308502197 0.23343116044998169
0.80401867628097534 0.84392726421356201 0.21718519926071167
0.95014476776123047 0.8170667290687561 0.16825957596302032
0 0.049796432256698608 0.28774788975715637
0.071995161473751068 0.024562330916523933 0.29178962111473083
0.27662387490272522 0.0047270841896533966 0.29497423768043518
0.54576468467712402 0 0.28896382451057434
0.80997979640960693 0 0.26353013515472412
0.033340860158205032 0.22163613140583038 0.33124136924743652
0.12874209880828857 0.20624972879886627 0.33538526296615601
0.32158246636390686 0.16792774200439453 0.34043177962303162
0.58093518018722534 0.078699745237827301 0.33969900012016296
0.82428824901580811 5.2904219955962617e-06 0.32132285833358765
0.041693609207868576 0.42109358310699463 0.38038656115531921
0.16183255612850189 0.41287147998809814 0.38323056697845459
0.3882199227809906 0.38802376389503479 0.38801082968711853
0.63525712490081787 0.32796114683151245 0.38958489894866943
0.86193943023681641 0.19583852589130402 0.37857654690742493
0.23191753029823303 0.66070574522018433 0.42964655160903931
0.31820130348205566 0.6570127010345459 0.43105655908584595
0.49607670307159424 0.64460843801498413 0.4335479736328125
0.69870531558990479 0.61506718397140503 0.4328366219997406
0.89750128984451294 0.54199910163879395 0.42028602957725525
0.53197818994522095 0.86911749839782715 0.4726664125919342
0.56888717412948608 0.8679923415184021 0.4728657603263855
0.65823554992675781 0.86413395404815674 0.47205409407615662
0.78297519683837891 0.85425263643264771 0.46668308973312378
0.93549579381942749 0.82847219705581665 0.44486147165298462
0 0.1078774556517601 0.47651219367980957
0.016890823841094971 0.075053028762340546 0.48383408784866333
0.224106565117836 0.035530794411897659 0.49357908964157104
0.51167106628417969 0.00026817899197340012 0.49932098388671875
0.79215061664581299 0 0.4892982542514801
0.001825074665248394 0.27661222219467163 0.53071111440658569
0.045818515121936798 0.26165714859962463 0.53681045770645142
0.24176400899887085 0.22728218138217926 0.5464637279510498
0.53985077142715454 0.14955131709575653 0.55446648597717285
0.80532407760620117 0.0084892194718122482 0.55341583490371704
0 0.46762701869010925 0.58593988418579102
0.010196872986853123 0.46075272560119629 0.58992636203765869
0.29059156775474548 0.43888023495674133 0.59787845611572266
0.58524376153945923 0.38732519745826721 0.60549002885818481
0.83934098482131958 0.26530757546424866 0.60693466663360596
0.01152897160500288 0.68816637992858887 0.6376039981842041
0.13963709771633148 0.68530005216598511 0.63989090919494629
0.41016966104507446 0.67508673667907715 0.64498406648635864
0.65041738748550415 0.65017980337142944 0.65030765533447266
0.87050354480743408 0.58670681715011597 0.64997917413711548
0.45771315693855286 0.88233470916748047 0.68397802114486694
0.50284665822982788 0.88140004873275757 0.68517047166824341
0.60818147659301758 0.87820100784301758 0.68788021802902222
0.74867099523544312 0.86954993009567261 0.6898002028465271
0.91330587863922119 0.84624201059341431 0.68523705005645752
0 0.19624704122543335 0.66856789588928223
0 0.16729800403118134 0.6749834418296814
0.11578596383333206 0.1265922486782074 0.68669801950454712
0.45473453402519226 0.040415219962596893 0.69966161251068115
0.76360940933227539 0 0.70526480674743652
0 0.35476857423782349 0.71284133195877075
0 0.34269899129867554 0.71848946809768677
0.076950728893280029 0.31292274594306946 0.72975820302963257
0.46478918194770813 0.24477404356002808 0.74346143007278442
0.77580559253692627 0.094800747931003571 0.7546507716178894
0 0.53108745813369751 0.75813806056976318
0 0.52598243951797485 0.7624657154083252
0.015513865277171135 0.50869733095169067 0.77214008569717407
0.49094626307487488 0.46646139025688171 0.78467041254043579
0.79915088415145874 0.36737194657325745 0.79610979557037354
0 0.7255476713180542 0.80545097589492798
0 0.72381025552749634 0.808543860912323
0.18368434906005859 0.71681135892868042 0.81592661142349243
0.55806928873062134 0.69862675666809082 0.82568013668060303
0.82479512691497803 0.64897924661636353 0.83444404602050781
0.24993272125720978 0.90263622999191284 0.85553485155105591
0.33832821249961853 0.90214371681213379 0.85756009817123413
0.49946248531341553 0.90033835172653198 0.86244893074035645
0.68220072984695435 0.89407896995544434 0.86918115615844727
0.87508785724639893 0.87486326694488525 0.87488186359405518
