LUTs/Kodak Elite Color 400.cube
# Created by: G'MIC (https://gmic.eu)
TITLE "Kodak Elite Color 400"
# LUT size
LUT_3D_SIZE 32
# Data domain
DOMAIN_MIN 0.0 0.0 0.0
DOMAIN_MAX 1.0 1.0 1.0
# LUT data points
0.0067718126811087132 0.0060946736484766006 0.0054614893160760403
0.019580056890845299 0.0045800697989761829 0.0055072521790862083
0.037670601159334183 0.0035303577315062284 0.0056240889243781567
0.058210670948028564 0.0024405107833445072 0.0059809382073581219
0.07955227792263031 0.0016806370113044977 0.0061207744292914867
0.099824361503124237 0.001006388571113348 0.0064352080225944519
0.12188078463077545 0.00060629157815128565 0.0067353746853768826
0.14552158117294312 0.00032098661176860332 0.0067398762330412865
0.17023265361785889 0.00010602043039398268 0.0067680031061172485
0.19419717788696289 1.273641146326554e-06 0.0068550491705536842
0.22007034718990326 0 0.0070105469785630703
0.24650098383426666 0 0.0070016058161854744
0.27074983716011047 0 0.0068630175665020943
0.29906767606735229 0 0.0067993788979947567
0.32691860198974609 0 0.0067396154627203941
0.36032047867774963 0 0.0064365831203758717
0.39501649141311646 0 0.0061515341512858868
0.43146699666976929 0 0.0060233250260353088
0.46500346064567566 0 0.0058173742145299911
0.50235944986343384 0 0.0051213651895523071
0.53654199838638306 0 0.0043451646342873573
0.57465332746505737 0 0.0033919874113053083
0.61260879039764404 0 0.0027168851811438799
0.64775252342224121 0 0.0018793201306834817
0.68447279930114746 0 0.0012928792275488377
0.71854954957962036 0 0.00092199706705287099
0.7537500262260437 0.0014705882640555501 0.0030028808396309614
0.78684556484222412 0.002497116569429636 0.0039215688593685627
0.82072430849075317 0 0.0039215688593685627
0.85364699363708496 1.5603736756020226e-05 0.0039215688593685627
0.8869929313659668 0.0026123612187802792 0.0039215688593685627
0.91559308767318726 0.0039215688593685627 0.0039215688593685627
0.014302145689725876 0.020281555131077766 0.0081087574362754822
0.027798166498541832 0.017706247046589851 0.0082773659378290176
0.047671414911746979 0.015208658762276173 0.0083333607763051987
0.06879638135433197 0.012968432158231735 0.0085229203104972839
0.090514644980430603 0.01089027151465416 0.0086919153109192848
0.1106601357460022 0.0091569311916828156 0.0087911505252122879
0.13328155875205994 0.0076387790031731129 0.0089902644976973534
0.15699556469917297 0.0055803768336772919 0.0090878074988722801
0.18124453723430634 0.0039392360486090183 0.0091808894649147987
0.20455019176006317 0.002666643587872386 0.0093832407146692276
0.22942066192626953 0.0015348813030868769 0.0097137391567230225
0.25520172715187073 0.00074264645809307694 0.0097488807514309883
0.27918976545333862 0.00041041756048798561 0.0098497988656163216
0.30718424916267395 0.00021258171182125807 0.0098268939182162285
0.33497065305709839 6.747818406438455e-05 0.0096489144489169121
0.36816263198852539 5.8332074104328058e-07 0.0091811856254935265
0.40233883261680603 0 0.0090917088091373444
0.43811324238777161 0 0.0089066671207547188
0.47120478749275208 0 0.0086206505075097084
0.50811874866485596 0 0.0078336074948310852
0.54191046953201294 0 0.0068787457421422005
0.57957547903060913 0 0.0059975804761052132
0.61712956428527832 0 0.0049760611727833748
0.65197712182998657 0 0.0038025693502277136
0.68836373090744019 0 0.0028154521714895964
0.72228199243545532 0 0.0020165054593235254
0.75725644826889038 0.0014672805555164814 0.0032938199583441019
0.78915548324584961 0.0023866444826126099 0.0039215688593685627
0.82319736480712891 0 0.0039215688593685627
0.85554611682891846 2.3045726265991107e-05 0.0039215688593685627
0.88870829343795776 0.0032449299469590187 0.0039215688593685627
0.91684669256210327 0.0039215688593685627 0.0039215688593685627
0.025467431172728539 0.040724936872720718 0.010779052041471004
0.037673171609640121 0.037702254951000214 0.010827068239450455
0.056435335427522659 0.034458927810192108 0.010908083990216255
0.077508740127086639 0.031228022649884224 0.011076719500124454
0.099242553114891052 0.028126642107963562 0.011286419816315174
0.11946454644203186 0.025374319404363632 0.011658343486487865
0.14240731298923492 0.022477958351373672 0.011980894953012466
0.16583429276943207 0.019377537071704865 0.012213557027280331
0.18982319533824921 0.016294160857796669 0.012368009425699711
0.21252231299877167 0.013593521900475025 0.012490322813391685
0.23709776997566223 0.010899119079113007 0.012568341568112373
0.26274001598358154 0.0084679871797561646 0.012614673003554344
0.28650519251823425 0.0063676377758383751 0.01295046042650938
0.31446591019630432 0.0045777629129588604 0.013142856769263744
0.3421100378036499 0.0028698656242340803 0.013102850876748562
0.3749593198299408 0.00073547003557905555 0.012687984853982925
0.40822193026542664 5.044291538069956e-05 0.012494879774749279
0.44332292675971985 0 0.012264524586498737
0.47613275051116943 0 0.011748719960451126
0.51270806789398193 0 0.010747596621513367
0.54640012979507446 0 0.0094947833567857742
0.58386027812957764 0 0.0083254687488079071
0.62111073732376099 0 0.0072797895409166813
0.65544569492340088 0 0.0060814130119979382
0.69149988889694214 0 0.0049328440800309181
0.72516477108001709 0 0.0037844597827643156
0.75945758819580078 0.0014451316092163324 0.0039005069993436337
0.79188746213912964 0.0016468580579385161 0.0039435229264199734
0.82524359226226807 0 0.0039215688593685627
0.85758233070373535 2.3068050722940825e-05 0.0039215688593685627
0.89035165309906006 0.0032468275167047977 0.0039215688593685627
0.91836166381835938 0.0037258851807564497 0.0039215688593685627
0.039718005806207657 0.063751652836799622 0.014835916459560394
0.0505254827439785 0.060947269201278687 0.014835916459560394
0.066153772175312042 0.057677783071994781 0.014848343096673489
0.086476929485797882 0.054223418235778809 0.014953040517866611
0.10790478438138962 0.050709761679172516 0.01516363862901926
0.1279536634683609 0.047604750841856003 0.015551362186670303
0.15129020810127258 0.043727874755859375 0.015898820012807846
0.17415937781333923 0.039756890386343002 0.016349783167243004
0.19764386117458344 0.035490412265062332 0.016528645530343056
0.21988356113433838 0.031421948224306107 0.016758622601628304
0.24430286884307861 0.027207151055335999 0.017003564164042473
0.26979181170463562 0.023119712248444557 0.016856331378221512
0.29357525706291199 0.019424710422754288 0.016848796978592873
0.32160466909408569 0.015757767483592033 0.01699349470436573
0.34922385215759277 0.011870967224240303 0.017051016911864281
0.38188567757606506 0.0071440557949244976 0.016921278089284897
0.41471347212791443 0.0035141045227646828 0.016824522987008095
0.44916120171546936 0.0015888477209955454 0.016820343211293221
0.48145595192909241 0.00036288303090259433 0.016024131327867508
0.51761901378631592 6.3202196542988531e-06 0.014880706556141376
0.55105572938919067 0 0.013629828579723835
0.58809775114059448 0 0.011776291765272617
0.62490248680114746 0 0.010410438291728497
0.65901005268096924 0 0.0089269392192363739
0.69464647769927979 0 0.0072217504493892193
0.72786402702331543 5.6480057537555695e-06 0.0057848673313856125
0.76220887899398804 0.0015948193613439798 0.0050163008272647858
0.79422658681869507 0.0014273022534325719 0.0043045715428888798
0.82738411426544189 0 0.00396342808380723
0.85932689905166626 2.3068050722940825e-05 0.0039215688593685627
0.89206087589263916 0.0032468275167047977 0.0039215688593685627
0.91998034715652466 0.0034795368555933237 0.0039215688593685627
0.056272499263286591 0.08731425553560257 0.019869184121489525
0.065401457250118256 0.084809109568595886 0.019869184121489525
0.078009799122810364 0.081760264933109283 0.019897472113370895
0.095987945795059204 0.07838846743106842 0.020055154338479042
0.11648890376091003 0.074948512017726898 0.020191615447402
0.13655240833759308 0.071452811360359192 0.020661152899265289
0.16040284931659698 0.067271165549755096 0.021305328235030174
0.18211236596107483 0.063157901167869568 0.021402891725301743
0.20525231957435608 0.058576885610818863 0.02166101336479187
0.22702793776988983 0.053856197744607925 0.022053556516766548
0.2511841356754303 0.048694275319576263 0.022576145827770233
0.27661308646202087 0.043489180505275726 0.022154888138175011
0.30053251981735229 0.038387969136238098 0.021834162995219231
0.32882341742515564 0.032736539840698242 0.0222054123878479
0.35631516575813293 0.026790814474225044 0.02238079160451889
0.38878160715103149 0.019552925601601601 0.02195989154279232
0.42139685153961182 0.013702467083930969 0.02150622196495533
0.4553389847278595 0.0087921358644962311 0.021635575219988823
0.48722785711288452 0.0044550755992531776 0.021079575642943382
0.52286624908447266 0.00084448920097202063 0.019954750314354897
0.55571132898330688 4.0200768125941977e-05 0.018863219767808914
0.592521071434021 0 0.016704285517334938
0.62903982400894165 0 0.014980915002524853
0.66279119253158569 0 0.013123123906552792
0.69814693927764893 0 0.011008018627762794
0.73089873790740967 1.876285023172386e-05 0.0089261429384350777
0.76510822772979736 0.0018371390178799629 0.0072383466176688671
0.79657691717147827 0.00063820619834586978 0.0053656408563256264
0.82963311672210693 0 0.0042838659137487411
0.86167526245117188 0.00024010015476960689 0.00393710657954216
0.89394289255142212 0.0033586905337870121 0.0039215688593685627
0.92170751094818115 0.0038990986067801714 0.0039215688593685627
0.07306179404258728 0.11086412519216537 0.02640778012573719
0.081143200397491455 0.1087854877114296 0.02640778012573719
0.092151492834091187 0.1061154305934906 0.02640778012573719
0.10639363527297974 0.10295815020799637 0.026414325460791588
0.12464911490678787 0.099613383412361145 0.026449674740433693
0.14531797170639038 0.095924027264118195 0.02658674493432045
0.16886582970619202 0.091691441833972931 0.027001051232218742
0.18974094092845917 0.08750084787607193 0.027245288714766502
0.21231682598590851 0.082466281950473785 0.027718536555767059
0.23387688398361206 0.077588841319084167 0.028095666319131851
0.25793853402137756 0.071995601058006287 0.028585923835635185
0.28339514136314392 0.066224545240402222 0.028330510482192039
0.3076179027557373 0.060660332441329956 0.027743421494960785
0.33592233061790466 0.05419381707906723 0.028134137392044067
0.36355903744697571 0.046946000307798386 0.028203010559082031
0.39570105075836182 0.038085374981164932 0.027697959914803505
0.42799359560012817 0.030048703774809837 0.027088653296232224
0.46177133917808533 0.022386064752936363 0.027072705328464508
0.49347347021102905 0.015151935629546642 0.026662154123187065
0.52872735261917114 0.0080752596259117126 0.025238037109375
0.56106042861938477 0.0033744948450475931 0.024253657087683678
0.59714215993881226 0.00074887159280478954 0.02244221419095993
0.63322442770004272 6.68700085952878e-05 0.020360756665468216
0.66661304235458374 0 0.018499705940485001
0.70160967111587524 0 0.015595830976963043
0.73441195487976074 3.4855966077884659e-05 0.013199331238865852
0.7678757905960083 0.0016332826344296336 0.010492074303328991
0.79957091808319092 0.00027030415367335081 0.0078450562432408333
0.83213025331497192 0 0.0055402321740984917
0.86381953954696655 0.00045761733781546354 0.0042372141033411026
0.89606839418411255 0.0034708026796579361 0.0039332248270511627
0.92368966341018677 0.0039215688593685627 0.0039215688593685627
0.092351742088794708 0.13775815069675446 0.033555146306753159
0.099557012319564819 0.13598214089870453 0.033615551888942719
0.10906501859426498 0.13365153968334198 0.033622059971094131
0.12008561939001083 0.13099759817123413 0.033709514886140823
0.13490022718906403 0.12791888415813446 0.034029889851808548
0.15520159900188446 0.1243717148900032 0.034302283078432083
0.17772434651851654 0.1200120821595192 0.034431178122758865
0.19794736802577972 0.11575884371995926 0.034709304571151733
0.22014309465885162 0.11091307550668716 0.034888386726379395
0.24148018658161163 0.10582553595304489 0.035027593374252319
0.26558330655097961 0.099777944386005402 0.035476788878440857
0.29112964868545532 0.093542218208312988 0.035342708230018616
0.31553924083709717 0.087553307414054871 0.034909021109342575
0.34411716461181641 0.080140352249145508 0.034952539950609207
0.37191155552864075 0.072672106325626373 0.034965813159942627
0.40372344851493835 0.06313786655664444 0.034891963005065918
0.43576774001121521 0.053963448852300644 0.034424081444740295
0.46924352645874023 0.043969083577394485 0.034037936478853226
0.50077664852142334 0.033987492322921753 0.03287825733423233
0.53562796115875244 0.023303810507059097 0.031222879886627197
0.56789284944534302 0.014690359123051167 0.030507756397128105
0.60375857353210449 0.0073626535013318062 0.028411915525794029
0.63888096809387207 0.0023910580202937126 0.026563694700598717
0.67146819829940796 0.00020933519408572465 0.02463112398982048
0.70600491762161255 0 0.021493582054972649
0.73825764656066895 1.6612279068795033e-05 0.018740598112344742
0.77143979072570801 0.00053164217388257384 0.015323719009757042
0.80287152528762817 2.9108354283380322e-05 0.011819166131317616
0.83509308099746704 0 0.0083602098748087883
0.86653023958206177 0.00045943868462927639 0.0054803676903247833
0.89866268634796143 0.0034717412199825048 0.0040787560865283012
0.92611241340637207 0.0039215688593685627 0.0039215688593685627
0.1114201620221138 0.16233015060424805 0.040882967412471771
0.11755909025669098 0.1610335111618042 0.040932968258857727
0.12551309168338776 0.1592620313167572 0.041163504123687744
0.13522213697433472 0.1570686548948288 0.041399173438549042
0.14798107743263245 0.15420833230018616 0.041409846395254135
0.16553062200546265 0.15071474015712738 0.041448932141065598
0.18571941554546356 0.1470179557800293 0.041476503014564514
0.2057984322309494 0.1431792825460434 0.04180433601140976
0.22733376920223236 0.13849130272865295 0.042173568159341812
0.24878689646720886 0.1332755833864212 0.042385503649711609
0.27302548289299011 0.12733694911003113 0.042479075491428375
0.2987898588180542 0.12095271050930023 0.042566873133182526
0.32356876134872437 0.11458627879619598 0.042286533862352371
0.35234421491622925 0.10701222717761993 0.042360994964838028
0.38009542226791382 0.099091567099094391 0.042159263044595718
0.41165903210639954 0.089298300445079803 0.041864644736051559
0.44336587190628052 0.079354323446750641 0.041286703199148178
0.47678357362747192 0.068297870457172394 0.04048677533864975
0.5080268383026123 0.057315930724143982 0.039376754313707352
0.54277616739273071 0.044973980635404587 0.03779333084821701
0.57471567392349243 0.033339865505695343 0.03639502078294754
0.61018675565719604 0.021852986887097359 0.034596133977174759
0.64502060413360596 0.012544883415102959 0.032540563493967056
0.67717170715332031 0.0051622427999973297 0.030651655048131943
0.71075290441513062 0.00097432616166770458 0.027815015986561775
0.742531418800354 3.2223215384874493e-05 0.024642724543809891
0.77528029680252075 2.7375041099730879e-05 0.020811744034290314
0.80625295639038086 0 0.016751088201999664
0.83824455738067627 0 0.012518066912889481
0.86937582492828369 0.00063914060592651367 0.0082522369921207428
0.9013439416885376 0.0035643635783344507 0.0050646374002099037
0.92869311571121216 0.0037865948397666216 0.004015765618532896
0.13102169334888458 0.1886797696352005 0.048356093466281891
0.13600903749465942 0.18773123621940613 0.048449859023094177
0.14315226674079895 0.18614274263381958 0.04886791855096817
0.15262295305728912 0.18425370752811432 0.049577362835407257
0.16458745300769806 0.18173739314079285 0.05006878450512886
0.17760689556598663 0.17898353934288025 0.050227019935846329
0.19485427439212799 0.17570880055427551 0.050285086035728455
0.21439939737319946 0.17225071787834167 0.050427328795194626
0.23553521931171417 0.16821862757205963 0.050465531647205353
0.25699400901794434 0.16353388130664825 0.050471879541873932
0.2813093364238739 0.15791156888008118 0.050466276705265045
0.30752789974212646 0.15165409445762634 0.050462830811738968
0.33258903026580811 0.14544215798377991 0.050470404326915741
0.36153370141983032 0.13787060976028442 0.050457704812288284
0.38924574851989746 0.12989439070224762 0.05024811252951622
0.4206879734992981 0.12022392451763153 0.049478903412818909
0.45192781090736389 0.10979728400707245 0.048876717686653137
0.48524105548858643 0.097661860287189484 0.047957506030797958
0.51655524969100952 0.085913673043251038 0.04651990532875061
0.55088168382644653 0.072751104831695557 0.045159358531236649
0.58263367414474487 0.059937458485364914 0.043383806943893433
0.61771136522293091 0.045786689966917038 0.041248377412557602
0.65223813056945801 0.031671918928623199 0.039065524935722351
0.68383032083511353 0.019363041967153549 0.037027236074209213
0.71712636947631836 0.0087267877534031868 0.034392811357975006
0.7477688193321228 0.0028756472747772932 0.03142431378364563
0.77987790107727051 0.00072713394183665514 0.027254968881607056
0.81058359146118164 0 0.022593062371015549
0.84207552671432495 0 0.01787172257900238
0.87293624877929688 0.00084278231952339411 0.012693171389400959
0.90450674295425415 0.0036693240981549025 0.0076679256744682789
0.93165791034698486 0.0030928489286452532 0.0047388128004968166
0.14059264957904816 0.2142307311296463 0.055099479854106903
0.14605143666267395 0.21330790221691132 0.0555218905210495
0.15382634103298187 0.21196506917476654 0.055701803416013718
0.16388453543186188 0.2102057933807373 0.055942811071872711
0.17546401917934418 0.20802974700927734 0.056198816746473312
0.18772299587726593 0.20571942627429962 0.056823309510946274
0.204594686627388 0.20269487798213959 0.057094894349575043
0.22332079708576202 0.19954882562160492 0.057448279112577438
0.24444131553173065 0.19594253599643707 0.057738561183214188
0.26564225554466248 0.19197610020637512 0.057832825928926468
0.29013738036155701 0.18690133094787598 0.057858400046825409
0.31647661328315735 0.18121279776096344 0.05793469026684761
0.34169048070907593 0.17553231120109558 0.058069467544555664
0.37084931135177612 0.16831770539283752 0.057957150042057037
0.39834827184677124 0.16083575785160065 0.057424351572990417
0.42962813377380371 0.15160383284091949 0.05636247992515564
0.46067565679550171 0.14148157835006714 0.05598054826259613
0.49391666054725647 0.12927925586700439 0.054965902119874954
0.52503436803817749 0.11726582050323486 0.053442943841218948
0.55928236246109009 0.10338474810123444 0.051989093422889709
0.59069478511810303 0.089653193950653076 0.050292391330003738
0.62550747394561768 0.074273183941841125 0.047888115048408508
0.65972858667373657 0.05836748331785202 0.04550512507557869
0.69089031219482422 0.042954307049512863 0.043071392923593521
0.72371721267700195 0.0270359106361866 0.040482927113771439
0.75393390655517578 0.015147611498832703 0.037595510482788086
0.78528589010238647 0.0061764908023178577 0.033642519265413284
0.81517153978347778 0.00083009270019829273 0.028883215039968491
0.84621649980545044 1.5361032637883909e-05 0.02354331873357296
0.87650442123413086 0.00092717749066650867 0.017608879134058952
0.9079517126083374 0.0037091237027198076 0.011579379439353943
0.93489986658096313 0.0020571222994476557 0.0070212213322520256
0.14664626121520996 0.24269343912601471 0.06364595890045166
0.15229852497577667 0.24179914593696594 0.064004309475421906
0.16037458181381226 0.24044522643089294 0.064114503562450409
0.16999202966690063 0.23883850872516632 0.064133994281291962
0.18194723129272461 0.23697282373905182 0.06426846981048584
0.19697606563568115 0.2348036915063858 0.064457327127456665
0.2151755690574646 0.23210184276103973 0.064475774765014648
0.23377572000026703 0.22931499779224396 0.064423404633998871
0.25507545471191406 0.22584088146686554 0.064278721809387207
0.27634701132774353 0.22211755812168121 0.064288310706615448
0.30086567997932434 0.21767495572566986 0.064714349806308746
0.32724100351333618 0.21261221170425415 0.064872995018959045
0.35244068503379822 0.20735348761081696 0.0650511234998703
0.38152071833610535 0.20051585137844086 0.064901866018772125
0.40884929895401001 0.19380927085876465 0.064567737281322479
0.43974199891090393 0.18539918959140778 0.064204804599285126
0.47070872783660889 0.17621041834354401 0.063418403267860413
0.50373601913452148 0.16501227021217346 0.062046941369771957
0.53450673818588257 0.15366898477077484 0.06081598624587059
0.56868398189544678 0.13970679044723511 0.059171214699745178
0.60001879930496216 0.12570606172084808 0.057375375181436539
0.6343071460723877 0.10944040864706039 0.055299263447523117
0.66826963424682617 0.092278614640235901 0.052546247839927673
0.69899839162826538 0.075646616518497467 0.05004221573472023
0.73133629560470581 0.056919895112514496 0.047173719853162766
0.76108205318450928 0.039727926254272461 0.043895337730646133
0.79198771715164185 0.02199731208384037 0.039962101727724075
0.82119870185852051 0.0081302067264914513 0.035693895071744919
0.85131806135177612 0.0011311010457575321 0.030073249712586403
0.8809962272644043 0.0010791793465614319 0.023586943745613098
0.91204863786697388 0.0037083255592733622 0.016540594398975372
0.93878740072250366 0.00086372194346040487 0.010820938274264336
0.15458863973617554 0.27290138602256775 0.072213254868984222
0.16026365756988525 0.27212876081466675 0.072251856327056885
0.16833922266960144 0.27120235562324524 0.072259925305843353
0.17929214239120483 0.26983091235160828 0.072388723492622375
0.19316820800304413 0.26794725656509399 0.07262139767408371
0.20882716774940491 0.26590940356254578 0.072708040475845337
0.22647844254970551 0.26340115070343018 0.072769090533256531
0.24526195228099823 0.26050600409507751 0.072749100625514984
0.26651820540428162 0.25706818699836731 0.07259947806596756
0.28832763433456421 0.25339826941490173 0.072590388357639313
0.31301173567771912 0.24915222823619843 0.072607338428497314
0.33927634358406067 0.24449023604393005 0.072497054934501648
0.36420518159866333 0.23958037793636322 0.072072923183441162
0.39285674691200256 0.23337727785110474 0.071528807282447815
0.41986179351806641 0.22688095271587372 0.070890732109546661
0.4505578875541687 0.21900108456611633 0.070352740585803986
0.48154643177986145 0.21026554703712463 0.069617323577404022
0.51406198740005493 0.2005753368139267 0.068751528859138489
0.54468762874603271 0.19050455093383789 0.067741163074970245
0.57865476608276367 0.17762471735477448 0.066307574510574341
0.60955566167831421 0.16469968855381012 0.064507767558097839
0.64367789030075073 0.1488628089427948 0.062415696680545807
0.67705404758453369 0.13124722242355347 0.05965130403637886
0.70754325389862061 0.11360011994838715 0.057219881564378738
0.73936492204666138 0.093140691518783569 0.054121524095535278
0.76882612705230713 0.074022069573402405 0.050549328327178955
0.79930418729782104 0.051701080054044724 0.04601871594786644
0.82806795835494995 0.030035147443413734 0.041674099862575531
0.85737109184265137 0.012134011834859848 0.036667406558990479
0.88608622550964355 0.0038788621313869953 0.030151752755045891
0.91675806045532227 0.0029662596061825752 0.022390378639101982
0.9432176947593689 0.00021057252888567746 0.01555253379046917
0.16568441689014435 0.30279195308685303 0.077819615602493286
0.17152756452560425 0.30201169848442078 0.078085362911224365
0.18017324805259705 0.30079323053359985 0.078178524971008301
0.19132649898529053 0.29975232481956482 0.078475348651409149
0.20481802523136139 0.29822435975074768 0.078671999275684357
0.21950756013393402 0.2960781455039978 0.078685417771339417
0.23745273053646088 0.29374268651008606 0.078755743801593781
0.25628510117530823 0.2909281849861145 0.079098246991634369
0.27786019444465637 0.28754660487174988 0.079202316701412201
0.29970124363899231 0.28381147980690002 0.079401440918445587
0.32461473345756531 0.27973452210426331 0.079707644879817963
0.35083180665969849 0.2749178409576416 0.079418100416660309
0.37541663646697998 0.27011182904243469 0.078834205865859985
0.40348300337791443 0.26434877514839172 0.0784711092710495
0.43006858229637146 0.2581973671913147 0.077938348054885864
0.46080118417739868 0.25028294324874878 0.07690294086933136
0.49163517355918884 0.2418142706155777 0.075422100722789764
