LUTs/Kodak Elite ExtraColor 100.cube
# Created by: G'MIC (https://gmic.eu)
TITLE "Kodak Elite ExtraColor 100"
# LUT size
LUT_3D_SIZE 32
# Data domain
DOMAIN_MIN 0.0 0.0 0.0
DOMAIN_MAX 1.0 1.0 1.0
# LUT data points
0.013210957869887352 0.012682764790952206 0.010956361889839172
0.034233510494232178 0.011058632284402847 0.0098231807351112366
0.058201700448989868 0.0099621154367923737 0.0087240654975175858
0.080451034009456635 0.0087245376780629158 0.0080449609085917473
0.10172633826732635 0.006735682487487793 0.0075517422519624233
0.12014950066804886 0.0059189195744693279 0.0067528537474572659
0.14031916856765747 0.0054109087213873863 0.0060906363651156425
0.16224533319473267 0.0037924426142126322 0.00521067064255476
0.18613708019256592 0.0027672410942614079 0.0043985955417156219
0.21025280654430389 0.0021958088036626577 0.003691614605486393
0.23635004460811615 0.0010897046886384487 0.0029088647570461035
0.26307892799377441 0.00095057114958763123 0.0021080882288515568
0.28784266114234924 0.00068769726203754544 0.001479695551097393
0.3166976273059845 0.0003578430914785713 0.00091256992891430855
0.34512367844581604 9.6407653472851962e-05 0.00056040752679109573
0.37929600477218628 0 0.00032120360992848873
0.41527324914932251 0 6.9916612119413912e-05
0.45483857393264771 0 7.3902640451706247e-07
0.49166074395179749 0 0
0.52955597639083862 0 0
0.56098127365112305 0 0
0.59238272905349731 0 0
0.62093180418014526 0 0
0.64643794298171997 0 0
0.67275124788284302 0 0
0.69768106937408447 0 0
0.72383028268814087 0 0
0.74851340055465698 0 0
0.77356952428817749 0 0
0.79765760898590088 0 0
0.82191115617752075 0 0
0.84109795093536377 0 0
0.025653978809714317 0.038602862507104874 0.016146173700690269
0.045179694890975952 0.036112591624259949 0.014750023372471333
0.06862284243106842 0.033700056374073029 0.013526339083909988
0.090632915496826172 0.03112492524087429 0.012475552968680859
0.11132146418094635 0.028614908456802368 0.01153773907572031
0.1293928325176239 0.026291782036423683 0.010863868519663811
0.14954172074794769 0.023717835545539856 0.010081483982503414
0.17117750644683838 0.021196402609348297 0.009044143371284008
0.19474758207798004 0.018472922965884209 0.0079772388562560081
0.2184678316116333 0.016322806477546692 0.0066882180981338024
0.24449747800827026 0.013465745374560356 0.0055529787205159664
0.27118146419525146 0.011561994440853596 0.004490128718316555
0.29533100128173828 0.0095920413732528687 0.003611924359574914
0.32277125120162964 0.0072879977524280548 0.0025265591684728861
0.34956169128417969 0.0049340827390551567 0.0016119646606966853
0.38167846202850342 0.0025008961092680693 0.00080523919314146042
0.41581708192825317 0.00089087942615151405 0.0004027332179248333
0.4534430205821991 0.00045147206401452422 9.9898694315925241e-05
0.48949238657951355 0.00011001562234014273 8.4357152445591055e-06
0.52724677324295044 0 0
0.55882066488265991 0 0
0.59046846628189087 0 0
0.61933159828186035 0 0
0.64495313167572021 0 0
0.6713111400604248 0 0
0.69623595476150513 0 0
0.72253245115280151 0 0
0.7471538782119751 0 0
0.77238541841506958 0 0
0.79687356948852539 0 0
0.82134294509887695 0 0
0.8401530385017395 0 0
0.04215690866112709 0.067204736173152924 0.021728092804551125
0.057369749993085861 0.064999133348464966 0.020422900095582008
0.076587699353694916 0.062408573925495148 0.019166767597198486
0.097508072853088379 0.059967167675495148 0.017911452800035477
0.11808295547962189 0.057311590760946274 0.016741476953029633
0.13582281768321991 0.055006183683872223 0.015611110255122185
0.15646354854106903 0.052187059074640274 0.014657402411103249
0.17826026678085327 0.048982847481966019 0.013437382876873016
0.20204140245914459 0.045438956469297409 0.011914788745343685
0.22617283463478088 0.042194724082946777 0.010737082920968533
0.25250175595283508 0.039143506437540054 0.0092665301635861397
0.27938631176948547 0.035456184297800064 0.0079288510605692863
0.30373126268386841 0.031469035893678665 0.0066398908384144306
0.33175495266914368 0.027309432625770569 0.005173402838408947
0.3587762713432312 0.022855238988995552 0.0039673158898949623
0.39116457104682922 0.017367970198392868 0.0026326861698180437
0.42449435591697693 0.012623684480786324 0.0016156916972249746
0.46112924814224243 0.0086283870041370392 0.00075511174509301782
0.49519035220146179 0.004774345550686121 0.00026269242516718805
0.53010886907577515 0.0016304693417623639 1.6878271708264947e-05
0.55928540229797363 0.00038141576806083322 0
0.58985167741775513 1.9768978745560162e-05 0
0.61823189258575439 0 0
0.64390099048614502 0 0
0.67030256986618042 0 0
0.69523131847381592 0 0
0.7216193675994873 0 0
0.74622452259063721 0 0
0.77172565460205078 0 0
0.79644006490707397 0 0
0.82071506977081299 0 0
0.83969873189926147 0 0
0.059481158852577209 0.092196330428123474 0.028801288455724716
0.071507424116134644 0.090614140033721924 0.027456231415271759
0.085960917174816132 0.088498540222644806 0.025939090177416801
0.10398239642381668 0.086311481893062592 0.024503761902451515
0.12352320551872253 0.084013737738132477 0.023281360045075417
0.14128784835338593 0.081910513341426849 0.022294407710433006
0.16236504912376404 0.079110711812973022 0.020967490971088409
0.18394061923027039 0.076223969459533691 0.019632758572697639
0.20807655155658722 0.073180034756660461 0.017825627699494362
0.2322908341884613 0.07000461220741272 0.016195153817534447
0.25892269611358643 0.066729798913002014 0.014361074194312096
0.28614768385887146 0.063047416508197784 0.01225577387958765
0.31084150075912476 0.059166621416807175 0.010711856186389923
0.33902144432067871 0.054453980177640915 0.0090386047959327698
0.36647015810012817 0.048860587179660797 0.0072827478870749474
0.39914295077323914 0.041986141353845596 0.0054876711219549179
0.4331001341342926 0.035827606916427612 0.0039358111098408699
0.47005227208137512 0.029009576886892319 0.0025796596892178059
0.50448668003082275 0.021755523979663849 0.0012484700419008732
0.53900653123855591 0.014773995615541935 0.00036332305171526968
0.56699854135513306 0.0090606464073061943 6.1370825278572738e-05
0.59463983774185181 0.0040619475767016411 8.4564248936658259e-07
0.61998581886291504 0.0014616133412346244 0
0.6436455249786377 0.00022863451158627868 0
0.66980808973312378 0 0
0.69452351331710815 0 0
0.7209210991859436 0 0
0.74559527635574341 0 0
0.7712407112121582 0 0
0.79622489213943481 0 0
0.82055115699768066 0 0
0.83946651220321655 0 0
0.076624475419521332 0.1146712526679039 0.037414565682411194
0.086109310388565063 0.11391311883926392 0.036214254796504974
0.097894378006458282 0.11204343289136887 0.034735307097434998
0.11166079342365265 0.10997487604618073 0.033189516514539719
0.12872985005378723 0.10808908939361572 0.031527720391750336
0.14650993049144745 0.10617440938949585 0.030042057856917381
0.16821621358394623 0.10356141626834869 0.02868594229221344
0.189236119389534 0.10096736997365952 0.027296761050820351
0.21373178064823151 0.097907088696956635 0.02526140958070755
0.23788623511791229 0.095146507024765015 0.023236162960529327
0.26484814286231995 0.091984130442142487 0.021352715790271759
0.29219838976860046 0.088582582771778107 0.018715357407927513
0.31719353795051575 0.085100188851356506 0.016364401206374168
0.3456585705280304 0.080413788557052612 0.014269303530454636
0.37339651584625244 0.075203202664852142 0.01205107569694519
0.40627452731132507 0.068929068744182587 0.0095269819721579552
0.44076389074325562 0.062562264502048492 0.0073135625571012497
0.47809526324272156 0.055216606706380844 0.0052329925820231438
0.51253044605255127 0.046997107565402985 0.0032694176770746708
0.54764354228973389 0.037794850766658783 0.0014602418523281813
0.57597321271896362 0.028562756255269051 0.00050769606605172157
0.60378676652908325 0.019355446100234985 4.5173419493949041e-05
0.62809860706329346 0.01166109461337328 0
0.64888858795166016 0.0050005335360765457 0
0.67111533880233765 0.0010293920058757067 0
0.69418740272521973 3.6523004382615909e-05 0
0.72050595283508301 0 0
0.74513334035873413 0 0
0.77082765102386475 0 0
0.79594272375106812 0 0
0.82046031951904297 0 0
0.83969908952713013 0 0
0.092532925307750702 0.13655363023281097 0.046456776559352875
0.10035555809736252 0.13533398509025574 0.045587677508592606
0.11033298075199127 0.13368973135948181 0.04426167905330658
0.12150692194700241 0.1321847140789032 0.042771067470312119
0.13479712605476379 0.13033992052078247 0.041267145425081253
0.15215368568897247 0.12845525145530701 0.039465032517910004
0.17382499575614929 0.12591750919818878 0.037685554474592209
0.19472736120223999 0.12366563826799393 0.036135356873273849
0.21913670003414154 0.12077327072620392 0.034083768725395203
0.24349376559257507 0.11804432421922684 0.031779628247022629
0.27047112584114075 0.11470554023981094 0.02944641001522541
0.29801222681999207 0.11160913109779358 0.026401378214359283
0.32320007681846619 0.10826960206031799 0.023601008579134941
0.35203814506530762 0.10369449108839035 0.020973052829504013
0.37993630766868591 0.098779723048210144 0.018376760184764862
0.41295000910758972 0.093191340565681458 0.015248906798660755
0.44760876893997192 0.087110862135887146 0.01216228399425745
0.48554253578186035 0.080346561968326569 0.0091892695054411888
0.52008610963821411 0.073030620813369751 0.0065215420909225941
0.5554012656211853 0.063816815614700317 0.0038581239059567451
0.58392691612243652 0.054292749613523483 0.0020256773568689823
0.61197727918624878 0.043691564351320267 0.00064232782460749149
0.63676267862319946 0.032693855464458466 0.0001055293541867286
0.65798503160476685 0.021914931014180183 2.6749917196866591e-06
0.67929470539093018 0.011727119795978069 0
0.69890803098678589 0.00473000667989254 0
0.72158277034759521 0.00098789448384195566 0
0.74506139755249023 3.9041828131303191e-05 0
0.77061009407043457 0 0
0.7957882285118103 0 0
0.82041090726852417 0 0
0.84018361568450928 0 0
0.109964519739151 0.1609489768743515 0.056579019874334335
0.11632709950208664 0.16005216538906097 0.055868476629257202
0.12466445565223694 0.15884526073932648 0.054764721542596817
0.13390375673770905 0.15741269290447235 0.053398832678794861
0.14492782950401306 0.15565298497676849 0.051840841770172119
0.1598002165555954 0.15379622578620911 0.050024624913930893
0.18024028837680817 0.15136486291885376 0.047960013151168823
0.20119079947471619 0.14893557131290436 0.046214576810598373
0.22585146129131317 0.14630289375782013 0.043970219790935516
0.2501552402973175 0.14361585676670074 0.041593145579099655
0.27716520428657532 0.1402587890625 0.039021138101816177
0.30483219027519226 0.13695430755615234 0.035817749798297882
0.33025956153869629 0.1337481290102005 0.032531864941120148
0.35930818319320679 0.12941722571849823 0.0292030218988657
0.38730451464653015 0.12503691017627716 0.026164883747696877
0.42062404751777649 0.11950088292360306 0.022536685690283775
0.45574074983596802 0.11373143643140793 0.018497029319405556
0.49394479393959045 0.10716457664966583 0.014636017382144928
0.52850311994552612 0.10062450170516968 0.011241594329476357
0.56380879878997803 0.092171043157577515 0.0076370779424905777
0.59262245893478394 0.083822779357433319 0.0049550365656614304
0.62087148427963257 0.073547787964344025 0.0025928125251084566
0.64617115259170532 0.06199902668595314 0.00087197171524167061
0.66776913404464722 0.049838453531265259 0.00017052877228707075
0.68959951400756836 0.035744335502386093 4.0539066503697541e-06
0.70938342809677124 0.022560186684131622 0
0.72949975728988647 0.010698090307414532 0
0.74814975261688232 0.0035643123555928469 0
0.77092820405960083 0.00062409118982031941 0
0.79551994800567627 6.4737187130958773e-06 0
0.82054704427719116 0 0
0.84050089120864868 0 0
0.12567701935768127 0.1856231689453125 0.065893076360225677
0.13103395700454712 0.18495766818523407 0.064850516617298126
0.13788270950317383 0.1837620735168457 0.064301036298274994
0.14630162715911865 0.18235099315643311 0.063325285911560059
0.15723821520805359 0.18073475360870361 0.061879191547632217
0.1702619194984436 0.17867256700992584 0.060050860047340393
0.1870870441198349 0.1764858216047287 0.058243755251169205
0.20809422433376312 0.17418187856674194 0.056384038180112839
0.23269830644130707 0.17151226103305817 0.054178811609745026
0.2573167085647583 0.16871450841426849 0.051577258855104446
0.2844167947769165 0.1651948094367981 0.048494882881641388
0.31202730536460876 0.16187295317649841 0.045420017093420029
0.33746105432510376 0.15829698741436005 0.04212714359164238
0.36665317416191101 0.1538330614566803 0.038619261234998703
0.39506244659423828 0.14952273666858673 0.034856792539358139
0.42855280637741089 0.14419455826282501 0.030554661527276039
0.46389055252075195 0.13858364522457123 0.025862989947199821
0.50225704908370972 0.13195820152759552 0.021143218502402306
0.53683924674987793 0.12593428790569305 0.016889624297618866
0.57201999425888062 0.11768391728401184 0.012606862932443619
0.60075634717941284 0.10974757373332977 0.0091805662959814072
0.6291767954826355 0.10043875128030777 0.0059487149119377136
0.65471911430358887 0.089533112943172455 0.0031349416822195053
0.67656171321868896 0.078353069722652435 0.0013017538003623486
0.69872331619262695 0.064775697886943817 0.00026958386297337711
0.71917730569839478 0.050519935786724091 1.0530838153499644e-05
0.7397884726524353 0.034787952899932861 0
0.75822943449020386 0.020720122382044792 0
0.77674543857574463 0.0086425654590129852 0
0.79692262411117554 0.0016614756314083934 0
0.82080161571502686 4.0186750993598253e-05 0
0.84094887971878052 0 0
0.13321903347969055 0.21508710086345673 0.074092403054237366
0.13813111186027527 0.21427203714847565 0.073773212730884552
0.14522241055965424 0.21313412487506866 0.073112912476062775
0.15443170070648193 0.21179834008216858 0.072205044329166412
0.16627393662929535 0.21017171442508698 0.070849582552909851
0.17909325659275055 0.20820173621177673 0.069669626653194427
0.19532005488872528 0.20612846314907074 0.0680571049451828
0.21645691990852356 0.20382669568061829 0.066290296614170074
0.24093709886074066 0.20115409791469574 0.064282521605491638
0.26575493812561035 0.19827912747859955 0.061754833906888962
0.29281580448150635 0.19491200149059296 0.058679737150669098
0.32047754526138306 0.19106049835681915 0.055620428174734116
0.34614819288253784 0.1871023029088974 0.052700374275445938
0.37557193636894226 0.18257632851600647 0.048964519053697586
0.40406182408332825 0.1782822459936142 0.04484659805893898
0.43796509504318237 0.17268182337284088 0.039926901459693909
0.47352427244186401 0.16682551801204681 0.034927535802125931
0.51213157176971436 0.16055399179458618 0.029230270534753799
0.54657149314880371 0.15420272946357727 0.024043094366788864
0.58155244588851929 0.14611329138278961 0.018979275599122047
0.61001956462860107 0.13829004764556885 0.014667993411421776
0.63847637176513672 0.12901979684829712 0.010451741516590118
0.66402685642242432 0.11906146258115768 0.0069124810397624969
0.68607908487319946 0.10906390100717545 0.0040107769891619682
0.70866203308105469 0.096193753182888031 0.0016666998853906989
0.72954154014587402 0.083303242921829224 0.00030964257894083858
0.75060808658599854 0.066931217908859253 1.5684272511862218e-05
0.76961433887481689 0.049975529313087463 0
0.78843539953231812 0.031175078824162483 0
0.80548620223999023 0.013017270714044571 0
0.82322978973388672 0.0021473262459039688 0
0.84133034944534302 5.867723302799277e-05 0
0.13201335072517395 0.2452070564031601 0.08312041312456131
0.13719737529754639 0.24453212320804596 0.082676693797111511
0.14487479627132416 0.24375174939632416 0.081841804087162018
0.15519489347934723 0.24229280650615692 0.080961346626281738
0.16776667535305023 0.24067646265029907 0.079858377575874329
0.18245285749435425 0.23921725153923035 0.07857484370470047
0.2026774138212204 0.2368929535150528 0.076801195740699768
0.22479549050331116 0.23490439355373383 0.074971787631511688
0.24977196753025055 0.23237472772598267 0.072732485830783844
0.27446982264518738 0.22948865592479706 0.070380844175815582
0.30162757635116577 0.22610478103160858 0.067400708794593811
0.32938414812088013 0.22218605875968933 0.064170554280281067
0.35523173213005066 0.21820394694805145 0.061331477016210556
0.38506108522415161 0.2137070894241333 0.057655781507492065
0.41391068696975708 0.20905520021915436 0.053862698376178741
0.44824594259262085 0.20341473817825317 0.048841744661331177
0.48407989740371704 0.19731786847114563 0.043541159480810165
0.52257609367370605 0.19075955450534821 0.037785541266202927
0.55679565668106079 0.18385572731494904 0.032024286687374115
0.59156930446624756 0.17563898861408234 0.026296079158782959
0.61975491046905518 0.16743133962154388 0.021236738190054893
0.648032546043396 0.15818694233894348 0.016130080446600914
0.67348670959472656 0.14827351272106171 0.01156123448163271
0.69570577144622803 0.13856406509876251 0.0078899990767240524
0.7184872031211853 0.12630860507488251 0.0044953813776373863
0.73950570821762085 0.11401768773794174 0.0017958119278773665
0.76078766584396362 0.099834725260734558 0.00038300009327940643
0.78053379058837891 0.083623833954334259 5.2395321290532593e-06
0.80003458261489868 0.064015798270702362 0
0.81778985261917114 0.040866699069738388 0
0.83334815502166748 0.018343083560466766 0
0.84550780057907104 0.0049653565511107445 0
0.1330866813659668 0.27944913506507874 0.092689096927642822
0.1378333568572998 0.27841866016387939 0.092344030737876892
0.14567701518535614 0.27720069885253906 0.091728359460830688
0.15708193182945251 0.27675679326057434 0.09089767187833786
0.17205439507961273 0.27559170126914978 0.090085387229919434
0.19018971920013428 0.2732769250869751 0.088830217719078064
0.21195274591445923 0.27236929535865784 0.087198980152606964
0.23434065282344818 0.26951685547828674 0.085146673023700714
0.2600359320640564 0.26767641305923462 0.082617573440074921
0.28472918272018433 0.26483041048049927 0.080439597368240356
0.31179946660995483 0.26163402199745178 0.077860027551651001
0.3395237922668457 0.25831776857376099 0.074740201234817505
0.36567166447639465 0.25453859567642212 0.071741454303264618
0.39612710475921631 0.25003349781036377 0.067619241774082184
0.42552751302719116 0.24547103047370911 0.063592664897441864
0.46057859063148499 0.23965340852737427 0.05864584818482399
0.49668377637863159 0.23366101086139679 0.053207859396934509
0.53525596857070923 0.22703590989112854 0.046729627996683121
0.56939411163330078 0.21962249279022217 0.040928393602371216
0.60356444120407104 0.21073761582374573 0.034681245684623718
0.63155883550643921 0.20253407955169678 0.028959149494767189
0.65940076112747192 0.19307994842529297 0.023229710757732391
0.68452572822570801 0.18245686590671539 0.017771502956748009
0.70672750473022461 0.17224025726318359 0.013227184303104877
0.72949939966201782 0.16014130413532257 0.0088188545778393745
0.75054484605789185 0.14805744588375092 0.0050868215039372444
0.7722199559211731 0.13401862978935242 0.0019838318694382906
0.79230737686157227 0.11978726834058762 0.00022649588936474174
0.8123822808265686 0.10140632092952728 3.3825701848400058e-06
0.8308403491973877 0.079668514430522919 0
0.84719544649124146 0.05352276936173439 0
0.85831755399703979 0.028670046478509903 0
0.13391982018947601 0.31356915831565857 0.10017998516559601
0.14108407497406006 0.31350737810134888 0.099634580314159393
0.15098772943019867 0.31350052356719971 0.099155515432357788
0.16419774293899536 0.3122742772102356 0.098498106002807617
0.1810394823551178 0.30983033776283264 0.097712375223636627
0.1999402791261673 0.30958095192909241 0.096552766859531403
0.22170524299144745 0.30771616101264954 0.094981499016284943
0.24481652677059174 0.30567672848701477 0.093274854123592377
0.27042251825332642 0.30345126986503601 0.090995170176029205
0.2953924834728241 0.30139735341072083 0.088671378791332245
0.3225141167640686 0.2980530858039856 0.086137942969799042
0.3504798412322998 0.29527989029884338 0.083312131464481354
0.37677273154258728 0.2922857403755188 0.080471150577068329
0.40756469964981079 0.28793403506278992 0.076742053031921387
0.43791747093200684 0.28362768888473511 0.072922170162200928
0.47347423434257507 0.27849963307380676 0.068394578993320465
0.51040208339691162 0.27252280712127686 0.063143432140350342
0.54917597770690918 0.2659912109375 0.056945297867059708
0.58313542604446411 0.25893652439117432 0.051200460642576218
0.61688262224197388 0.25051990151405334 0.044566404074430466
0.64464497566223145 0.2423250675201416 0.038319379091262817
0.67225944995880127 0.23211480677127838 0.031750824302434921
0.69723445177078247 0.22184258699417114 0.02518809586763382
0.71931082010269165 0.21086101233959198 0.019631613045930862
0.74186527729034424 0.19786180555820465 0.014162987470626831
0.7627943754196167 0.18531842529773712 0.0094328578561544418
0.78451251983642578 0.17058682441711426 0.0051200678572058678
0.80467826128005981 0.15636855363845825 0.0017186839831992984
0.82485479116439819 0.13892218470573425 0.00015433997032232583
0.84350931644439697 0.11913122236728668 0
0.86089837551116943 0.095021612942218781 0
0.87295317649841309 0.070327341556549072 0
0.14154157042503357 0.34675589203834534 0.10675906389951706
0.14879898726940155 0.34671029448509216 0.10619473457336426
0.15928924083709717 0.3467070460319519 0.10595105588436127
0.17319829761981964 0.34513425827026367 0.10525213927030563
0.1901346743106842 0.34306377172470093 0.10438140481710434
0.20857608318328857 0.34288856387138367 0.10318455845117569
0.23108462989330292 0.34175199270248413 0.10183485597372055
0.25420847535133362 0.33929041028022766 0.10024362802505493
0.27993255853652954 0.3378395140171051 0.098253063857555389
0.30482363700866699 0.33522209525108337 0.096181415021419525
0.33213004469871521 0.33263468742370605 0.093647278845310211
0.36032965779304504 0.32972607016563416 0.090693406760692596
0.38715335726737976 0.32682141661643982 0.087603546679019928
0.41849583387374878 0.32305043935775757 0.083970673382282257
0.44941011071205139 0.3190438449382782 0.080229610204696655
0.48584321141242981 0.31377455592155457 0.075387872755527496
0.52332496643066406 0.30853533744812012 0.070124894380569458
0.56234157085418701 0.30215474963188171 0.064425237476825714
0.59584885835647583 0.29588255286216736 0.059200182557106018
0.62958443164825439 0.28814151883125305 0.052774336189031601
0.65716671943664551 0.28027710318565369 0.046860948204994202
0.68460720777511597 0.27073171734809875 0.040690392255783081
0.70963585376739502 0.26046502590179443 0.033597193658351898
0.73176556825637817 0.24972207844257355 0.026979025453329086
0.75437325239181519 0.23664630949497223 0.020216351374983788
0.7752830982208252 0.22348363697528839 0.014277406968176365
0.79691308736801147 0.20836378633975983 0.0087388874962925911
0.81689035892486572 0.19250144064426422 0.0044398144818842411
0.83701187372207642 0.17465704679489136 0.0010222544660791755
0.85580688714981079 0.15535032749176025 1.9013134078704752e-05
0.8733336329460144 0.13229060173034668 0
0.886086106300354 0.10977663099765778 0
0.15707746148109436 0.3857128918170929 0.11286965757608414
0.16365526616573334 0.38544419407844543 0.11234639585018158
0.17274151742458344 0.38496717810630798 0.1118372455239296
0.18507121503353119 0.38440737128257751 0.11109122633934021
0.20060159265995026 0.38332372903823853 0.11008924245834351
0.21944575011730194 0.38215363025665283 0.10908652096986771
0.24187420308589935 0.3811022937297821 0.10765381902456284
0.2651573121547699 0.37941744923591614 0.10601061582565308
0.29107666015625 0.37761348485946655 0.1041666641831398
0.31588488817214966 0.37537726759910583 0.10207986086606979
0.34327846765518188 0.37309375405311584 0.09959450364112854
0.37192147970199585 0.37019503116607666 0.09697674959897995
0.39922016859054565 0.36727422475814819 0.094106137752532959
0.43152198195457458 0.36358177661895752 0.090774118900299072
0.46323543787002563 0.3597838282585144 0.087195463478565216
0.50062382221221924 0.35502269864082336 0.082470729947090149
0.53830897808074951 0.35014298558235168 0.077330194413661957
0.57728981971740723 0.34431084990501404 0.071947090327739716
0.61056846380233765 0.33836811780929565 0.066867426037788391
