LUTs/Kodak Elite ExtraColor 100.cube
# Created by: G'MIC (https://gmic.eu)
TITLE "Kodak Elite ExtraColor 100"
# LUT size
LUT_3D_SIZE 5
# Data domain
# LUT data points
DOMAIN_MIN 0.000000 0.000000 0.000000
DOMAIN_MAX 0.903226 0.903226 0.903226
0.013210957869887352 0.012682764790952206 0.010956361889839172
0.16224533319473267 0.0037924426142126322 0.00521067064255476
0.34512367844581604 9.6407653472851962e-05 0.00056040752679109573
0.59238272905349731 0 0
0.77356952428817749 0 0
0.12567701935768127 0.1856231689453125 0.065893076360225677
0.20809422433376312 0.17418187856674194 0.056384038180112839
0.39506244659423828 0.14952273666858673 0.034856792539358139
0.6291767954826355 0.10043875128030777 0.0059487149119377136
0.77674543857574463 0.0086425654590129852 0
0.16431614756584167 0.42490941286087036 0.11675416678190231
0.27562224864959717 0.41894811391830444 0.11047700047492981
0.4767700731754303 0.40024790167808533 0.092252515256404877
0.71191787719726562 0.35834440588951111 0.055565971881151199
0.86751759052276611 0.26998224854469299 0.0068713254295289516
0.24494773149490356 0.73889851570129395 0.088470570743083954
0.35727915167808533 0.73747766017913818 0.085282228887081146
0.59045308828353882 0.73082244396209717 0.074208743870258331
0.81186455488204956 0.7143896222114563 0.055035863071680069
0.9843783974647522 0.67075866460800171 0.023212343454360962
0.40526959300041199 0.97902536392211914 0
0.50521266460418701 0.97907346487045288 0
0.70689696073532104 0.97900974750518799 0
0.89058423042297363 0.97384631633758545 0
1 0.9588320255279541 0
0.0021614418365061283 0.016653692349791527 0.15051476657390594
0.12945464253425598 0.005923206452280283 0.13421221077442169
0.31738802790641785 0.00034826877526938915 0.11217679083347321
0.5678870677947998 0 0.07868996262550354
0.75310903787612915 0 0.03921932727098465
0.10294535011053085 0.18959501385688782 0.18602459132671356
0.17932356894016266 0.17727209627628326 0.17754557728767395
0.37367746233940125 0.15198062360286713 0.15696743130683899
0.61378556489944458 0.10117577761411667 0.11703392118215561
0.76313292980194092 0.0094859488308429718 0.057045836001634598
0.1234404444694519 0.42924267053604126 0.22292502224445343
0.24081982672214508 0.42332291603088379 0.2164347916841507
0.45563098788261414 0.40432062745094299 0.19735130667686462
0.69738203287124634 0.36205771565437317 0.16380773484706879
0.85536503791809082 0.27376025915145874 0.11334976553916931
0.18373951315879822 0.73497694730758667 0.21936953067779541
0.31750810146331787 0.73475056886672974 0.21308091282844543
0.56627345085144043 0.7272154688835144 0.19206561148166656
0.79371994733810425 0.71143168210983276 0.15616890788078308
0.96878111362457275 0.66842508316040039 0.11488496512174606
0.37310498952865601 0.97788465023040771 0.049577102065086365
0.4806675910949707 0.97804379463195801 0.039156001061201096
0.69282817840576172 0.97824233770370483 0.016061563044786453
0.88389664888381958 0.97539997100830078 0.0014388898853212595
1 0.9639551043510437 0
0 0.018545182421803474 0.30897575616836548
0.092989683151245117 0.0089948894456028938 0.29656365513801575
0.28598344326019287 0.00074477371526882052 0.27722418308258057
0.53669089078903198 0 0.24489948153495789
0.72541999816894531 0 0.211979940533638
0.063749849796295166 0.19443082809448242 0.36181321740150452
0.141471266746521 0.18217740952968597 0.35578569769859314
0.33729785680770874 0.15450167655944824 0.33909258246421814
0.58665311336517334 0.10111921280622482 0.30544942617416382
0.74043333530426025 0.0094172302633523941 0.25472366809844971
0.029004611074924469 0.43446588516235352 0.42659980058670044
0.16014908254146576 0.42791485786437988 0.42249295115470886
0.40853035449981689 0.40848180651664734 0.4084526002407074
0.66487991809844971 0.36594712734222412 0.37988975644111633
0.82829940319061279 0.27748584747314453 0.33511102199554443
0.0083541739732027054 0.72425389289855957 0.4762168824672699
0.20027002692222595 0.72301489114761353 0.47267106175422668
0.50297743082046509 0.71677285432815552 0.459716796875
0.74986016750335693 0.70148062705993652 0.43783825635910034
0.93183130025863647 0.66101264953613281 0.40034753084182739
0.2206689864397049 0.95687317848205566 0.43234270811080933
0.37257677316665649 0.95735061168670654 0.42784249782562256
0.62286609411239624 0.95749884843826294 0.4143640398979187
0.83065289258956909 0.95474261045455933 0.39301243424415588
0.99918591976165771 0.94367855787277222 0.35031089186668396
0 0.023054348304867744 0.5152050256729126
0.034004505723714828 0.01183326356112957 0.50808471441268921
0.23735721409320831 0.0023050217423588037 0.49358981847763062
0.49334514141082764 0 0.46504136919975281
0.68257248401641846 0 0.44084614515304565
0.010861523449420929 0.20544731616973877 0.58670699596405029
0.084773734211921692 0.19386683404445648 0.58220738172531128
0.27874168753623962 0.16611635684967041 0.56861317157745361
0.54606115818023682 0.10853006690740585 0.54063302278518677
0.70791429281234741 0.013309075497090816 0.50281494855880737
0 0.44665512442588806 0.6610533595085144
0.027726311236619949 0.44066160917282104 0.65752613544464111
0.33302465081214905 0.42170345783233643 0.64504247903823853
0.62091481685638428 0.37887468934059143 0.62105417251586914
0.79451268911361694 0.29050442576408386 0.58775186538696289
0 0.71565556526184082 0.72564315795898438
0.0012361620320007205 0.71459561586380005 0.72221308946609497
0.40781134366989136 0.70926344394683838 0.71168339252471924
0.69522136449813843 0.69551599025726318 0.69511276483535767
0.88904523849487305 0.65707969665527344 0.67177784442901611
0 0.93305200338363647 0.74954509735107422
0.13371872901916504 0.93339353799819946 0.74647235870361328
0.51719772815704346 0.93405449390411377 0.73706626892089844
0.76113212108612061 0.93151980638504028 0.72453051805496216
0.95773237943649292 0.91997754573822021 0.70477509498596191
0 0.047064043581485748 0.68244761228561401
0.0011315062874928117 0.030466619879007339 0.67738050222396851
0.1859753429889679 0.013222002424299717 0.66425734758377075
0.46251890063285828 1.0018850844062399e-05 0.63649636507034302
0.64594841003417969 0 0.61073940992355347
0 0.23796761035919189 0.75198763608932495
0.020173612982034683 0.22856812179088593 0.74740886688232422
0.20837210118770599 0.20384067296981812 0.73481565713882446
0.51338875293731689 0.14778801798820496 0.70877796411514282
0.68982541561126709 0.039493735879659653 0.67574042081832886
0 0.48184889554977417 0.82771927118301392
0 0.4766635000705719 0.82433325052261353
0.21929146349430084 0.459675133228302 0.81270700693130493
0.57843577861785889 0.41933873295783997 0.79038709402084351
0.77345764636993408 0.3322872519493103 0.76214182376861572
0 0.7226523756980896 0.89818012714385986
0 0.72154265642166138 0.8951117992401123
0.2486250251531601 0.71748989820480347 0.88513195514678955
0.63753896951675415 0.70581740140914917 0.86964559555053711
0.85542780160903931 0.67196846008300781 0.85205763578414917
0 0.92291778326034546 0.94972389936447144
0 0.92364770174026489 0.94674527645111084
0.34059560298919678 0.92501288652420044 0.93815964460372925
0.68988281488418579 0.92347848415374756 0.92681306600570679
0.91465604305267334 0.91443330049514771 0.91431140899658203
