LUTs/Kodak Portra 160 2.cube
# Created by: G'MIC (https://gmic.eu)
TITLE "Kodak Portra 160 2"
# LUT size
LUT_3D_SIZE 32
# Data domain
DOMAIN_MIN 0.0 0.0 0.0
DOMAIN_MAX 1.0 1.0 1.0
# LUT data points
0.0096041169017553329 0.013229787349700928 0.010767725296318531
0.016441186890006065 0.013563567772507668 0.010641920380294323
0.029434369876980782 0.014255362562835217 0.010863984003663063
0.049322750419378281 0.014772758819162846 0.010554954409599304
0.072850935161113739 0.016108749434351921 0.010345704853534698
0.098955295979976654 0.017596310004591942 0.0099074002355337143
0.13165207207202911 0.018107740208506584 0.0095813730731606483
0.16719509661197662 0.015771485865116119 0.0085040377452969551
0.20924422144889832 0.010646750219166279 0.0069948635064065456
0.25315088033676147 0.0043001300655305386 0.0051653780974447727
0.30379372835159302 0.00036574082332663238 0.0031260703690350056
0.35711559653282166 1.8964636865348439e-06 0.0011151314247399569
0.40675061941146851 0 0.00028900592587888241
0.46185213327407837 0 1.7852515156846493e-05
0.51073658466339111 0 0
0.56180667877197266 0 0
0.60798144340515137 0 0
0.65190482139587402 0 0
0.69010502099990845 0 0
0.72823697328567505 0 0
0.75936287641525269 0 0
0.79085338115692139 0 0
0.81937360763549805 0 0
0.84441834688186646 0 0
0.8702545166015625 0 0
0.89406973123550415 2.7210933694732375e-05 0
0.91865944862365723 0.0052598374895751476 0
0.9414825439453125 0.034432690590620041 0
0.96539992094039917 0.074727140367031097 0
0.98874545097351074 0.10622896254062653 0
0.99961888790130615 0.13290973007678986 0
0.99998986721038818 0.15510886907577515 0
0.0097178136929869652 0.02091190405189991 0.0111422473564744
0.015566433779895306 0.021533478051424026 0.011072723194956779
0.029215920716524124 0.023373255506157875 0.010581331327557564
0.050908617675304413 0.025520779192447662 0.0095825241878628731
0.07549489289522171 0.028438355773687363 0.0092922253534197807
0.10204723477363586 0.029700718820095062 0.0085639329627156258
0.13498874008655548 0.030239272862672806 0.0078216362744569778
0.17127364873886108 0.028880702331662178 0.0066955867223441601
0.21399667859077454 0.024962713941931725 0.0054517672397196293
0.25774884223937988 0.017884571105241776 0.0035599265247583389
0.30786356329917908 0.007656903937458992 0.0014899242669343948
0.36163455247879028 0.0016750080976635218 0.00042071775533258915
0.4105241596698761 0.00014506433217320591 8.9846929768100381e-05
0.46509668231010437 8.1047170397141599e-07 1.3374958598433295e-06
0.51323294639587402 0 0
0.56378668546676636 0 0
0.60967451333999634 0 0
0.65348708629608154 0 0
0.69126564264297485 0 0
0.72903311252593994 0 0
0.76016831398010254 0 0
0.7912060022354126 0 0
0.81946432590484619 0 0
0.84479755163192749 1.1154879757668823e-06 0
0.87056505680084229 0.00031555505120195448 0
0.8941572904586792 0.0045838681980967522 0
0.91831016540527344 0.030058931559324265 0
0.94158244132995605 0.066879324615001678 0
0.96545249223709106 0.097593456506729126 0
0.98858511447906494 0.12327636033296585 0
0.99956685304641724 0.14711937308311462 0
0.9999890923500061 0.16723020374774933 0
0.0098565947264432907 0.034456543624401093 0.011820518411695957
0.015857681632041931 0.035204049199819565 0.012087631970643997
0.026629641652107239 0.037497159093618393 0.011473728343844414
0.047026902437210083 0.042105305939912796 0.0098778121173381805
0.075007222592830658 0.046655017882585526 0.0076711028814315796
0.10658471286296844 0.049081958830356598 0.0062196189537644386
0.14223021268844604 0.050723150372505188 0.0051737860776484013
0.17888988554477692 0.050530452281236649 0.0040356842800974846
0.2216133326292038 0.048347130417823792 0.0025267121382057667
0.26524582505226135 0.043606162071228027 0.0013459832407534122
0.31511107087135315 0.035319775342941284 0.00038727218634448946
0.36812037229537964 0.023122265934944153 5.1578186685219407e-05
0.41707876324653625 0.011746305972337723 1.0228247901977738e-06
0.47077235579490662 0.0034139810595661402 0
0.51858681440353394 0.00064675573958083987 0
0.56834882497787476 2.3590913770021871e-05 0
0.61323755979537964 0 0
0.65711802244186401 0 0
0.69466131925582886 0 0
0.73146462440490723 0 0
0.76169043779373169 0 0
0.79253286123275757 4.9277383368462324e-05 0
0.82085669040679932 0.0011664689518511295 0
0.8459315299987793 0.0056086503900587559 0
0.87134575843811035 0.021069537848234177 0
0.89487862586975098 0.04633045569062233 0
0.91894018650054932 0.076756194233894348 0
0.94177943468093872 0.10216177254915237 0
0.96553969383239746 0.12515977025032043 0
0.98871868848800659 0.14622282981872559 0
0.99961823225021362 0.16651761531829834 0
0.99999642372131348 0.1844819039106369 0
0.010571056976914406 0.054568536579608917 0.012151452712714672
0.017268238589167595 0.054785434156656265 0.01226714625954628
0.027258463203907013 0.056317884474992752 0.011530104093253613
0.042685087770223618 0.059808366000652313 0.01060953363776207
0.06791851669549942 0.066408537328243256 0.0083001507446169853
0.10259122401475906 0.072943359613418579 0.0054306695237755775
0.14459891617298126 0.076885789632797241 0.0025194073095917702
0.18619400262832642 0.078190475702285767 0.0011920866090804338
0.2309517115354538 0.077889963984489441 0.00044926165719516575
0.27481365203857422 0.076206855475902557 0.0001644768490223214
0.32488277554512024 0.07222197949886322 4.1105911805061623e-05
0.37728089094161987 0.065121352672576904 2.6462283031492007e-08
0.42561376094818115 0.056312531232833862 0
0.47860023379325867 0.043419960886240005 0
0.52590930461883545 0.031406000256538391 0
0.57450032234191895 0.021399196237325668 0
0.61915242671966553 0.015630370005965233 0
0.66293191909790039 0.01309098768979311 0
0.69895058870315552 0.013116896152496338 0
0.73493260145187378 0.015167893841862679 0
0.76481097936630249 0.019672410562634468 0
0.79514527320861816 0.027916477993130684 0
0.82271194458007812 0.041285406798124313 0
0.84743255376815796 0.059265371412038803 0
0.87281239032745361 0.081337578594684601 0
0.89598006010055542 0.10107100009918213 0
0.92025130987167358 0.12062682211399078 0
0.94315075874328613 0.1384754478931427 0
0.9667699933052063 0.15633523464202881 0
0.98952370882034302 0.17335596680641174 0
0.99972432851791382 0.19079098105430603 0
1 0.20628130435943604 0
0.0084315109997987747 0.077586926519870758 0.011577258817851543
0.014902209863066673 0.077519424259662628 0.011850605718791485
0.025135274976491928 0.078666955232620239 0.011461181566119194
0.040261950343847275 0.08156101405620575 0.010539086535573006
0.061021361500024796 0.085517451167106628 0.0086946152150630951
0.091585934162139893 0.094239868223667145 0.0056676003150641918
0.13490690290927887 0.10438235104084015 0.0016068372642621398
0.18195109069347382 0.10959465056657791 0.00018144433852285147
0.23540624976158142 0.11221275478601456 1.657145367062185e-05
0.28450411558151245 0.11265253275632858 3.6714817497340846e-07
0.33548471331596375 0.11155633628368378 0
0.38740167021751404 0.10865985602140427 0
0.43491071462631226 0.10507172346115112 0
0.4871496856212616 0.09959016740322113 0
0.53318744897842407 0.093592427670955658 0
0.58068454265594482 0.087074995040893555 0
0.62530350685119629 0.082423664629459381 0
0.66755414009094238 0.080067403614521027 0
0.70242679119110107 0.080928944051265717 0
0.73757946491241455 0.085291266441345215 0
0.76643127202987671 0.091280497610569 0
0.7960161566734314 0.10008640587329865 0
0.82346796989440918 0.11019618064165115 0
0.8480263352394104 0.12118635326623917 0
0.87302863597869873 0.13409657776355743 0
0.89627254009246826 0.14686106145381927 0
0.92011314630508423 0.16070012748241425 0
0.94295203685760498 0.17415347695350647 0
0.96642535924911499 0.18812838196754456 0
0.98915708065032959 0.20180085301399231 0
0.99966341257095337 0.21635231375694275 0
1 0.2299400120973587 0
0.0022016756702214479 0.10592077672481537 0.010128693655133247
0.0076923179440200329 0.10515747964382172 0.010263051837682724
0.019258873537182808 0.1050729975104332 0.01020523626357317
0.03606940433382988 0.10753881186246872 0.0091862259432673454
0.05884944275021553 0.11119470000267029 0.0073747145943343639
0.085429459810256958 0.1165904775261879 0.0051557617262005806
0.12321019172668457 0.12709774076938629 0.0016520990757271647
0.17076125741004944 0.13898476958274841 0.00011137346882605925
0.22632363438606262 0.1467755138874054 0
0.28180813789367676 0.15040665864944458 0
0.34176719188690186 0.15173645317554474 0
0.39777371287345886 0.15093062818050385 0
0.44544976949691772 0.14974571764469147 0
0.49657320976257324 0.14723651111125946 0
0.54195374250411987 0.14483815431594849 0
0.5896638035774231 0.14268942177295685 0
0.63302171230316162 0.14154662191867828 0
0.67353272438049316 0.14159129559993744 0
0.70710128545761108 0.14279870688915253 0
0.74117684364318848 0.14592859148979187 0
0.76949781179428101 0.15024393796920776 0
0.79819577932357788 0.15552948415279388 0
0.82517784833908081 0.162336066365242 0
0.84936785697937012 0.1698908805847168 0
0.87444025278091431 0.17895227670669556 0
0.89724612236022949 0.18824617564678192 0
0.9210820198059082 0.19881939888000488 0
0.94358819723129272 0.20932789146900177 0
0.96704185009002686 0.2206149697303772 0
0.98983144760131836 0.23201429843902588 0
0.99974477291107178 0.24422797560691833 0
0.99997460842132568 0.25594422221183777 0
1.2098117622372229e-05 0.13806597888469696 0.0072676981799304485
0.00073666294338181615 0.13747577369213104 0.0073095215484499931
0.0094083976000547409 0.13640545308589935 0.0077739953994750977
0.028334574773907661 0.13739404082298279 0.0068917674943804741
0.054510723799467087 0.14140139520168304 0.0048400280065834522
0.082834608852863312 0.14609546959400177 0.0031035980209708214
0.1154734343290329 0.15220296382904053 0.0010948757408186793
0.15610069036483765 0.16370512545108795 0.00015295065531972796
0.21239133179187775 0.17993569374084473 0
0.26913076639175415 0.18875238299369812 0
0.33323147892951965 0.19485625624656677 0
0.3991331160068512 0.1977042555809021 0
0.45486894249916077 0.19806089997291565 0
0.50831443071365356 0.19762663543224335 0
0.55411243438720703 0.19742047786712646 0
0.60060685873031616 0.19696402549743652 0
0.64121752977371216 0.19671203196048737 0
0.67974853515625 0.19732467830181122 0
0.71194887161254883 0.19826282560825348 0
0.74470639228820801 0.20041826367378235 0
0.77220326662063599 0.2034454345703125 0
0.80027300119400024 0.20691834390163422 0
0.82668107748031616 0.21141724288463593 0
0.85046118497848511 0.21679665148258209 0
0.87505990266799927 0.22329215705394745 0
0.89784747362136841 0.23020252585411072 0
0.92139953374862671 0.23821677267551422 0
0.94413256645202637 0.24663195013999939 0
0.9675866961479187 0.25579923391342163 0
0.99013698101043701 0.26491975784301758 0
0.9997180700302124 0.27471923828125 0
0.99999904632568359 0.28495180606842041 0
0 0.17186802625656128 0.0031324953306466341
4.8331598918593954e-06 0.17135195434093475 0.0030594312120229006
0.0019746541511267424 0.16947813332080841 0.0033062945585697889
0.017642142251133919 0.16893038153648376 0.0032254953403025866
0.047231622040271759 0.17241470515727997 0.0019292519427835941
0.079058580100536346 0.17701925337314606 0.00069400854408740997
0.1137186735868454 0.18338795006275177 0.00016226607840508223
0.14953432977199554 0.19043280184268951 1.8372686099610291e-05
0.1964791864156723 0.20328086614608765 0
0.25409403443336487 0.22021128237247467 0
0.31944906711578369 0.23265798389911652 0
0.38654226064682007 0.24028460681438446 0
0.44817152619361877 0.24482671916484833 0
0.51260173320770264 0.24723184108734131 0
0.56296449899673462 0.24706722795963287 0
0.60892307758331299 0.24686329066753387 0
0.6479332447052002 0.24655218422412872 0
0.68478667736053467 0.24669653177261353 0
0.71575117111206055 0.24718229472637177 0
0.74749511480331421 0.24855318665504456 0
0.77418923377990723 0.25019586086273193 0
0.80198949575424194 0.25233930349349976 0
0.82795339822769165 0.25528404116630554 0
0.85111194849014282 0.2591322660446167 0
0.87547010183334351 0.2639707624912262 0
0.89823466539382935 0.2692563533782959 0
0.92181384563446045 0.27544295787811279 0
0.94414436817169189 0.2820187509059906 0
0.96752017736434937 0.28901934623718262 0
0.99005192518234253 0.29646921157836914 0
0.99974477291107178 0.30451759696006775 0
0.99997496604919434 0.31257763504981995 0
0 0.21129763126373291 0.00015787586744409055
0 0.21091105043888092 0.00019261252600699663
2.070472328341566e-05 0.20877349376678467 0.00018626933160703629
0.0066170506179332733 0.20668978989124298 0.00024070113431662321
0.036295250058174133 0.20817311108112335 0.00012131997937103733
0.073723249137401581 0.21290470659732819 2.2777878257329576e-05
0.11169714480638504 0.21870942413806915 1.1576928500289796e-06
0.14847610890865326 0.22550702095031738 0
0.18981893360614777 0.23346814513206482 0
0.2371889054775238 0.24666306376457214 0
0.30424255132675171 0.26919218897819519 0
0.37343797087669373 0.28323683142662048 0
0.43524283170700073 0.29157546162605286 0
0.50109171867370605 0.29741844534873962 0
0.55750459432601929 0.299620121717453 0
0.61214476823806763 0.29998746514320374 0
0.6545444130897522 0.29914429783821106 0
0.69057548046112061 0.2986188530921936 0
0.72048062086105347 0.29833289980888367 0
0.75129306316375732 0.29868361353874207 0
0.77734851837158203 0.29951679706573486 0
0.80420446395874023 0.29986074566841125 0
0.82963383197784424 0.30147188901901245 0
0.8525165319442749 0.30387896299362183 0
0.87671303749084473 0.30705806612968445 0
0.89902770519256592 0.31067332625389099 0
0.92259973287582397 0.31520551443099976 0
0.94501680135726929 0.3199772834777832 0
0.96832650899887085 0.32546856999397278 0
0.99080705642700195 0.33148050308227539 0
0.99983632564544678 0.33776086568832397 0
0.99999874830245972 0.34449025988578796 0
0 0.24848373234272003 0
0 0.24834276735782623 0
0 0.2466585636138916 0
0.0013802197063341737 0.24398049712181091 3.6241823409000062e-07
0.022336410358548164 0.24289442598819733 8.2493289710328099e-07
0.065605275332927704 0.24695342779159546 0
0.10833238065242767 0.25329095125198364 0
0.14742401242256165 0.26060953736305237 0
0.19030585885047913 0.26938885450363159 0
0.23348164558410645 0.27874425053596497 0
0.28802898526191711 0.29357635974884033 0
0.3579787015914917 0.31657671928405762 0
0.42118412256240845 0.33072578907012939 0
0.48689460754394531 0.33958405256271362 0
0.54320812225341797 0.34442806243896484 0
0.59932345151901245 0.34679710865020752 0
0.64823281764984131 0.34696665406227112 0
0.69130510091781616 0.34600156545639038 0
0.7233126163482666 0.34511286020278931 0
0.75363451242446899 0.34407526254653931 0
0.77871012687683105 0.3432064950466156 0
0.80488628149032593 0.34268084168434143 0
0.83032876253128052 0.34314268827438354 0
0.85295188426971436 0.34408459067344666 0
0.87720102071762085 0.3460976779460907 0
0.899192214012146 0.34835195541381836 0
0.92271047830581665 0.35155725479125977 0
0.94496691226959229 0.35505890846252441 0
0.96839368343353271 0.35883250832557678 0
0.99065142869949341 0.36317816376686096 0
0.99981689453125 0.36814039945602417 0
1 0.373891681432724 0
0 0.29191452264785767 0
0 0.29188850522041321 0
0 0.28998744487762451 0
2.3951413822942413e-05 0.2877441942691803 0
0.0093100536614656448 0.28512483835220337 0
0.055016707628965378 0.28685778379440308 0
0.10437926650047302 0.29309046268463135 0
0.14623099565505981 0.30005314946174622 0
0.19041019678115845 0.30826088786125183 0
0.23306217789649963 0.31679949164390564 0
0.28183045983314514 0.32686859369277954 0
0.33707147836685181 0.34111100435256958 0
0.40061187744140625 0.36336219310760498 0
0.46903917193412781 0.37955302000045776 0
0.52533000707626343 0.38686224818229675 0
0.58175045251846313 0.39141479134559631 0
0.63171589374542236 0.39410057663917542 0
0.67885130643844604 0.3945252001285553 0
0.71770507097244263 0.39393112063407898 0
0.75416290760040283 0.39235910773277283 0
0.78020697832107544 0.39027860760688782 0
0.80613768100738525 0.38812202215194702 0
0.83101850748062134 0.38727957010269165 0
0.85375440120697021 0.38688403367996216 0
0.87732714414596558 0.38736513257026672 0
0.89943790435791016 0.38843271136283875 0
0.92298507690429688 0.39003711938858032 0
0.94510740041732788 0.39223438501358032 0
0.96837764978408813 0.39465874433517456 0
0.99047476053237915 0.39758852124214172 0
0.99974995851516724 0.40077495574951172 0
0.99995768070220947 0.40526986122131348 0
0 0.33616456389427185 0
0 0.33703154325485229 0
0 0.33503928780555725 0
0 0.33232796192169189 0
0.0027065325994044542 0.32865014672279358 0
0.042110409587621689 0.32708150148391724 0
0.098721541464328766 0.33114105463027954 0
0.14351955056190491 0.33737215399742126 0
0.18865810334682465 0.34504824876785278 0
0.23142588138580322 0.35316005349159241 0
0.27891823649406433 0.36248594522476196 0
0.32913556694984436 0.37290778756141663 0
0.37857133150100708 0.38448074460029602 0
0.44507649540901184 0.40689882636070251 0
0.50635433197021484 0.42392247915267944 0
0.56374830007553101 0.43165364861488342 0
0.61390155553817749 0.43580096960067749 0
0.66158515214920044 0.43804213404655457 0
0.70151489973068237 0.43895038962364197 0
0.74222052097320557 0.43814924359321594 0
0.77510172128677368 0.43591219186782837 0
0.80627107620239258 0.43295270204544067 0
0.83217132091522217 0.43075904250144958 0
0.85481464862823486 0.42924931645393372 0
0.87847530841827393 0.42850172519683838 0
0.90053373575210571 0.4284498393535614 0
0.92376309633255005 0.42862939834594727 0
0.94579601287841797 0.42949199676513672 0
0.96926629543304443 0.43085008859634399 0
0.9912380576133728 0.43253311514854431 0
0.99984949827194214 0.43483623862266541 0
0.99999457597732544 0.43817868828773499 0
0 0.37438768148422241 0
0 0.37543141841888428 0
0 0.37353932857513428 0
0 0.37064388394355774 0
0.0008024561102502048 0.36713767051696777 0
0.032845225185155869 0.36320227384567261 0
0.093676365911960602 0.36470645666122437 0
0.14096781611442566 0.37044510245323181 0
0.18737843632698059 0.37766215205192566 0
0.23037934303283691 0.38495749235153198 0
0.27760377526283264 0.39416134357452393 0
0.3263610303401947 0.40375959873199463 0
0.37181064486503601 0.41281634569168091 0
0.42480149865150452 0.42488011717796326 0
0.48340922594070435 0.444936603307724 0
0.54589557647705078 0.46214067935943604 0
0.59731966257095337 0.46891924738883972 0
0.64522922039031982 0.47292479872703552 0
0.68542957305908203 0.47457930445671082 0
0.72684699296951294 0.47521644830703735 0
0.7612798810005188 0.47404783964157104 0
0.79713338613510132 0.47139263153076172 0
0.82945787906646729 0.46860730648040771 0
0.8549920916557312 0.46625971794128418 0
0.87871706485748291 0.46427533030509949 0
0.90077090263366699 0.46284380555152893 0
0.92404395341873169 0.46231657266616821 0
0.9461408257484436 0.46209025382995605 0
0.96944123506546021 0.4621737003326416 0
0.9914659857749939 0.46325486898422241 0
0.99979239702224731 0.46427187323570251 0
0.99994724988937378 0.46654284000396729 0
0 0.41450652480125427 0
0 0.41515862941741943 0
0 0.41347554326057434 0
0 0.41093045473098755 0
0.00025336095131933689 0.40735688805580139 0
0.028705595061182976 0.40335202217102051 0
0.090358570218086243 0.4006839394569397 0
0.13899967074394226 0.4046928882598877 0
0.18600594997406006 0.41100227832794189 0
0.22904430329799652 0.41787031292915344 0
0.27538448572158813 0.42626774311065674 0
0.32229220867156982 0.43467676639556885 0
0.36603441834449768 0.44290521740913391 0
0.41511636972427368 0.45225867629051208 0
0.46139100193977356 0.46250763535499573 0
0.51960271596908569 0.48094210028648376 0
0.57738828659057617 0.49857673048973083 0
0.62718957662582397 0.5064091682434082 0
0.66822940111160278 0.50969177484512329 0
0.7100449800491333 0.51172143220901489 0
0.74516934156417847 0.51166516542434692 0
0.78204524517059326 0.5104372501373291 0
0.81681340932846069 0.50851792097091675 0
0.84715181589126587 0.50572454929351807 0
0.87695950269699097 0.50281655788421631 0
0.90140491724014282 0.5006258487701416 0
0.92498934268951416 0.49878215789794922 0
0.94707655906677246 0.49748331308364868 0
0.9702681303024292 0.49691563844680786 0
0.99202889204025269 0.49655935168266296 0
0.99991351366043091 0.49686992168426514 0
0.99999594688415527 0.49796953797340393 0
0 0.44816836714744568 0
0 0.44921034574508667 0
0 0.44758370518684387 0
0 0.44536468386650085 0
0.00044803219498135149 0.44167605042457581 0
0.030873322859406471 0.4376370906829834 0
0.091653168201446533 0.43290561437606812 0
0.13859981298446655 0.43406948447227478 0
0.18595458567142487 0.43967831134796143 0
0.22840249538421631 0.44580528140068054 0
0.27368536591529846 0.45334383845329285 0
0.31992146372795105 0.46143817901611328 0
0.36193907260894775 0.46889588236808777 0
0.40906262397766113 0.47747433185577393 0
0.45234000682830811 0.48583737015724182 0
0.50011748075485229 0.49561598896980286 0
0.55341130495071411 0.51283830404281616 0
0.60980391502380371 0.5314369797706604 0
0.65208703279495239 0.53772711753845215 0
0.69454038143157959 0.54087644815444946 0
0.73060685396194458 0.54250717163085938 0
0.76794922351837158 0.54248785972595215 0
0.80339658260345459 0.54158401489257812 0
0.83502787351608276 0.54018735885620117 0
0.86748898029327393 0.53754019737243652 0
0.89681053161621094 0.53443366289138794 0
0.92454779148101807 0.53121376037597656 0
0.94818019866943359 0.52900409698486328 0
0.97155046463012695 0.52771139144897461 0
0.99269205331802368 0.52646946907043457 0
0.99991476535797119 0.525948166847229 0
0.99999284744262695 0.52663272619247437 0
0 0.48259025812149048 0
0 0.48372012376785278 0
0 0.48196586966514587 0
0 0.47985643148422241 0
0.0025879398453980684 0.47656434774398804 0
0.044413074851036072 0.47299176454544067 0
0.10163626819849014 0.46845734119415283 0
0.14327988028526306 0.46555519104003906 0
0.18792170286178589 0.46915718913078308 0
0.22962789237499237 0.47492080926895142 0
0.27440133690834045 0.48189020156860352 0
0.31844592094421387 0.48856717348098755 0
0.35907483100891113 0.49532106518745422 0
0.40423229336738586 0.50340420007705688 0
0.44545856118202209 0.51066356897354126 0
0.48995563387870789 0.51882016658782959 0
0.53359806537628174 0.52796369791030884 0
0.58316677808761597 0.54311138391494751 0
0.63167136907577515 0.56021207571029663 0
0.67754238843917847 0.56937146186828613 0
0.71395581960678101 0.57235825061798096 0
0.75245958566665649 0.5742180347442627 0
0.78826808929443359 0.57455992698669434 0
0.82027816772460938 0.57350283861160278 0
0.8533484935760498 0.57207071781158447 0
0.88403868675231934 0.56993556022644043 0
0.91574150323867798 0.56682980060577393 0
0.94426900148391724 0.56358933448791504 0
0.97128438949584961 0.5604318380355835 0
0.99319976568222046 0.55828368663787842 0
0.99995183944702148 0.55690932273864746 0
0.99999910593032837 0.55646169185638428 0
0 0.51358819007873535 0
0 0.51411551237106323 0
0 0.51265710592269897 0
0.00064798467792570591 0.51071399450302124 0
0.016823075711727142 0.50777441263198853 0
0.069187596440315247 0.50450247526168823 0
0.11689483374357224 0.50013840198516846 0
0.15298962593078613 0.49585837125778198 0
0.19216494262218475 0.49541014432907104 0
0.23227094113826752 0.50029861927032471 0
0.27507057785987854 0.50621801614761353 0
0.31794127821922302 0.51259893178939819 0
0.35677787661552429 0.51870810985565186 0
0.40015712380409241 0.52586114406585693 0
0.43974342942237854 0.53274315595626831 0
0.48234161734580994 0.54045957326889038 0
0.5232202410697937 0.54846662282943726 0
0.56508392095565796 0.55725002288818359 0
0.60763633251190186 0.57033306360244751 0
0.65896105766296387 0.58964347839355469 0
0.69893163442611694 0.59855550527572632 0
0.73782384395599365 0.60203748941421509 0
0.77433425188064575 0.60352647304534912 0
0.80695033073425293 0.60388755798339844 0
0.84095269441604614 0.60365259647369385 0
0.87207084894180298 0.60220968723297119 0
0.90425008535385132 0.60009008646011353 0
0.93420809507369995 0.59710627794265747 0
0.96542555093765259 0.59383785724639893 0
0.99199628829956055 0.59009981155395508 0
0.99993413686752319 0.58719098567962646 0
0.99999845027923584 0.58584761619567871 0
0 0.54229795932769775 0
