LUTs/Kodak Ektachrome 100 VS.cube
# Created by: G'MIC (https://gmic.eu)
TITLE "Kodak Ektachrome 100 VS"
# LUT size
LUT_3D_SIZE 5
# Data domain
# LUT data points
DOMAIN_MIN 0.000000 0.000000 0.000000
DOMAIN_MAX 0.903226 0.903226 0.903226
0.002128655556589365 0.002050172770395875 0.0015812432393431664
0.11445772647857666 0.00070934253744781017 3.3020327805388661e-07
0.3737434446811676 9.5810144557617605e-05 0
0.67329639196395874 0 0
0.94782489538192749 0 0
0.079554066061973572 0.16674359142780304 0.074388325214385986
0.20375224947929382 0.15871942043304443 0.048943530768156052
0.44469663500785828 0.13795985281467438 0.011688228696584702
0.71132606267929077 0.089401796460151672 0.00062207435257732868
0.97163313627243042 0.021347478032112122 1.3699410374101717e-05
0.18353988230228424 0.42821827530860901 0.16768613457679749
0.30674353241920471 0.42498382925987244 0.15536040067672729
0.51532864570617676 0.41517537832260132 0.1286633312702179
0.75065356492996216 0.38971567153930664 0.10868798941373825
0.98906165361404419 0.32724651694297791 0.12262223660945892
0.40978896617889404 0.68791812658309937 0.25488263368606567
0.4720262885093689 0.68589121103286743 0.24271698296070099
0.62504035234451294 0.68394041061401367 0.20653867721557617
0.82793843746185303 0.6739344596862793 0.15376149117946625
1 0.64377766847610474 0.17835375666618347
0.64522171020507812 0.92486453056335449 0.33823966979980469
0.68228292465209961 0.92486810684204102 0.33068615198135376
0.77747547626495361 0.92486608028411865 0.30945685505867004
0.9228816032409668 0.92166376113891602 0.2720293402671814
1 0.91483926773071289 0.21123306453227997
0 0.00066528940806165338 0.10174520313739777
0.067016981542110443 0 0.096818543970584869
0.33185368776321411 0 0.065864846110343933
0.64027959108352661 0 0.035918343812227249
0.92816770076751709 0 0.030566088855266571
0.046786531805992126 0.16105929017066956 0.17802600562572479
0.16294294595718384 0.1518329381942749 0.16235926747322083
0.40846738219261169 0.13005469739437103 0.13091039657592773
0.68004578351974487 0.080436103045940399 0.093376196920871735
0.95230990648269653 0.014988772571086884 0.056968860328197479
0.14242999255657196 0.4257417619228363 0.25114566087722778
0.2707696259021759 0.4222504198551178 0.24547646939754486
0.48265758156776428 0.41032680869102478 0.23638109862804413
0.71779870986938477 0.38298633694648743 0.2292797714471817
0.96936535835266113 0.32300031185150146 0.22053122520446777
0.40445929765701294 0.69149923324584961 0.2685319185256958
0.46577784419059753 0.68819123506546021 0.26378637552261353
0.61438649892807007 0.68393546342849731 0.2520870566368103
0.80419814586639404 0.67001980543136597 0.26026305556297302
0.99725592136383057 0.63576334714889526 0.31873458623886108
0.64749854803085327 0.9285895824432373 0.3398205041885376
0.68444883823394775 0.92859172821044922 0.33226415514945984
0.77979689836502075 0.92855030298233032 0.31103974580764771
0.92580819129943848 0.92567497491836548 0.27383735775947571
1 0.91796886920928955 0.2250024676322937
0 0 0.24757453799247742
0.018629621714353561 0 0.23590195178985596
0.29310539364814758 0 0.19433647394180298
0.6129944920539856 0 0.14521700143814087
0.9110875129699707 0 0.11971286684274673
0.0050655221566557884 0.14780017733573914 0.34438937902450562
0.10561688244342804 0.14039966464042664 0.32476267218589783
0.35983237624168396 0.11949305236339569 0.2829011082649231
0.64474910497665405 0.070764601230621338 0.22431404888629913
0.92936158180236816 0.0094241546466946602 0.16221968829631805
0.013076730072498322 0.4123077392578125 0.45292627811431885
0.1709536612033844 0.40899646282196045 0.44312533736228943
0.41911384463310242 0.39866092801094055 0.42061638832092285
0.6712910532951355 0.37400639057159424 0.38965365290641785
0.93900221586227417 0.3173159658908844 0.34659895300865173
0.2887025773525238 0.67432057857513428 0.50236523151397705
0.36295121908187866 0.67233783006668091 0.50247877836227417
0.52754843235015869 0.66630363464355469 0.50130462646484375
0.73206210136413574 0.65328472852706909 0.4972953200340271
0.96293216943740845 0.62456762790679932 0.49332430958747864
0.63977950811386108 0.93312418460845947 0.36749199032783508
0.67476058006286621 0.93248778581619263 0.36809501051902771
0.76239961385726929 0.92918729782104492 0.37655928730964661
0.88758856058120728 0.92053711414337158 0.41810670495033264
0.99998247623443604 0.89929735660552979 0.50891315937042236
0 0 0.38649061322212219
7.1743270382285118e-05 0 0.37104684114456177
0.24142006039619446 0 0.3237326443195343
0.5762714147567749 0 0.2640368640422821
0.88626879453659058 0 0.22325514256954193
0 0.13544325530529022 0.49948281049728394
0.040610622614622116 0.12749584019184113 0.47664189338684082
0.30167821049690247 0.10728077590465546 0.42700028419494629
0.60195869207382202 0.059366572648286819 0.35618132352828979
0.89986032247543335 0.0037724738940596581 0.27557766437530518
0 0.40082049369812012 0.62389850616455078
0.02970697358250618 0.39810201525688171 0.61042213439941406
0.35092434287071228 0.38845953345298767 0.57833957672119141
0.62245255708694458 0.36572563648223877 0.53401446342468262
0.90515428781509399 0.31050288677215576 0.4708496630191803
0.1084059402346611 0.65870064496994019 0.71508944034576416
0.22830988466739655 0.65673011541366577 0.70981699228286743
0.4414118230342865 0.65264099836349487 0.69494330883026123
0.66989815235137939 0.64163333177566528 0.67166143655776978
0.92013370990753174 0.6155848503112793 0.63996577262878418
0.48110133409500122 0.90253269672393799 0.73394381999969482
0.52330654859542847 0.9022560715675354 0.73425573110580444
0.62726545333862305 0.90026962757110596 0.73487585783004761
0.77874642610549927 0.89510083198547363 0.73636877536773682
0.96857404708862305 0.88244253396987915 0.74167060852050781
0 0 0.5153154730796814
0 0 0.49762699007987976
0.17631684243679047 0 0.44473934173583984
0.53401339054107666 0 0.37418720126152039
0.85920238494873047 0 0.31951227784156799
0 0.1227567195892334 0.63312512636184692
0.00049636303447186947 0.11447249352931976 0.61046296358108521
0.23246003687381744 0.094379402697086334 0.55332493782043457
0.55577349662780762 0.046343602240085602 0.47140806913375854
0.86973041296005249 0.0010554278269410133 0.37546998262405396
0 0.39056453108787537 0.76844292879104614
0.0001223398867296055 0.3883521556854248 0.75196963548660278
0.26830518245697021 0.37943047285079956 0.71223235130310059
0.57063037157058716 0.35740312933921814 0.65741342306137085
0.87156987190246582 0.30296653509140015 0.5783693790435791
0 0.64735954999923706 0.87790226936340332
0.028910893946886063 0.64549499750137329 0.86989903450012207
0.34249529242515564 0.64168834686279297 0.84793388843536377
0.60696941614151001 0.63280099630355835 0.81280016899108887
0.87955141067504883 0.60781311988830566 0.76182407140731812
0.31599736213684082 0.88484513759613037 0.96361857652664185
0.37792465090751648 0.88473224639892578 0.96068090200424194
0.51350027322769165 0.88353109359741211 0.95123380422592163
0.69309639930725098 0.88132113218307495 0.93460965156555176
0.91103672981262207 0.87137258052825928 0.9082266092300415
