LUTs/Kodak Portra 160 3 +.cube
# Created by: G'MIC (https://gmic.eu)
TITLE "Kodak Portra 160 3 +"
# LUT size
LUT_3D_SIZE 32
# Data domain
DOMAIN_MIN 0.0 0.0 0.0
DOMAIN_MAX 1.0 1.0 1.0
# LUT data points
0.030052721500396729 0.039905913174152374 0.032950829714536667
0.036757189780473709 0.040450885891914368 0.032889474183320999
0.049252454191446304 0.041156589984893799 0.033055424690246582
0.068149708211421967 0.041589684784412384 0.033012628555297852
0.093315243721008301 0.041856087744235992 0.032425019890069962
0.120919369161129 0.041716553270816803 0.032012674957513809
0.1534501314163208 0.040935367345809937 0.031393513083457947
0.18739764392375946 0.038204647600650787 0.030058819800615311
0.22604569792747498 0.033444248139858246 0.028445988893508911
0.26562368869781494 0.027065454050898552 0.026751605793833733
0.31088271737098694 0.017084032297134399 0.023860951885581017
0.35858330130577087 0.0055931811220943928 0.020424434915184975
0.40332907438278198 0.00051199906738474965 0.016791319474577904
0.45334196090698242 4.5890965338912793e-06 0.012004260905086994
0.49868780374526978 0 0.0067342254333198071
0.547069251537323 0 0.0023871550802141428
0.59194493293762207 0 0.00046221210504882038
0.63566970825195312 0 1.5970179447322153e-05
0.67507827281951904 0 0
0.71492248773574829 0 0
0.74832808971405029 0 0
0.78261488676071167 0 0
0.81453073024749756 0 0
0.842723548412323 0 0
0.87187570333480835 0 0
0.89839613437652588 0 0
0.92598927021026611 0 0
0.95134299993515015 5.4293144785333425e-05 0
0.97679769992828369 0.007416857872158289 0
0.99713712930679321 0.041106987744569778 0
0.99998176097869873 0.082075551152229309 0
0.99998986721038818 0.1124257892370224 0
0.030281392857432365 0.046917792409658432 0.033506009727716446
0.036118648946285248 0.047953274101018906 0.033491771668195724
0.049209855496883392 0.049777962267398834 0.032813683152198792
0.070331878960132599 0.051734857261180878 0.032006453722715378
0.09612303227186203 0.05344386026263237 0.031114444136619568
0.12356043606996536 0.053716540336608887 0.030189508572220802
0.1557486355304718 0.053671997040510178 0.029521366581320763
0.18953230977058411 0.05236438661813736 0.028228500857949257
0.22858975827693939 0.049283936619758606 0.026503346860408783
0.26807636022567749 0.043912306427955627 0.024202167987823486
0.31324619054794312 0.035611379891633987 0.021287133917212486
0.36105254292488098 0.02349996380507946 0.017972845584154129
0.40530312061309814 0.0106733413413167 0.013962063007056713
0.45489099621772766 0.0023455647751688957 0.0090681863948702812
0.49984604120254517 0.00025051808916032314 0.0041763549670577049
0.54778951406478882 4.6807931539660785e-06 0.0011499214451760054
0.59223824739456177 0 0.00010700505663407966
0.63616669178009033 0 4.8066755908848791e-08
0.67511522769927979 0 0
0.71464401483535767 0 0
0.74839866161346436 0 0
0.78243350982666016 0 0
0.81420403718948364 0 0
0.8428034782409668 0 0
0.87172293663024902 0 0
0.898284912109375 1.3784706425212789e-06 0
0.92544203996658325 0.00039553729584440589 0
0.95096248388290405 0.0051702703349292278 0
0.97639310359954834 0.032069966197013855 0
0.99698847532272339 0.069213122129440308 0
0.9999803900718689 0.10150487720966339 0
0.9999890923500061 0.12730814516544342 0
0.029478892683982849 0.060087181627750397 0.034017685800790787
0.035612687468528748 0.060751207172870636 0.033808950334787369
0.046878393739461899 0.062968440353870392 0.033164039254188538
0.067433975636959076 0.067524582147598267 0.031419441103935242
0.095960676670074463 0.070638097822666168 0.028767410665750504
0.12688788771629333 0.071642398834228516 0.027596844360232353
0.1605636328458786 0.07227209210395813 0.026248961687088013
0.19435545802116394 0.07170366495847702 0.024578595533967018
0.23316024243831635 0.070143960416316986 0.022785969078540802
0.27242627739906311 0.067293524742126465 0.020673388615250587
0.31734162569046021 0.061959154903888702 0.017436692491173744
0.36462810635566711 0.053276035934686661 0.013249803334474564
0.40891954302787781 0.043158877640962601 0.0094155222177505493
0.45801055431365967 0.028762061148881912 0.0049328971654176712
0.50268667936325073 0.015373626723885536 0.0017031056340783834
0.55017822980880737 0.0053802062757313251 0.00026019712095148861
0.59425187110900879 0.0013585648266598582 5.584947757597547e-06
0.63842350244522095 0.00015445813187398016 0
0.67725867033004761 1.8974692466144916e-06 0
0.7163662314414978 0 0
0.74892979860305786 0 0
0.78297233581542969 0 0
0.81479173898696899 6.6969499812330469e-07 0
0.84302884340286255 0.00014554023800883442 0
0.87208437919616699 0.0015174662694334984 0
0.89864069223403931 0.0059352461248636246 0
0.92547786235809326 0.02057989127933979 0
0.95081174373626709 0.045044247061014175 0
0.97637718915939331 0.07436099648475647 0
0.99687707424163818 0.10095614939928055 0
0.99999356269836426 0.12608672678470612 0
0.99999642372131348 0.1480107307434082 0
0.026564892381429672 0.0798230841755867 0.0333084836602211
0.034159936010837555 0.080018945038318634 0.033165343105792999
0.045792922377586365 0.081539779901504517 0.032541897147893906
0.063142105937004089 0.084927067160606384 0.031190849840641022
0.089614048600196838 0.09098690003156662 0.028488654643297195
0.12330760806798935 0.095115572214126587 0.025471512228250504
0.16150341928005219 0.096433743834495544 0.022374017164111137
0.19868320226669312 0.09618067741394043 0.019762612879276276
0.23865163326263428 0.095385216176509857 0.017369087785482407
0.27804410457611084 0.093890249729156494 0.014823383651673794
0.32287171483039856 0.091296091675758362 0.011553684249520302
0.37006032466888428 0.086590297520160675 0.007397686131298542
0.41396817564964294 0.080817118287086487 0.0040857652202248573
0.46270745992660522 0.072135418653488159 0.0011206743074581027
0.50688785314559937 0.061980158090591431 0.00021523144096136093
0.55401265621185303 0.049007758498191833 8.1728176155593246e-06
0.59799373149871826 0.036756295710802078 0
0.64244598150253296 0.027548639103770256 0
0.68041986227035522 0.022144105285406113 0
0.71881532669067383 0.018885893747210503 0
0.75115293264389038 0.018135285004973412 0
0.78464603424072266 0.018920481204986572 0
0.81573760509490967 0.022672343999147415 0
0.8439866304397583 0.029163539409637451 0
0.87302261590957642 0.0408487468957901 0
0.89924222230911255 0.056860204786062241 0
0.92639124393463135 0.076687365770339966 0
0.95159608125686646 0.09593549370765686 0
0.97710138559341431 0.11538432538509369 0
0.99717938899993896 0.13448581099510193 0
0.99997442960739136 0.15442964434623718 0
1 0.17303368449211121 0
0.021232658997178078 0.10293936729431152 0.03164232149720192
0.029811395332217216 0.1026681512594223 0.031706776469945908
0.043021313846111298 0.10359419137239456 0.031391233205795288
0.06075131893157959 0.10611221939325333 0.030127648264169693
0.082704454660415649 0.10998719185590744 0.027962993830442429
0.1134219691157341 0.11739346385002136 0.024563705548644066
0.15372782945632935 0.12425209581851959 0.019575702026486397
0.19517683982849121 0.12596455216407776 0.014866909012198448
0.24103151261806488 0.12582296133041382 0.01034203078597784
0.28311207890510559 0.124763123691082 0.0071127032861113548
0.32858824729919434 0.123622827231884 0.004057370126247406
0.37520474195480347 0.12087466567754745 0.0014612535014748573
0.41882631182670593 0.11797253042459488 0.00036496034590527415
0.46684169769287109 0.11351417005062103 3.2828222174430266e-05
0.51058429479598999 0.10862775892019272 1.1617837571975542e-06
0.55699890851974487 0.10211509466171265 3.9885179603516008e-08
0.60148978233337402 0.096135064959526062 0
0.64502274990081787 0.090697012841701508 0
0.68180686235427856 0.086878031492233276 0
0.71970576047897339 0.084401875734329224 0
0.75130742788314819 0.083587497472763062 0
0.78462707996368408 0.085332542657852173 0
0.81573760509490967 0.089411832392215729 0
0.84374386072158813 0.095307476818561554 0
0.8724827766418457 0.10378754138946533 0
0.89869672060012817 0.11380333453416824 0
0.9257245659828186 0.12590789794921875 0
0.95070606470108032 0.13854964077472687 0
0.97611933946609497 0.15250977873802185 0
0.99678349494934082 0.16687346994876862 0
0.99999940395355225 0.18333472311496735 0
1 0.19902019202709198 0
0.013175426051020622 0.1297939270734787 0.029416635632514954
0.023221546784043312 0.12913045287132263 0.029536273330450058
0.038267027586698532 0.12862107157707214 0.029516544193029404
0.05780782550573349 0.13086023926734924 0.028299327939748764
0.080556884407997131 0.13426816463470459 0.026160856708884239
0.10721274465322495 0.13912849128246307 0.023770097643136978
0.14385727047920227 0.14802658557891846 0.018660230562090874
0.18709932267665863 0.1563829630613327 0.011621438898146152
0.23501622676849365 0.15946988761425018 0.0051521607674658298
0.28139412403106689 0.15947271883487701 0.0015068819047883153
0.33180743455886841 0.15786884725093842 0.00023508579761255533
0.38072988390922546 0.15598209202289581 3.5012784792343155e-05
0.42416325211524963 0.15450090169906616 2.003846702791634e-06
0.47178474068641663 0.15194915235042572 5.9444253963647498e-08
0.51523542404174805 0.14915841817855835 0
0.5622972846031189 0.14629699289798737 0
0.60635215044021606 0.14353179931640625 0
0.64862579107284546 0.14054051041603088 0
0.684425950050354 0.1387035995721817 0
0.72139960527420044 0.13767974078655243 0
0.75286149978637695 0.13759870827198029 0
0.7855033278465271 0.13872243463993073 0
0.81646281480789185 0.14158567786216736 0
0.84422862529754639 0.1456935852766037 0
0.8727564811706543 0.15150494873523712 0
0.89903891086578369 0.15858322381973267 0
0.9256625771522522 0.16730038821697235 0
0.95066362619400024 0.17683880031108856 0
0.97611337900161743 0.18795514106750488 0
0.99664443731307983 0.20004025101661682 0
1 0.21352410316467285 0
0.99997460842132568 0.22701090574264526 0
0.0035535614006221294 0.15962070226669312 0.026687493547797203
0.013571576215326786 0.15903209149837494 0.026942264288663864
0.031014397740364075 0.15774396061897278 0.027253024280071259
0.052720863372087479 0.15901561081409454 0.02632848359644413
0.077531389892101288 0.16231174767017365 0.024331407621502876
0.10445380955934525 0.16662204265594482 0.021650286391377449
0.13560476899147034 0.1720556914806366 0.017837956547737122
0.17452126741409302 0.18194113671779633 0.011339886114001274
0.22527790069580078 0.19383545219898224 0.0026190248318016529
0.2736307680606842 0.19808679819107056 0.00017459430091548711
0.32694020867347717 0.19911153614521027 8.4179174564269488e-07
0.38164502382278442 0.19741629064083099 0
0.42912176251411438 0.19524435698986053 0
0.4781341552734375 0.19352571666240692 0
0.52255797386169434 0.19292788207530975 0
0.56917834281921387 0.19165714085102081 0
0.61127972602844238 0.18970856070518494 0
0.65205508470535278 0.18798592686653137 0
0.68684267997741699 0.18715347349643707 0
0.72299486398696899 0.18632017076015472 0
0.75370103120803833 0.18619972467422485 0
0.78590244054794312 0.18698184192180634 0
0.81660950183868408 0.18905425071716309 0
0.84422844648361206 0.19217778742313385 0
0.8724517822265625 0.19630932807922363 0
0.89853751659393311 0.20157542824745178 0
0.9249768853187561 0.20828540623188019 0
0.94996583461761475 0.21578814089298248 0
0.97540193796157837 0.22501897811889648 0
0.99646979570388794 0.23502865433692932 0
1 0.24610026180744171 0
0.99999904632568359 0.25785386562347412 0
0.00023624311143066734 0.19064494967460632 0.023925367742776871
0.0044686412438750267 0.19015836715698242 0.023983340710401535
0.021360374987125397 0.18844789266586304 0.024196349084377289
0.046114515513181686 0.18792463839054108 0.023986717686057091
0.073734432458877563 0.19083322584629059 0.021938959136605263
0.10194684565067291 0.19502618908882141 0.018880557268857956
0.13387694954872131 0.20041128993034363 0.014971058815717697
0.16767890751361847 0.20673221349716187 0.0101031344383955
0.21181076765060425 0.21818920969963074 0.0030286796391010284
0.26337370276451111 0.23123466968536377 0.00010901097994064912
0.3190387487411499 0.238037109375 0
0.37507572770118713 0.23987911641597748 0
0.42675405740737915 0.23964092135429382 0
0.48177137970924377 0.23748011887073517 0
0.52799326181411743 0.23523175716400146 0
0.57370048761367798 0.2334558516740799 0
0.61466008424758911 0.23205597698688507 0
0.65426164865493774 0.23075126111507416 0
0.68833953142166138 0.22980940341949463 0
0.72357183694839478 0.22902880609035492 0
0.75370770692825317 0.22872811555862427 0
0.78593677282333374 0.2295641303062439 0
0.8162919282913208 0.23079144954681396 0
0.84363961219787598 0.23288211226463318 0
0.87178885936737061 0.23621679842472076 0
0.89766800403594971 0.24022544920444489 0
0.92426186800003052 0.24602068960666656 0
0.94894158840179443 0.25186499953269958 0
0.97438263893127441 0.25914663076400757 0
0.99583810567855835 0.26761049032211304 0
1 0.27704304456710815 0
0.99997496604919434 0.28689157962799072 0
0 0.22654357552528381 0.01840849407017231
0.00027917276020161808 0.22639933228492737 0.018751628696918488
0.0093554779887199402 0.22441361844539642 0.019148586317896843
0.036602996289730072 0.22258031368255615 0.019673069939017296
0.068618088960647583 0.2237226814031601 0.018170582130551338
0.09900202602148056 0.22773848474025726 0.014954329468309879
0.13227452337741852 0.23306359350681305 0.010750927962362766
0.16606795787811279 0.23892456293106079 0.0061642108485102654
0.20470273494720459 0.24623362720012665 0.0018163295462727547
0.24906200170516968 0.25796324014663696 0.00019812301616184413
0.31004953384399414 0.27663567662239075 8.3349800661380868e-07
0.36913400888442993 0.284475177526474 0
0.42105156183242798 0.28701663017272949 0
0.47714328765869141 0.28715780377388 0
0.52628111839294434 0.28482866287231445 0
0.57592803239822388 0.28074842691421509 0
0.61826401948928833 0.27742516994476318 0
0.65719747543334961 0.27584353089332581 0
0.69061440229415894 0.27451112866401672 0
0.72524964809417725 0.27370241284370422 0
0.75519067049026489 0.27331322431564331 0
0.78669381141662598 0.27332201600074768 0
0.81663137674331665 0.2740226686000824 0
0.84356135129928589 0.27537903189659119 0
0.87169617414474487 0.27777177095413208 0
0.89717155694961548 0.2810516357421875 0
0.92386656999588013 0.285218745470047 0
0.94866013526916504 0.29021650552749634 0
0.97405886650085449 0.29627498984336853 0
0.99550575017929077 0.30327075719833374 0
0.99999147653579712 0.31126418709754944 0
0.99999874830245972 0.32022249698638916 0
0 0.26054108142852783 0.012200535275042057
1.2870266345998971e-06 0.26067033410072327 0.012427438050508499
0.002207878977060318 0.25891375541687012 0.013045567087829113
0.02476239949464798 0.25644916296005249 0.013445431366562843
0.06122681125998497 0.25535920262336731 0.013051512651145458
0.094593986868858337 0.25916463136672974 0.0099566951394081116
0.12996585667133331 0.2649155855178833 0.006036536768078804
0.16485084593296051 0.2713358998298645 0.0025322157889604568
0.20444883406162262 0.27928200364112854 0.00040183955570682883
0.24463085830211639 0.2878689169883728 9.7751053544925526e-06
0.29574784636497498 0.30132296681404114 4.6021359167980336e-08
0.35939982533454895 0.3205852210521698 0
0.41423243284225464 0.32913348078727722 0
0.47062581777572632 0.33160722255706787 0
0.51973271369934082 0.33111253380775452 0
0.5698360800743103 0.32811769843101501 0
0.61484843492507935 0.32316455245018005 0
0.65697348117828369 0.31849458813667297 0
0.69080299139022827 0.31564733386039734 0
0.72516548633575439 0.31402581930160522 0
0.75458574295043945 0.31324511766433716 0
0.78571450710296631 0.31269866228103638 0
0.81564772129058838 0.31291356682777405 0
0.84265542030334473 0.31372362375259399 0
0.87052476406097412 0.31559476256370544 0
0.89582568407058716 0.31781202554702759 0
0.92249208688735962 0.32131707668304443 0
0.94732588529586792 0.32529953122138977 0
0.97249269485473633 0.33014795184135437 0
0.99439072608947754 0.33586800098419189 0
0.99999773502349854 0.34255856275558472 0
1 0.35054183006286621 0
0 0.30043861269950867 0.0044169565662741661
0 0.30040809512138367 0.0047003701329231262
8.0871388490777463e-05 0.29879531264305115 0.0048163346946239471
0.012498240917921066 0.29663947224617004 0.0054023722186684608
0.051896106451749802 0.29399576783180237 0.0059617152437567711
0.090020455420017242 0.29581090807914734 0.0043452698737382889
0.12789629399776459 0.30156087875366211 0.0017400484066456556
0.16407476365566254 0.30761986970901489 0.00040700277895666659
0.20406322181224823 0.31525370478630066 2.5511069907224737e-05
0.2433072030544281 0.32296887040138245 4.6021362720694015e-08
0.28890734910964966 0.33249816298484802 0
0.34143790602684021 0.34571221470832825 0
0.40083229541778564 0.36545649170875549 0
0.46126151084899902 0.37580543756484985 0
0.51041585206985474 0.37788605690002441 0
0.56036067008972168 0.37657243013381958 0
0.60600340366363525 0.37359669804573059 0
0.65007972717285156 0.36861246824264526 0
0.68708807229995728 0.36291453242301941 0
0.72416800260543823 0.35827672481536865 0
0.75420147180557251 0.35608518123626709 0
0.78485667705535889 0.35459253191947937 0
0.81457579135894775 0.35418671369552612 0
0.84136497974395752 0.3546103835105896 0
0.86890792846679688 0.35530775785446167 0
0.89433282613754272 0.35676094889640808 0
0.92083120346069336 0.35950392484664917 0
0.94545161724090576 0.36235031485557556 0
0.97059381008148193 0.36635699868202209 0
0.99313324689865112 0.37101677060127258 0
0.99994134902954102 0.3763214647769928 0
0.99995768070220947 0.38296157121658325 0
0 0.34170842170715332 0.00062473042635247111
0 0.34231963753700256 0.00055644242092967033
0 0.34059131145477295 0.00068228371674194932
0.0050575602799654007 0.33799624443054199 0.00082401063991710544
0.041039068251848221 0.33478498458862305 0.00092372047947719693
0.084303349256515503 0.33292305469512939 0.00082165433559566736
0.12471349537372589 0.33663067221641541 0.00019091587455477566
0.1619417667388916 0.34255331754684448 1.8934017134597525e-05
0.20221996307373047 0.34972068667411804 4.7044061091128242e-08
0.2412998378276825 0.35715559124946594 0
0.28550711274147034 0.36608591675758362 0
0.3330058753490448 0.37587758898735046 0
0.38015112280845642 0.38712355494499207 0
0.44365572929382324 0.40770760178565979 0
0.49965167045593262 0.4203733503818512 0
0.55067521333694458 0.42209109663963318 0
0.59631794691085815 0.42039030790328979 0
0.64052993059158325 0.41712749004364014 0
0.67837828397750854 0.41289341449737549 0
0.7173762321472168 0.40720394253730774 0
0.75039613246917725 0.40177473425865173 0
0.78379267454147339 0.39732012152671814 0
0.81375330686569214 0.39540520310401917 0
0.84030348062515259 0.3950420618057251 0
0.86799782514572144 0.39537313580513 0
0.89330464601516724 0.39610829949378967 0
0.91966903209686279 0.39776372909545898 0
0.94411855936050415 0.39984214305877686 0
0.96941632032394409 0.40302613377571106 0
0.99255162477493286 0.40680265426635742 0
0.99995756149291992 0.41134387254714966 0
0.99999457597732544 0.4171639084815979 0
0 0.37761116027832031 5.9281264839228243e-06
0 0.37856489419937134 3.1167969609668944e-06
0 0.37667953968048096 2.7164110179001e-06
0.0020036774221807718 0.37407377362251282 9.8422424343880266e-06
0.03211459144949913 0.37061434984207153 1.1600834113778546e-05
0.079317338764667511 0.3671230673789978 1.222729952132795e-05
0.12169256806373596 0.36830604076385498 2.0709612158498203e-07
0.16023683547973633 0.37368258833885193 0
0.20092976093292236 0.38068678975105286 0
0.23963534832000732 0.38782855868339539 0
0.28347036242485046 0.39612677693367004 0
0.32947260141372681 0.40537318587303162 0
0.37304174900054932 0.41431772708892822 0
0.42445024847984314 0.42624926567077637 0
0.48148280382156372 0.44512996077537537 0
0.54018133878707886 0.4585726261138916 0
0.58676868677139282 0.45970529317855835 0
0.6310960054397583 0.45801934599876404 0
0.6689642071723938 0.45438286662101746 0
0.70842587947845459 0.44990995526313782 0
0.74203312397003174 0.44489377737045288 0
0.77761882543563843 0.43890649080276489 0
0.81069338321685791 0.43351519107818604 0
0.83864027261734009 0.43093281984329224 0
0.86612832546234131 0.42989885807037354 0
0.89134067296981812 0.43018820881843567 0
0.91771382093429565 0.43128219246864319 0
0.94232851266860962 0.43267187476158142 0
0.96745872497558594 0.43493357300758362 0
0.99098217487335205 0.43796160817146301 0
0.99980312585830688 0.44155225157737732 0
0.99994724988937378 0.44665735960006714 0
0 0.41587692499160767 0
0 0.41648158431053162 0
0 0.41497772932052612 0
0.00082702154759317636 0.41244053840637207 0
0.025657214224338531 0.40900477766990662 0
0.076832816004753113 0.40509995818138123 0
0.11985811591148376 0.40262869000434875 0
0.15863963961601257 0.4064653217792511 0
0.19921958446502686 0.41252580285072327 0
0.23817214369773865 0.41919028759002686 0
0.28072220087051392 0.42708352208137512 0
0.32511651515960693 0.43549087643623352 0
0.36697521805763245 0.44368231296539307 0
0.41442391276359558 0.45339077711105347 0
0.4598463773727417 0.46330776810646057 0
0.51807576417922974 0.48159825801849365 0
0.57439613342285156 0.49697571992874146 0
0.62067246437072754 0.4987683892250061 0
0.65885871648788452 0.49681398272514343 0
0.69852244853973389 0.49365180730819702 0
0.73272013664245605 0.48972278833389282 0
0.76891559362411499 0.48469692468643188 0
0.8028983473777771 0.47914266586303711 0
0.83286863565444946 0.47371235489845276 0
0.86323130130767822 0.46927112340927124 0
0.88986754417419434 0.46768581867218018 0
0.91605150699615479 0.46773123741149902 0
0.94052702188491821 0.46839341521263123 0
0.96569538116455078 0.47013646364212036 0
0.98964130878448486 0.47228601574897766 0
0.99976104497909546 0.47557604312896729 0
0.99999594688415527 0.47991308569908142 0
0 0.44841912388801575 0
0 0.44954150915145874 0
0 0.44795438647270203 0
0.00078401836799457669 0.44571381807327271 0
0.025180591270327568 0.44221383333206177 0
0.077631793916225433 0.43823403120040894 0
0.12029074877500534 0.43398427963256836 0
0.15781737864017487 0.43487748503684998 0
0.19841599464416504 0.4402240514755249 0
0.23665976524353027 0.44645223021507263 0
0.27859735488891602 0.45404034852981567 0
0.32199278473854065 0.46185481548309326 0
0.36225056648254395 0.46931600570678711 0
0.40792062878608704 0.47847804427146912 0
0.45058295130729675 0.48681420087814331 0
0.4984571635723114 0.49703606963157654 0
0.55274361371994019 0.51440435647964478 0
0.60920381546020508 0.53097862005233765 0
0.64908486604690552 0.5324636697769165 0
0.68916422128677368 0.53032952547073364 0
0.7238038182258606 0.52769976854324341 0
0.76017707586288452 0.52372342348098755 0
0.79453879594802856 0.51887494325637817 0
0.82550013065338135 0.51431173086166382 0
0.85699683427810669 0.50920552015304565 0
0.88555127382278442 0.50389671325683594 0
0.91342747211456299 0.50076532363891602 0
0.93890571594238281 0.50069361925125122 0
0.96430677175521851 0.50189650058746338 0
0.98835855722427368 0.50314587354660034 0
0.99962729215621948 0.50568956136703491 0
0.99999284744262695 0.50958007574081421 0
0 0.48256269097328186 0
0 0.48375368118286133 0
0 0.48197731375694275 0
0.0021839591208845377 0.47985684871673584 0
0.034105867147445679 0.47665053606033325 0
0.084503926336765289 0.47313839197158813 0
0.12556067109107971 0.46861207485198975 0
0.15989157557487488 0.46587884426116943 0
0.19885033369064331 0.46926864981651306 0
0.2367064356803894 0.47520735859870911 0
0.27803647518157959 0.48217254877090454 0
0.31973463296890259 0.48905807733535767 0
0.35864678025245667 0.49610677361488342 0
0.40264600515365601 0.50449496507644653 0
0.44291234016418457 0.51226317882537842 0
0.48781901597976685 0.52073484659194946 0
0.5324779748916626 0.53029519319534302 0
0.58423221111297607 0.54601770639419556 0
0.63440543413162231 0.5624467134475708 0
0.67867428064346313 0.5670357346534729 0
0.71350002288818359 0.56555747985839844 0
0.7505841851234436 0.5630115270614624 0
0.78539854288101196 0.55921179056167603 0
0.81611573696136475 0.55509316921234131 0
0.84792721271514893 0.55079621076583862 0
0.87715613842010498 0.54622596502304077 0
0.90713608264923096 0.54159879684448242 0
0.93455058336257935 0.53752619028091431 0
