LUTs/Kodak Ektachrome 100 VS.cube
# Created by: G'MIC (https://gmic.eu)
TITLE "Kodak Ektachrome 100 VS"
# LUT size
LUT_3D_SIZE 32
# Data domain
DOMAIN_MIN 0.0 0.0 0.0
DOMAIN_MAX 1.0 1.0 1.0
# LUT data points
0.002128655556589365 0.002050172770395875 0.0015812432393431664
0.0080998130142688751 0.002007750328630209 0.0011537504615262151
0.01783306896686554 0.0017172979423776269 0.00088763912208378315
0.031273122876882553 0.0011400409275665879 0.00056374084670096636
0.048301618546247482 0.00080609234282746911 0.00035919438232667744
0.06574711948633194 0.00071048887912184 0.0001676604151725769
0.088325157761573792 0.00070934253744781017 3.4211130696348846e-05
0.11445772647857666 0.00070934253744781017 3.3020327805388661e-07
0.14673504233360291 0.000664444116409868 0
0.1816716343164444 0.00048390807933174074 0
0.22099526226520538 0.00041585284634493291 0
0.25874322652816772 0.00046879798173904419 0
0.29293692111968994 0.00063198688440024853 0
0.33357971906661987 0.00053125718841329217 0
0.3737434446811676 9.5810144557617605e-05 0
0.42006206512451172 0 0
0.46577921509742737 0 0
0.51233476400375366 0 0
0.55322015285491943 0 0
0.59570431709289551 0 0
0.63282275199890137 0 0
0.67329639196395874 0 0
0.71377277374267578 0 0
0.75087589025497437 0 0
0.79071122407913208 0 0
0.82882899045944214 0 0
0.8689875602722168 0 0
0.9072309136390686 0 0
0.94782489538192749 0 0
0.98536467552185059 0 0
0.99966049194335938 0 0
1 0 0
0.0056247329339385033 0.0095888618379831314 0.0038898051716387272
0.012301520444452763 0.0094110937789082527 0.0034585760440677404
0.023850912228226662 0.008494858630001545 0.0029857282061129808
0.039380595088005066 0.0076911230571568012 0.0024639794137328863
0.058220792561769485 0.0074539398774504662 0.0018655500607565045
0.077293679118156433 0.0074438289739191532 0.0012830508640035987
0.10226229578256607 0.0072695380076766014 0.00059105741092935205
0.13053998351097107 0.0065933512523770332 0.00014748475223314017
0.16490951180458069 0.0060490230098366737 5.5290829550358467e-06
0.1996929943561554 0.0055892183445394039 0
0.23713876307010651 0.0052891895174980164 0
0.2738548219203949 0.0049961898475885391 0
0.3077140748500824 0.0053316354751586914 0
0.34819135069847107 0.0046736337244510651 0
0.38800373673439026 0.0032822843641042709 0
0.43340519070625305 0.0027482265140861273 0
0.47803753614425659 0.0019294829107820988 0
0.5236135721206665 0.00070342543767765164 0
0.56346422433853149 0.00042389109148643911 0
0.60527938604354858 0.00024645027588121593 0
0.64190006256103516 7.0301597588695586e-05 0
0.6818011999130249 1.0980584193021059e-06 0
0.72172552347183228 0 0
0.7585681676864624 0 0
0.79798740148544312 0 0
0.83544617891311646 0 0
0.87508481740951538 0 0
0.91291660070419312 0 0
0.95293015241622925 0 0
0.9886133074760437 0 0
0.99980521202087402 0 0
1 0 0
0.01128564216196537 0.023037264123558998 0.0076426244340837002
0.017772827297449112 0.021471114829182625 0.006953180767595768
0.029562896117568016 0.020536249503493309 0.006022552028298378
0.04669748991727829 0.020108580589294434 0.0051851356402039528
0.066598847508430481 0.019850023090839386 0.0042647682130336761
0.087184719741344452 0.019137972965836525 0.0033876635134220123
0.11451806873083115 0.017932144924998283 0.0023203077726066113
0.14437597990036011 0.017053510993719101 0.0011503217974677682
0.17930449545383453 0.016569355502724648 0.00023108704772312194
0.21314334869384766 0.016063166782259941 8.8079132183338515e-06
0.24907000362873077 0.015389207750558853 0
0.28506508469581604 0.014802784658968449 0
0.31905347108840942 0.014380577951669693 0
0.35942927002906799 0.013077110983431339 0
0.39881566166877747 0.011194889433681965 0
0.44335541129112244 0.010170141234993935 0
0.48714679479598999 0.0086499396711587906 0
0.53177726268768311 0.006821970921009779 0
0.57068246603012085 0.0053047998808324337 0
0.61164999008178711 0.003921708557754755 0
0.64774036407470703 0.0029511915054172277 0
0.68722730875015259 0.0013744012685492635 0
0.72681736946105957 0.00047274024109356105 0
0.76331037282943726 0.00040548091055825353 0
0.8027348518371582 4.2429070163052529e-05 0
0.84010601043701172 0 0
0.8795962929725647 0 0
0.91722840070724487 0 0
0.95684814453125 0 0
0.99105304479598999 0 0
0.99986988306045532 0 0
1 0 0
0.01900964230298996 0.042216610163450241 0.01330589409917593
0.025953629985451698 0.040904663503170013 0.01237652450799942
0.037118338048458099 0.039819616824388504 0.01129559800028801
0.054204594343900681 0.03891473263502121 0.0099576227366924286
0.075140759348869324 0.038015127182006836 0.008566669188439846
0.097735151648521423 0.036725927144289017 0.0070062363520264626
0.12734039127826691 0.035367876291275024 0.0050416169688105583
0.15813650190830231 0.034349903464317322 0.0032975685317069292
0.19318482279777527 0.033583808690309525 0.0015874053351581097
0.22547188401222229 0.031982298940420151 0.00056494673481211066
0.26015499234199524 0.030659502372145653 8.8611908722668886e-05
0.29587006568908691 0.029879588633775711 1.8523597873354447e-06
0.32978090643882751 0.029163617640733719 0
0.37004762887954712 0.026410086080431938 0
0.40888655185699463 0.023997874930500984 0
0.45279777050018311 0.02233593538403511 0
0.49566522240638733 0.019716376438736916 0
0.53922224044799805 0.017078496515750885 0
0.57742780447006226 0.014671929180622101 0
0.61764192581176758 0.012316497974097729 0
0.65331017971038818 0.010074404068291187 0
0.69213569164276123 0.0074169258587062359 0
0.73119562864303589 0.0053716110996901989 0
0.76731210947036743 0.0047310274094343185 0
0.80653691291809082 0.0020002627279609442 0
0.84357762336730957 0.00043192377779632807 0
0.88302242755889893 5.6536206102464348e-05 0
0.92074131965637207 0 0
0.96036064624786377 0 0
0.99323970079421997 0 0
0.99997526407241821 0 0
1 0 0
0.029149750247597694 0.0665927454829216 0.022542081773281097
0.036796566098928452 0.065824627876281738 0.021208988502621651
0.047964248806238174 0.064570322632789612 0.019515387713909149
0.063227161765098572 0.06322767585515976 0.017623778432607651
0.083893716335296631 0.061868350952863693 0.015412156470119953
0.10901711136102676 0.06069609522819519 0.01298165787011385
0.14054739475250244 0.059181421995162964 0.0099928472191095352
0.17154453694820404 0.057623244822025299 0.0074242246337234974
0.20569126307964325 0.055836539715528488 0.0047545768320560455
0.23678764700889587 0.054000683128833771 0.0028955563902854919
0.27066484093666077 0.05273071676492691 0.0013450919650495052
0.30623698234558105 0.051141150295734406 0.00031811781809665263
0.34030133485794067 0.049020968377590179 3.4325843444094062e-05
0.3803352415561676 0.045598819851875305 5.8849815331996069e-07
0.41851982474327087 0.042780619114637375 0
0.4617445170879364 0.039922084659337997 0
0.50384920835494995 0.036187004297971725 0
0.54641884565353394 0.032292116433382034 0
0.58397835493087769 0.028694683685898781 0
0.62342983484268188 0.024707984179258347 0
0.65853512287139893 0.021148940548300743 0
0.69696837663650513 0.017023097723722458 0
0.73551636934280396 0.013621184974908829 0
0.77129733562469482 0.011642699129879475 0
0.81025344133377075 0.0074548441916704178 0
0.84705287218093872 0.0041320440359413624 0
0.88612431287765503 0.0024364199489355087 0
0.92351990938186646 0.00051274255383759737 0
0.96300613880157471 1.8053140593110584e-05 0
0.9948609471321106 0 0
1 0 0
1 0 0
0.042290113866329193 0.096529059112071991 0.037060070782899857
0.050007995218038559 0.094980329275131226 0.035559769719839096
0.061398960649967194 0.093771137297153473 0.033238422125577927
0.075452268123626709 0.093060456216335297 0.030557185411453247
0.093767076730728149 0.091470502316951752 0.027353169396519661
0.12022146582603455 0.089796721935272217 0.023550523445010185
0.15288975834846497 0.088389202952384949 0.019302107393741608
0.18342742323875427 0.086146622896194458 0.015498649328947067
0.21602243185043335 0.08395017683506012 0.011818408966064453
0.24646830558776855 0.081696726381778717 0.008814607746899128
0.28007730841636658 0.079203903675079346 0.0059995297342538834
0.3159344494342804 0.077385470271110535 0.003505033440887928
0.35002735257148743 0.074604123830795288 0.0017088358290493488
0.38986089825630188 0.070912927389144897 0.00057010579621419311
0.42750009894371033 0.067260608077049255 0.0001525971747469157
0.47001713514328003 0.063226260244846344 2.3761753254802898e-05
0.51146954298019409 0.058831498026847839 0
0.55307966470718384 0.054186645895242691 0
0.58999043703079224 0.049206886440515518 0
0.62882286310195923 0.043423376977443695 0
0.66361361742019653 0.038356561213731766 0
0.70166325569152832 0.03242933377623558 0
0.73987853527069092 0.027061287313699722 0
0.77545017004013062 0.023207182064652443 0
0.81399881839752197 0.017003364861011505 0
0.85049378871917725 0.012080023996531963 0
0.88920766115188599 0.0086631178855895996 0
0.92639654874801636 0.0050633940845727921 0
0.96542966365814209 0.0019634061027318239 0
0.99573618173599243 0.00039984664181247354 0
1 2.4314149413839914e-06 0
1 0 0
0.05953935906291008 0.1328321099281311 0.057184267789125443
0.067204758524894714 0.13279785215854645 0.055519122630357742
0.078519545495510101 0.13215291500091553 0.053007714450359344
0.092106200754642487 0.12921732664108276 0.049943543970584869
0.10970196127891541 0.12888476252555847 0.045891594141721725
0.13368844985961914 0.12770813703536987 0.040869619697332382
0.16442148387432098 0.12503995001316071 0.035592250525951385
0.19444873929023743 0.12359622120857239 0.030508905649185181
0.22561649978160858 0.12101687490940094 0.025566594675183296
0.25579792261123657 0.11849087476730347 0.021005427464842796
0.28943878412246704 0.1156545951962471 0.016365043818950653
0.32554763555526733 0.11304196715354919 0.011911444365978241
0.35991650819778442 0.10956864804029465 0.0083566699177026749
0.39953172206878662 0.10584263503551483 0.0051413169130682945
0.4367518424987793 0.10133674740791321 0.0029102731496095657
0.47855749726295471 0.095915012061595917 0.0012061843881383538
0.51918524503707886 0.091093502938747406 0.00036118226125836372
0.55997776985168457 0.085143804550170898 7.1666654548607767e-05
0.5963016152381897 0.078983098268508911 2.0992452846257947e-05
0.6347319483757019 0.071661300957202911 1.2234013411216438e-06
0.66911506652832031 0.065178193151950836 0
0.7068977952003479 0.057515330612659454 0
0.74474596977233887 0.049939479678869247 0
0.78016287088394165 0.043311998248100281 0
0.81838053464889526 0.034588426351547241 0
0.85455173254013062 0.026819061487913132 0
0.89294177293777466 0.020617522299289703 0
0.92986631393432617 0.014237720519304276 0
0.96850806474685669 0.0087350374087691307 0
0.99656921625137329 0.0041191461496055126 0
1 0.00078959343954920769 0
1 0.00050173013005405664 0
0.079554066061973572 0.16674359142780304 0.074388325214385986
0.08709060400724411 0.16660892963409424 0.072982490062713623
0.097536124289035797 0.16603785753250122 0.070646367967128754
0.11124852299690247 0.16353672742843628 0.067590005695819855
0.12947225570678711 0.16282828152179718 0.063506104052066803
0.15034219622612 0.16243533790111542 0.058706529438495636
0.1752857118844986 0.15975013375282288 0.053857848048210144
0.20375224947929382 0.15871942043304443 0.048943530768156052
0.23420052230358124 0.15638421475887299 0.043583042919635773
0.26408290863037109 0.15430934727191925 0.038126319646835327
0.29815995693206787 0.15141402184963226 0.031968090683221817
0.33456668257713318 0.14868661761283875 0.02606794610619545
0.36885684728622437 0.14577372372150421 0.020820943638682365
0.40810045599937439 0.14199814200401306 0.01568317599594593
0.44469663500785828 0.13795985281467438 0.011688228696584702
0.48581960797309875 0.13262906670570374 0.0078941993415355682
0.52567785978317261 0.12727834284305573 0.0050801080651581287
0.56591397523880005 0.12089113891124725 0.0030625148210674524
0.60160309076309204 0.11422635614871979 0.0019878472667187452
0.63968825340270996 0.10587803274393082 0.0012372414348646998
0.67364674806594849 0.098201513290405273 0.00094068213365972042
0.71132606267929077 0.089401796460151672 0.00062207435257732868
0.74897879362106323 0.080145671963691711 0.00040563329821452498
0.78436875343322754 0.071107707917690277 0.00020938861416652799
0.82240146398544312 0.060469042509794235 8.5868879978079349e-05
0.85852861404418945 0.050512306392192841 3.0303341191029176e-05
0.8967399001121521 0.040531892329454422 2.096848220389802e-05
0.93335515260696411 0.030482307076454163 1.5936044292175211e-05
0.97163313627243042 0.021347478032112122 1.3699410374101717e-05
0.99713200330734253 0.012973708100616932 7.1758809099264909e-06
1 0.007544749416410923 2.1123805709066801e-05
1 0.0070995884016156197 2.1123805709066801e-05
0.098332472145557404 0.20235967636108398 0.090202875435352325
0.10559208691120148 0.2002568244934082 0.088833369314670563
0.11660279333591461 0.19899474084377289 0.0865493044257164
0.13126574456691742 0.19878248870372772 0.08343873918056488
0.14960256218910217 0.19875445961952209 0.079696767032146454
0.16764169931411743 0.19790470600128174 0.075872331857681274
0.18845401704311371 0.19496555626392365 0.071710452437400818
0.21440090239048004 0.19483289122581482 0.067351788282394409
0.24447029829025269 0.19303044676780701 0.062604553997516632
0.27436542510986328 0.19082936644554138 0.057080436497926712
0.30862736701965332 0.18833243846893311 0.050810731947422028
0.34524980187416077 0.18588954210281372 0.044273003935813904
0.37936282157897949 0.18300376832485199 0.038017705082893372
0.41785168647766113 0.17992399632930756 0.031350921839475632
0.45387214422225952 0.17655441164970398 0.025671377778053284
0.49383077025413513 0.17226378619670868 0.020346131175756454
0.53271192312240601 0.16724532842636108 0.015842635184526443
0.57219421863555908 0.16149359941482544 0.012277544476091862
0.60710650682449341 0.15527765452861786 0.010130713693797588
0.64468133449554443 0.14732913672924042 0.0083503220230340958
0.67832434177398682 0.1399499922990799 0.0073012462817132473
0.71568256616592407 0.13081184029579163 0.0065180337987840176
0.75318241119384766 0.120755635201931 0.0053646019659936428
0.78836315870285034 0.11014921963214874 0.0041147526353597641
0.82629793882369995 0.098115608096122742 0.0029416501056402922
0.86234229803085327 0.086079373955726624 0.0020476188510656357
0.900482177734375 0.072750382125377655 0.0015090816887095571
0.93715858459472656 0.059014424681663513 0.0011836026096716523
0.97516268491744995 0.04499787837266922 0.0010561089729890227
0.9982714056968689 0.030963530763983727 0.00099151628091931343
1 0.020537372678518295 0.0010287502082064748
1 0.01951952837407589 0.0010287502082064748
0.10335911810398102 0.23637685179710388 0.10362681001424789
0.11147008091211319 0.23537981510162354 0.10229500383138657
0.1233862042427063 0.23404611647129059 0.10010549426078796
0.13884001970291138 0.23320206999778748 0.097436688840389252
0.15606614947319031 0.23275315761566162 0.094392746686935425
0.17432194948196411 0.23236642777919769 0.091164767742156982
0.1985025554895401 0.23046618700027466 0.087210386991500854
0.22495672106742859 0.22917991876602173 0.083171181380748749
0.25518879294395447 0.22823116183280945 0.078468739986419678
0.28543302416801453 0.22594441473484039 0.073444657027721405
0.31979295611381531 0.22400651872158051 0.067399561405181885
0.35609462857246399 0.22125102579593658 0.061110299080610275
0.39007419347763062 0.2183997631072998 0.055086735635995865
0.42790737748146057 0.21546356379985809 0.048223700374364853
0.46314811706542969 0.21245661377906799 0.042164266109466553
0.50218755006790161 0.20856715738773346 0.035916503518819809
0.5401465892791748 0.20418752729892731 0.030580680817365646
0.57878810167312622 0.19860014319419861 0.025721611455082893
0.6130748987197876 0.19300895929336548 0.023001132532954216
0.64999377727508545 0.18600279092788696 0.021042030304670334
0.68321257829666138 0.17955121397972107 0.019657129421830177
0.72005563974380493 0.17143534123897552 0.018688777461647987
0.75715124607086182 0.16223172843456268 0.017682785168290138
0.79199939966201782 0.15222899615764618 0.015905305743217468
0.82950383424758911 0.14111983776092529 0.014097453095018864
0.86539620161056519 0.12891629338264465 0.012207834050059319
0.90344822406768799 0.11412383615970612 0.010614105500280857
0.93995493650436401 0.098868012428283691 0.0095379780977964401
0.97790020704269409 0.081181913614273071 0.0082249362021684647
0.9989849328994751 0.062028463929891586 0.0071470765396952629
1 0.047186847776174545 0.0064098592847585678
1 0.045836798846721649 0.0063220257870852947
0.11659187078475952 0.27441468834877014 0.12003377825021744
0.12216818332672119 0.27407610416412354 0.11900357902050018
0.1307486891746521 0.27334478497505188 0.11687777936458588
0.14288325607776642 0.27302110195159912 0.11497969180345535
0.16003322601318359 0.27227973937988281 0.11244671791791916
0.1829913854598999 0.27119651436805725 0.10957437008619308
0.20981831848621368 0.26987239718437195 0.10598244518041611
0.23715710639953613 0.2688615620136261 0.10205118358135223
0.26791128516197205 0.26743388175964355 0.097396031022071838
0.29852250218391418 0.26565122604370117 0.092630356550216675
0.33259677886962891 0.26373779773712158 0.08709920197725296
0.3683355450630188 0.26136195659637451 0.081053398549556732
0.40158864855766296 0.25899547338485718 0.075071029365062714
0.43871581554412842 0.25584268569946289 0.068575970828533173
0.47315558791160583 0.25282406806945801 0.062567926943302155
0.51135426759719849 0.24901945888996124 0.056040655821561813
0.54853105545043945 0.2447853684425354 0.050017319619655609
0.58624410629272461 0.23936262726783752 0.044896364212036133
0.61997342109680176 0.23398485779762268 0.041163254529237747
0.65642774105072021 0.22745455801486969 0.03846537321805954
0.68918067216873169 0.22145062685012817 0.036944374442100525
0.72564202547073364 0.21366798877716064 0.035779628902673721
0.76200556755065918 0.20503829419612885 0.035314012318849564
0.79647582769393921 0.19603261351585388 0.034257739782333374
0.83345448970794678 0.18628951907157898 0.032773155719041824
0.86884033679962158 0.17545624077320099 0.030860638245940208
0.9065966010093689 0.16235813498497009 0.029333695769309998
0.94289165735244751 0.14811168611049652 0.028084553778171539
0.97996425628662109 0.12984265387058258 0.025941869243979454
0.99920392036437988 0.10931286960840225 0.023379674181342125
1 0.090656742453575134 0.02055596187710762
1 0.088891841471195221 0.020270200446248055
0.113350510597229 0.31524655222892761 0.13483975827693939
0.1213957741856575 0.31468436121940613 0.13384661078453064
0.1332981139421463 0.31455916166305542 0.13250985741615295
0.15030279755592346 0.31352072954177856 0.13087862730026245
0.17248727381229401 0.31271755695343018 0.12864743173122406
0.19653086364269257 0.31215369701385498 0.12604767084121704
0.22330056130886078 0.31132429838180542 0.12276402115821838
0.25113758444786072 0.30991178750991821 0.11904563009738922
0.28211945295333862 0.30852705240249634 0.1144888699054718
0.31249192357063293 0.30729109048843384 0.11007207632064819
0.34616753458976746 0.30519828200340271 0.10492964833974838
0.38090687990188599 0.30351299047470093 0.099455781280994415
0.41300937533378601 0.30140745639801025 0.094148695468902588
0.44934138655662537 0.29833367466926575 0.088020652532577515
0.48312020301818848 0.29545372724533081 0.082399472594261169
0.52043658494949341 0.29154655337333679 0.076457396149635315
0.55678552389144897 0.28738367557525635 0.071032427251338959
0.59374362230300903 0.28252547979354858 0.066168166697025299
0.62676918506622314 0.27749532461166382 0.062656678259372711
0.6628342866897583 0.27128106355667114 0.059996534138917923
0.6952936053276062 0.26534214615821838 0.058748245239257812
0.73136496543884277 0.25803583860397339 0.05793849378824234
0.7673754096031189 0.24912659823894501 0.057727403938770294
0.80125010013580322 0.24070219695568085 0.056619618088006973
0.83794790506362915 0.23157937824726105 0.055010169744491577
0.87298774719238281 0.2210269421339035 0.053455837070941925
0.91029936075210571 0.20868471264839172 0.052689529955387115
0.94600051641464233 0.19594711065292358 0.052553292363882065
0.98193418979644775 0.17957869172096252 0.052084509283304214
0.99930083751678467 0.16105099022388458 0.050671078264713287
1 0.14441031217575073 0.04864179715514183
1 0.14279986917972565 0.048428013920783997
0.12428402155637741 0.35091394186019897 0.14783340692520142
0.1339939683675766 0.3508661687374115 0.14701175689697266
0.14850592613220215 0.35078802704811096 0.14585736393928528
0.16685515642166138 0.35064679384231567 0.14427793025970459
0.18839728832244873 0.3499763011932373 0.14217019081115723
0.21134966611862183 0.34921154379844666 0.13992330431938171
0.23849716782569885 0.34824821352958679 0.13680620491504669
0.26558366417884827 0.3473319411277771 0.13328419625759125
0.29625812172889709 0.34614673256874084 0.12909913063049316
0.32610109448432922 0.34492239356040955 0.12494275718927383
0.35899031162261963 0.34329438209533691 0.12021659314632416
0.39292454719543457 0.34147396683692932 0.1151045486330986
0.42412534356117249 0.33967450261116028 0.11035007238388062
0.45928043127059937 0.33707243204116821 0.10499079525470734
0.4923073947429657 0.33393093943595886 0.099970467388629913
0.52894961833953857 0.33068916201591492 0.094274304807186127
0.56461215019226074 0.32686766982078552 0.089135415852069855
0.60070627927780151 0.32243737578392029 0.084434166550636292
0.6333426833152771 0.31786432862281799 0.080735571682453156
0.66891175508499146 0.31224730610847473 0.078194990754127502
0.70110303163528442 0.30660301446914673 0.077169403433799744
0.73676508665084839 0.29974639415740967 0.076981857419013977
0.77240127325057983 0.29177886247634888 0.077396363019943237
0.80584806203842163 0.28375309705734253 0.077134370803833008
0.84202694892883301 0.27431252598762512 0.076619483530521393
0.87671279907226562 0.26460683345794678 0.075831711292266846
0.91380918025970459 0.25230211019515991 0.075035184621810913
0.9491000771522522 0.23979787528514862 0.074894227087497711
0.98427742719650269 0.22411508858203888 0.074913352727890015
0.99962025880813599 0.20687772333621979 0.074975572526454926
1 0.19193994998931885 0.07495485246181488
1 0.19048731029033661 0.074951112270355225
0.1576300710439682 0.3911643922328949 0.15924781560897827
0.16556534171104431 0.3910696804523468 0.15860670804977417
0.17736755311489105 0.39063751697540283 0.15749077498912811
0.19212758541107178 0.39044651389122009 0.15605205297470093
0.2111499160528183 0.38999289274215698 0.15424105525016785
0.23338371515274048 0.38959974050521851 0.15190258622169495
0.25907522439956665 0.38904762268066406 0.14901144802570343
0.28568354249000549 0.3880646824836731 0.1458858996629715
0.31518220901489258 0.38677752017974854 0.14226584136486053
0.34366774559020996 0.38591268658638 0.13854004442691803
0.37505584955215454 0.38470366597175598 0.13431853055953979
0.40741989016532898 0.38295286893844604 0.12977991998195648
0.43744847178459167 0.38150730729103088 0.12545600533485413
0.47190862894058228 0.37893489003181458 0.12062013149261475
0.5038486123085022 0.37667396664619446 0.11598160117864609
0.53925281763076782 0.37393540143966675 0.11101687699556351
0.57387775182723999 0.37060070037841797 0.10638175904750824
0.60901683568954468 0.36677244305610657 0.10219098627567291
0.64121764898300171 0.36267542839050293 0.099024578928947449
0.6765175461769104 0.35776853561401367 0.096458166837692261
0.70832771062850952 0.35320669412612915 0.095249094069004059
0.74353796243667603 0.34715810418128967 0.095173433423042297
0.77855360507965088 0.33993661403656006 0.09630265086889267
0.81136655807495117 0.33273753523826599 0.097457572817802429
0.84708058834075928 0.3239654004573822 0.097967319190502167
0.88117539882659912 0.31480538845062256 0.098366513848304749
0.91760224103927612 0.3038516640663147 0.098923102021217346
0.95260709524154663 0.29182687401771545 0.09972834587097168
0.98679542541503906 0.27671220898628235 0.10106801241636276
0.9998440146446228 0.25946030020713806 0.10205553472042084
1 0.24510636925697327 0.10262852162122726
