LUTs/Kodak Kodachrome 200.cube
# Created by: G'MIC (https://gmic.eu)
TITLE "Kodak Kodachrome 200"
# LUT size
LUT_3D_SIZE 32
# Data domain
DOMAIN_MIN 0.0 0.0 0.0
DOMAIN_MAX 1.0 1.0 1.0
# LUT data points
0.0050654280930757523 0.0050265025347471237 0.0038237071130424738
0.015980895608663559 0.0048590381629765034 0.0038784979842603207
0.032420523464679718 0.0048348200507462025 0.0038996785879135132
0.052202716469764709 0.0047889752313494682 0.00434151291847229
0.073363259434700012 0.0047327135689556599 0.0049417805857956409
0.093625716865062714 0.0047318344004452229 0.0051542934961616993
0.11918607354164124 0.0047318344004452229 0.0053461403585970402
0.14835274219512939 0.0047318344004452229 0.005541081540286541
0.18302084505558014 0.0047318344004452229 0.0062318532727658749
0.21808519959449768 0.0047318344004452229 0.0067859981209039688
0.25868663191795349 0.0047790179960429668 0.0073630325496196747
0.3025052547454834 0.005098510067909956 0.0082122385501861572
0.34387469291687012 0.0052934372797608376 0.0087312608957290649
0.39069274067878723 0.0040614609606564045 0.0096239643171429634
0.43248051404953003 0.0037564507219940424 0.010355714708566666
0.47639334201812744 0.0038060983642935753 0.011432453989982605
0.51769536733627319 0.0031872221734374762 0.011876421980559826
0.55800247192382812 0.0024298087228089571 0.012009553611278534
0.59233736991882324 0.0024048443883657455 0.011881058104336262
0.62755280733108521 0.0023597402032464743 0.011143583804368973
0.65707623958587646 0.0020873625762760639 0.011179620400071144
0.68819904327392578 0.0018798534292727709 0.01124216802418232
0.71710985898971558 0.0009053656249307096 0.010784110985696316
0.74268984794616699 0.0013585472479462624 0.01098614651709795
0.76904106140136719 0.0020266578067094088 0.01113587711006403
0.79349547624588013 0.0011142838047817349 0.011229169555008411
0.81944644451141357 0.00047002386418171227 0.011620165780186653
0.84389883279800415 0.00027107598725706339 0.012075988575816154
0.86974459886550903 1.9872597476933151e-05 0.012320920825004578
0.8957856297492981 0 0.01254109013825655
0.91627341508865356 0 0.013174948282539845
0.91813218593597412 0 0.013281830586493015
0.010016978718340397 0.017279732972383499 0.0096353869885206223
0.020164836198091507 0.01697884313762188 0.0097290091216564178
0.037324327975511551 0.016935329884290695 0.0099953105673193932
0.057769589126110077 0.016852958127856255 0.010360105894505978
0.079340443015098572 0.016751870512962341 0.01071290485560894
0.10024184733629227 0.016750289127230644 0.011115617118775845
0.1271003931760788 0.016750289127230644 0.011554974131286144
0.15689481794834137 0.016750289127230644 0.012057214044034481
0.19193354249000549 0.016673149541020393 0.012723480351269245
0.22720097005367279 0.016634039580821991 0.013733872212469578
0.26760464906692505 0.016831850633025169 0.014655653387308121
0.31132256984710693 0.017271421849727631 0.015512981452047825
0.3526969850063324 0.016916375607252121 0.016423583030700684
0.39870750904083252 0.015286189503967762 0.01742718368768692
0.43938526511192322 0.015015531331300735 0.018686097115278244
0.48248758912086487 0.014518334530293941 0.019474849104881287
0.5231621265411377 0.013694362714886665 0.019563088193535805
0.56280362606048584 0.013072333298623562 0.019470376893877983
0.5966947078704834 0.012456023134291172 0.01936040073633194
0.63130050897598267 0.011793010868132114 0.018961094319820404
0.66072195768356323 0.011027116328477859 0.018591044470667839
0.69123542308807373 0.0099286278709769249 0.018125973641872406
0.7200779914855957 0.0091361906379461288 0.017195947468280792
0.7454904317855835 0.0092873666435480118 0.016376812011003494
0.77168458700180054 0.0095014888793230057 0.015108028426766396
0.79633420705795288 0.0078606028109788895 0.014490067027509212
0.82189840078353882 0.005839257501065731 0.014582698233425617
0.84632027149200439 0.0042708073742687702 0.015140101313591003
0.8719211220741272 0.0035736302379518747 0.015778474509716034
0.89779329299926758 0.0033784175757318735 0.016247151419520378
0.91882175207138062 0.0021943640895187855 0.016353581100702286
0.92083936929702759 0.0020077174995094538 0.016354205086827278
0.017609119415283203 0.037341970950365067 0.01662907563149929
0.027064422145485878 0.037061650305986404 0.01694079115986824
0.042170975357294083 0.036925941705703735 0.017217954620718956
0.062103025615215302 0.036749571561813354 0.017546400427818298
0.083962276577949524 0.036600746214389801 0.017885688692331314
0.10557705163955688 0.036314789205789566 0.018563391640782356
0.13387094438076019 0.035984035581350327 0.019341299310326576
0.16430018842220306 0.035745821893215179 0.019994525238871574
0.19958367943763733 0.035417739301919937 0.020885905250906944
0.23473449051380157 0.035287976264953613 0.021779760718345642
0.27514812350273132 0.035587113350629807 0.022964270785450935
0.31887033581733704 0.035595130175352097 0.024181833490729332
0.35996085405349731 0.034988097846508026 0.025316342711448669
0.40518558025360107 0.032922614365816116 0.026544170454144478
0.4451831579208374 0.032338384538888931 0.027807839214801788
0.48768237233161926 0.031728681176900864 0.028554366901516914
0.52771544456481934 0.031271662563085556 0.028829839080572128
0.566750168800354 0.030017394572496414 0.028650388121604919
0.60018587112426758 0.028352383524179459 0.028336729854345322
0.63446402549743652 0.027623075991868973 0.027757978066802025
0.66362893581390381 0.027162779122591019 0.026912044733762741
0.69394433498382568 0.024894999340176582 0.025785531848669052
0.72258400917053223 0.023602234199643135 0.024495940655469894
0.74774950742721558 0.023477263748645782 0.02341516874730587
0.77392327785491943 0.023040590807795525 0.021873226389288902
0.79838621616363525 0.020420506596565247 0.020272418856620789
0.82420140504837036 0.017689239233732224 0.019154403358697891
0.84843319654464722 0.016165116801857948 0.018783500418066978
0.87422281503677368 0.014205277897417545 0.019035829231142998
0.90001440048217773 0.012933558784425259 0.019600784406065941
0.92037469148635864 0.010946072638034821 0.02016984298825264
0.92223137617111206 0.010733094997704029 0.020224913954734802
0.027735937386751175 0.060462974011898041 0.026041258126497269
0.037285331636667252 0.060184735804796219 0.026213005185127258
0.050279207527637482 0.060006577521562576 0.026576988399028778
0.067347869277000427 0.059734370559453964 0.026918692514300346
0.088466189801692963 0.05949699878692627 0.027459185570478439
0.11124543845653534 0.059389669448137283 0.02817605622112751
0.1410270631313324 0.059245798736810684 0.029274525120854378
0.17184996604919434 0.058841057121753693 0.030113954097032547
0.20738512277603149 0.058040563017129898 0.03105432353913784
0.24264372885227203 0.057677712291479111 0.032325863838195801
0.28316569328308105 0.057944018393754959 0.033670276403427124
0.32670241594314575 0.057917006313800812 0.034892357885837555
0.36751431226730347 0.056721080094575882 0.036317549645900726
0.41179600358009338 0.055566862225532532 0.03762083500623703
0.45092982053756714 0.055093742907047272 0.038830362260341644
0.49301391839981079 0.053915794938802719 0.039457134902477264
0.53228038549423218 0.052661675959825516 0.039845604449510574
0.57069206237792969 0.051658809185028076 0.039630327373743057
0.60368353128433228 0.050611268728971481 0.039144366979598999
0.63771927356719971 0.049076251685619354 0.038358293473720551
0.6664506196975708 0.047706227749586105 0.037409227341413498
0.69646060466766357 0.045997396111488342 0.036397133022546768
0.72487080097198486 0.043989118188619614 0.034586403518915176
0.74999904632568359 0.043187275528907776 0.032837837934494019
0.77602416276931763 0.041962891817092896 0.030498987063765526
0.80052512884140015 0.03903728723526001 0.028059300035238266
0.8262639045715332 0.035589702427387238 0.025506036356091499
0.85075902938842773 0.033297460526227951 0.023322140797972679
0.87627524137496948 0.030530838295817375 0.022504381835460663
0.90206843614578247 0.028281571343541145 0.022864324972033501
0.92312294244766235 0.025606069713830948 0.023824276402592659
0.92514008283615112 0.025467125698924065 0.023969445377588272
0.040712218731641769 0.085518412292003632 0.037954069674015045
0.049464575946331024 0.085463777184486389 0.038454767316579819
0.06128639355301857 0.085117965936660767 0.038656573742628098
0.075522676110267639 0.084713153541088104 0.038925036787986755
0.09360802173614502 0.084349691867828369 0.039523642510175705
0.11779424548149109 0.084252588450908661 0.040394652634859085
0.14880265295505524 0.084132477641105652 0.041314583271741867
0.17995905876159668 0.083264246582984924 0.042355898767709732
0.21568563580513 0.082458928227424622 0.043661393225193024
0.25079604983329773 0.08209431916475296 0.044842947274446487
0.29148474335670471 0.082052789628505707 0.046151842921972275
0.33495199680328369 0.081839092075824738 0.047626577317714691
0.37512955069541931 0.080732136964797974 0.048965558409690857
0.41874280571937561 0.079937636852264404 0.050257861614227295
0.45709314942359924 0.078675948083400726 0.051722332835197449
0.49842697381973267 0.077711910009384155 0.051945503801107407
0.53715246915817261 0.076727502048015594 0.052131913602352142
0.57510101795196533 0.075372733175754547 0.052046790719032288
0.60765302181243896 0.073924720287322998 0.051546592265367508
0.64111220836639404 0.072371311485767365 0.050625741481781006
0.66948062181472778 0.070780485868453979 0.049406331032514572
0.69922173023223877 0.069101922214031219 0.048368904739618301
0.72736257314682007 0.06704363226890564 0.04640527069568634
0.75214415788650513 0.065907947719097137 0.04429679736495018
0.77818083763122559 0.063693441450595856 0.04153074324131012
0.80242478847503662 0.060684129595756531 0.038244910538196564
0.82827305793762207 0.057305563241243362 0.034569691866636276
0.85244876146316528 0.054396241903305054 0.031077740713953972
0.87848645448684692 0.051489602774381638 0.028010744601488113
0.90423482656478882 0.04793919250369072 0.027015164494514465
0.92464709281921387 0.044050645083189011 0.027326522395014763
0.92651945352554321 0.043606255203485489 0.027392350137233734
0.055046793073415756 0.11352651566267014 0.052381154149770737
0.062772072851657867 0.11342672258615494 0.052568063139915466
0.073674246668815613 0.11312931776046753 0.052734356373548508
0.086615636944770813 0.11293026059865952 0.052872482687234879
0.10232021659612656 0.11280650645494461 0.053161095827817917
0.12520501017570496 0.11266607791185379 0.054321497678756714
0.15645109117031097 0.11211249977350235 0.055692393332719803
0.18781867623329163 0.11100929230451584 0.056416153907775879
0.22341842949390411 0.10994450002908707 0.057248853147029877
0.25906917452812195 0.10966659337282181 0.058976680040359497
0.30001577734947205 0.10961650311946869 0.060106568038463593
0.34341713786125183 0.10956449806690216 0.061240755021572113
0.38305416703224182 0.10853338241577148 0.062840178608894348
0.42573678493499756 0.1067972332239151 0.063884124159812927
0.46350723505020142 0.10587453097105026 0.064877025783061981
0.50418752431869507 0.10500796884298325 0.06491127610206604
0.54206103086471558 0.10319707542657852 0.065215475857257843
0.57927232980728149 0.10206466168165207 0.065125025808811188
0.61136060953140259 0.1005140095949173 0.064297080039978027
0.64458590745925903 0.098224103450775146 0.063455589115619659
0.67263025045394897 0.096378356218338013 0.062447648495435715
0.70197218656539917 0.094534866511821747 0.06100260466337204
0.72980093955993652 0.092075332999229431 0.059077378362417221
0.75452303886413574 0.09060397744178772 0.056740432977676392
0.78031784296035767 0.088067494332790375 0.053946945816278458
0.80457758903503418 0.084718860685825348 0.050480008125305176
0.83013784885406494 0.081118814647197723 0.046380992978811264
0.85464829206466675 0.07783961296081543 0.041961822658777237
0.88045459985733032 0.074312135577201843 0.037087608128786087
0.90641504526138306 0.070462323725223541 0.033307217061519623
0.92733556032180786 0.066127054393291473 0.032009199261665344
0.9293060302734375 0.065678797662258148 0.031923159956932068
0.071495488286018372 0.14853517711162567 0.069265127182006836
0.078472010791301727 0.14853517711162567 0.069406017661094666
0.088611133396625519 0.14853517711162567 0.069641709327697754
0.10076151788234711 0.14853517711162567 0.069998286664485931
0.11667510122060776 0.14853517711162567 0.070474065840244293
0.13701735436916351 0.14853024482727051 0.071193180978298187
0.16428801417350769 0.14850611984729767 0.07217145711183548
0.19628158211708069 0.14758074283599854 0.073151938617229462
0.23194362223148346 0.14531853795051575 0.0741010382771492
0.26806294918060303 0.1447272002696991 0.075347617268562317
0.30932492017745972 0.14461477100849152 0.076718561351299286
0.35270786285400391 0.14461317658424377 0.077788829803466797
0.39167439937591553 0.14448697865009308 0.078972890973091125
0.43334758281707764 0.14206753671169281 0.080066375434398651
0.47032943367958069 0.14071473479270935 0.080778077244758606
0.51035487651824951 0.14052629470825195 0.080734431743621826
0.5477403998374939 0.13797402381896973 0.080795995891094208
0.58455139398574829 0.13677936792373657 0.080672837793827057
0.61596405506134033 0.13507719337940216 0.079859822988510132
0.64853966236114502 0.13265131413936615 0.078864045441150665
0.67627459764480591 0.12966476380825043 0.077436506748199463
0.70534396171569824 0.12876440584659576 0.076071172952651978
0.73277682065963745 0.12561196088790894 0.074067123234272003
0.7573087215423584 0.12354310601949692 0.071707449853420258
0.78299117088317871 0.12018823623657227 0.068616636097431183
0.80704116821289062 0.11629270017147064 0.06512807309627533
0.8325989842414856 0.11239296197891235 0.061012294143438339
0.8568342924118042 0.10880029201507568 0.056327737867832184
0.88270115852355957 0.10461118072271347 0.050496656447649002
0.9087146520614624 0.09968876838684082 0.044308792799711227
0.92991244792938232 0.095083378255367279 0.040053360164165497
0.93194746971130371 0.094576753675937653 0.039676029235124588
0.085936225950717926 0.1849215030670166 0.08556114137172699
0.092576161026954651 0.18485572934150696 0.085796162486076355
0.10182363539934158 0.18474996089935303 0.08599245548248291
0.11406504362821579 0.18454383313655853 0.086254969239234924
0.13077293336391449 0.18421861529350281 0.087004512548446655
0.1510632187128067 0.18415406346321106 0.087912894785404205
0.17434403300285339 0.18389575183391571 0.088660843670368195
0.20391012728214264 0.1834472119808197 0.089559756219387054
0.24000529944896698 0.18256630003452301 0.090458884835243225
0.27676016092300415 0.18146751821041107 0.09169711172580719
0.31828534603118896 0.18095819652080536 0.09287630021572113
0.36156561970710754 0.1802702397108078 0.093987844884395599
0.39989989995956421 0.17969413101673126 0.095119781792163849
0.44072237610816956 0.17858171463012695 0.096158258616924286
0.47716203331947327 0.17712892591953278 0.09661826491355896
0.51639252901077271 0.17621852457523346 0.096684820950031281
0.55307298898696899 0.17465983331203461 0.096589222550392151
0.58911967277526855 0.17283882200717926 0.096403427422046661
0.62017577886581421 0.17125016450881958 0.095517687499523163
0.65240734815597534 0.16851919889450073 0.094125591218471527
0.67961758375167847 0.16636638343334198 0.093011565506458282
0.70822453498840332 0.16482922434806824 0.091490082442760468
0.73553913831710815 0.16183312237262726 0.089282676577568054
0.76003074645996094 0.15898776054382324 0.086821973323822021
0.78559374809265137 0.1558087021112442 0.083840832114219666
0.80956947803497314 0.15192891657352448 0.080259867012500763
0.83500725030899048 0.14788514375686646 0.075975328683853149
0.85930174589157104 0.14389833807945251 0.071387916803359985
0.88504886627197266 0.13912831246852875 0.065529309213161469
0.91120266914367676 0.13338719308376312 0.058681502938270569
0.93188947439193726 0.12852296233177185 0.053280908614397049
0.93380051851272583 0.12799884378910065 0.052782647311687469
0.084254741668701172 0.22544799745082855 0.1023406982421875
0.090829417109489441 0.2252344936132431 0.10241908580064774
0.10109493881464005 0.22504130005836487 0.10267996042966843
0.11563222110271454 0.22501671314239502 0.10310180485248566
0.135242760181427 0.2249695360660553 0.10370010137557983
0.15564075112342834 0.22478516399860382 0.10450275242328644
0.1803835928440094 0.22456319630146027 0.10556179285049438
0.2116621732711792 0.2239081859588623 0.10657263547182083
0.24880120158195496 0.22369758784770966 0.10733187943696976
0.28601229190826416 0.22285449504852295 0.10825409740209579
0.32794308662414551 0.22160333395004272 0.1095397025346756
0.37077927589416504 0.22097742557525635 0.11078251153230667
0.40842080116271973 0.22012799978256226 0.11150529235601425
0.44838759303092957 0.21964183449745178 0.11242898553609848
0.48430377244949341 0.21816098690032959 0.11278922110795975
0.52248811721801758 0.21716424822807312 0.11320528388023376
0.55837565660476685 0.2159733772277832 0.11304563283920288
0.59406405687332153 0.21374256908893585 0.11227811127901077
0.62438094615936279 0.21242527663707733 0.11150150001049042
0.65604305267333984 0.20965832471847534 0.11050715297460556
0.68314355611801147 0.20830878615379333 0.10921656340360641
0.71134352684020996 0.20622541010379791 0.10766886919736862
0.73841166496276855 0.20348966121673584 0.10550811141729355
0.76277816295623779 0.20054961740970612 0.10306309163570404
0.78828883171081543 0.19730126857757568 0.10014324635267258
0.81223326921463013 0.19402219355106354 0.096808686852455139
0.83744806051254272 0.19010207056999207 0.09290602058172226
0.86181581020355225 0.18609637022018433 0.088174089789390564
0.88752919435501099 0.18085812032222748 0.082630470395088196
0.91363883018493652 0.17519627511501312 0.075960196554660797
0.93508344888687134 0.17047424614429474 0.07011248916387558
0.93716257810592651 0.17003460228443146 0.069453082978725433
0.08855786919593811 0.26726934313774109 0.12008132785558701
0.094131886959075928 0.26726934313774109 0.12021332979202271
0.10262724012136459 0.26726934313774109 0.12053471058607101
0.11480778455734253 0.26718524098396301 0.12103012949228287
0.13136936724185944 0.26656493544578552 0.12183482199907303
0.15240900218486786 0.26559939980506897 0.12251175940036774
0.18394565582275391 0.26523926854133606 0.12323690950870514
0.21823939681053162 0.26510810852050781 0.12401591241359711
0.25690358877182007 0.26499837636947632 0.12496951967477798
0.29493436217308044 0.26459953188896179 0.1259310394525528
0.33695071935653687 0.26356321573257446 0.12690995633602142
0.37896603345870972 0.26310646533966064 0.12776914238929749
0.41587021946907043 0.2620067298412323 0.12856076657772064
0.45525437593460083 0.26123413443565369 0.12915739417076111
0.49034613370895386 0.26026993989944458 0.12920552492141724
0.52790927886962891 0.25953641533851624 0.12938016653060913
0.56361758708953857 0.25797951221466064 0.12916243076324463
0.59825605154037476 0.2559666633605957 0.12774237990379333
0.62838625907897949 0.25453284382820129 0.12732447683811188
0.65943986177444458 0.25226914882659912 0.125835120677948
0.68604522943496704 0.25054356455802917 0.12461163103580475
0.71404862403869629 0.24860116839408875 0.12291950732469559
0.74073523283004761 0.24597610533237457 0.12074816226959229
0.76514047384262085 0.24295839667320251 0.11829820275306702
0.79044300317764282 0.23989158868789673 0.11515934765338898
0.81418734788894653 0.23678597807884216 0.11175433546304703
0.83953249454498291 0.23285467922687531 0.10777465254068375
0.86389005184173584 0.22887176275253296 0.10329980403184891
0.88967686891555786 0.22365355491638184 0.097821369767189026
0.91573852300643921 0.21820120513439178 0.091668576002120972
0.93690460920333862 0.21326541900634766 0.086050048470497131
0.93889868259429932 0.21276529133319855 0.085468202829360962
0.070343017578125 0.31263071298599243 0.1395716518163681
0.077767416834831238 0.31263071298599243 0.13970990478992462
0.088265195488929749 0.31263071298599243 0.14013522863388062
0.10162905603647232 0.31262552738189697 0.14077405631542206
0.12145373225212097 0.31259417533874512 0.14149795472621918
0.15283992886543274 0.31257215142250061 0.14194799959659576
0.18986412882804871 0.3125540018081665 0.14250549674034119
0.22634437680244446 0.31218129396438599 0.14336442947387695
0.26618790626525879 0.31154873967170715 0.14411452412605286
0.30481728911399841 0.31079468131065369 0.14528799057006836
0.34624409675598145 0.31063234806060791 0.14584606885910034
0.38705700635910034 0.3100413978099823 0.14671340584754944
0.42323896288871765 0.30932435393333435 0.14724378287792206
0.46194043755531311 0.30857396125793457 0.14752508699893951
0.49640759825706482 0.30783265829086304 0.14766722917556763
0.53355664014816284 0.30657297372817993 0.14760078489780426
0.56825613975524902 0.305315762758255 0.14683157205581665
0.60254597663879395 0.3036666214466095 0.14592325687408447
0.63171035051345825 0.3019447922706604 0.14499072730541229
0.66243231296539307 0.30054828524589539 0.14379911124706268
0.68857467174530029 0.29857033491134644 0.14253264665603638
0.71629613637924194 0.29672136902809143 0.14055486023426056
0.74293899536132812 0.29422649741172791 0.13839061558246613
0.7668764591217041 0.29136788845062256 0.13583485782146454
0.79233145713806152 0.28868770599365234 0.13268005847930908
0.81627017259597778 0.28556805849075317 0.12925520539283752
0.84151667356491089 0.28169864416122437 0.12524454295635223
0.86572080850601196 0.27769678831100464 0.12078692764043808
0.89161479473114014 0.2727959156036377 0.11540472507476807
0.91797763109207153 0.26747947931289673 0.10930253565311432
0.93914783000946045 0.26246657967567444 0.10346833616495132
0.94113808870315552 0.26201939582824707 0.10291010141372681
0.046352475881576538 0.35823714733123779 0.1599954217672348
0.053507935255765915 0.35823714733123779 0.16001793742179871
0.067595012485980988 0.35823714733123779 0.16025556623935699
0.091861747205257416 0.35823714733123779 0.16069251298904419
0.12535738945007324 0.35823714733123779 0.16144928336143494
0.16002999246120453 0.35823532938957214 0.16207240521907806
0.19806297123432159 0.35804289579391479 0.16302596032619476
0.23604966700077057 0.35717314481735229 0.16370987892150879
0.27672213315963745 0.35690826177597046 0.16397780179977417
0.31504297256469727 0.35655766725540161 0.16448380053043365
0.35561448335647583 0.35654664039611816 0.1654011458158493
0.39524075388908386 0.35647439956665039 0.16594825685024261
0.43030884861946106 0.35558012127876282 0.16601338982582092
0.46821242570877075 0.35448360443115234 0.16601665318012238
0.50184518098831177 0.35425248742103577 0.1660158783197403
0.53820109367370605 0.35304915904998779 0.16569727659225464
0.57244515419006348 0.35209891200065613 0.16443362832069397
0.60598349571228027 0.35060212016105652 0.16374500095844269
0.63471901416778564 0.34949430823326111 0.16229137778282166
0.66457581520080566 0.34791663289070129 0.16119898855686188
0.69051706790924072 0.3464338481426239 0.15953429043292999
0.71801221370697021 0.34469321370124817 0.15731218457221985
0.74439853429794312 0.34240859746932983 0.15497030317783356
0.76837724447250366 0.34026825428009033 0.15239265561103821
0.79354965686798096 0.33778649568557739 0.14924335479736328
0.81717652082443237 0.33517903089523315 0.14586611092090607
0.84273427724838257 0.33161947131156921 0.14169222116470337
0.86726689338684082 0.32802951335906982 0.13736391067504883
0.8929901123046875 0.32367518544197083 0.13218428194522858
0.91921693086624146 0.3187604546546936 0.12609848380088806
0.94048762321472168 0.31447649002075195 0.12030579894781113
0.94243079423904419 0.31409460306167603 0.11974465101957321
0.047193411737680435 0.39692136645317078 0.17794232070446014
0.062835477292537689 0.39692136645317078 0.17806421220302582
0.0854630246758461 0.39692136645317078 0.17842097580432892
0.11358833312988281 0.39692136645317078 0.17908498644828796
0.14323733747005463 0.39692136645317078 0.17956696450710297
0.17359702289104462 0.39691135287284851 0.18024358153343201
