LUTs/Kodak Portra 400 2.cube
# Created by: G'MIC (https://gmic.eu)
TITLE "Kodak Portra 400 2"
# LUT size
LUT_3D_SIZE 32
# Data domain
DOMAIN_MIN 0.0 0.0 0.0
DOMAIN_MAX 1.0 1.0 1.0
# LUT data points
0.018918896093964577 0.020037354901432991 0.01958920992910862
0.026091938838362694 0.020284729078412056 0.019766641780734062
0.040009487420320511 0.020778577774763107 0.01958707720041275
0.06079564243555069 0.021358316764235497 0.019017765298485756
0.087184913456439972 0.022436048835515976 0.018420439213514328
0.1169959232211113 0.022477278485894203 0.017445050179958344
0.15293477475643158 0.021207904443144798 0.016677046194672585
0.19142457842826843 0.016860388219356537 0.015024811029434204
0.235926553606987 0.01001428347080946 0.013027227483689785
0.28137019276618958 0.0032469809520989656 0.010798314586281776
0.33310800790786743 0.0001866659295046702 0.0072112316265702248
0.38807368278503418 9.4823184326742194e-07 0.0031470831017941236
0.43934658169746399 0 0.00073871156200766563
0.49657124280929565 0 4.0337148675462231e-05
0.54831826686859131 0 0
0.60309916734695435 0 0
0.65361505746841431 0 0
0.70262044668197632 0 0
0.74586677551269531 0 0
0.78930145502090454 0 0
0.82486367225646973 0 0
0.85945409536361694 0 0
0.89075392484664917 0 0
0.91763758659362793 6.8561589614546392e-06 0
0.94510030746459961 0.0023308945819735527 0
0.96955347061157227 0.027816310524940491 0
0.99259543418884277 0.076295159757137299 0
0.99997246265411377 0.11251062154769897 0
0.99998360872268677 0.14197574555873871 0
0.99993103742599487 0.16770769655704498 0
0.99998176097869873 0.19157873094081879 0
0.99998986721038818 0.21141450107097626 0
0.018348520621657372 0.026464046910405159 0.021107235923409462
0.025140592828392982 0.027163658291101456 0.020657120272517204
0.039682202041149139 0.029072405770421028 0.019373780116438866
0.061636656522750854 0.031657997518777847 0.018265511840581894
0.088597647845745087 0.034091506153345108 0.017672358080744743
0.11788752675056458 0.034704536199569702 0.016519157215952873
0.15343375504016876 0.034194961190223694 0.015234135091304779
0.19190481305122375 0.031463067978620529 0.013682445511221886
0.23672741651535034 0.026283575221896172 0.011641699820756912
0.28184279799461365 0.017472557723522186 0.0085367867723107338
0.33351343870162964 0.0069453106261789799 0.005013568326830864
0.3887212872505188 0.0013694500084966421 0.0018412793288007379
0.43934822082519531 9.1878304374404252e-05 0.00029193123918958008
0.49609661102294922 0 4.684207851823885e-06
0.54733920097351074 0 0
0.60169345140457153 0 0
0.65204387903213501 0 0
0.70127880573272705 0 0
0.74460381269454956 0 0
0.78779035806655884 0 0
0.82340908050537109 0 0
0.85820180177688599 0 0
0.88920336961746216 6.4487641793675721e-05 0
0.91675490140914917 0.0023380680941045284 0
0.94405508041381836 0.023803079500794411 0
0.9685213565826416 0.065364070236682892 0
0.99180692434310913 0.10310555249452591 0
0.99996054172515869 0.13232962787151337 0
0.99999642372131348 0.1582571268081665 0
0.99999791383743286 0.18104259669780731 0
0.9999803900718689 0.20287823677062988 0
0.9999890923500061 0.22144573926925659 0
0.017974071204662323 0.038095485419034958 0.023272303864359856
0.024200644344091415 0.038061674684286118 0.023350922390818596
0.036835938692092896 0.041132345795631409 0.021432049572467804
0.059374984353780746 0.045796316117048264 0.019135028123855591
0.087980635464191437 0.050101302564144135 0.016626080498099327
0.1197657436132431 0.052667941898107529 0.014884953387081623
0.15620627999305725 0.053973875939846039 0.013101459480822086
0.19444334506988525 0.05316326767206192 0.011096209287643433
0.23855239152908325 0.050532236695289612 0.0086302412673830986
0.28342244029045105 0.045264352113008499 0.0058721383102238178
0.3347262442111969 0.036138445138931274 0.0027127156499773264
0.38884526491165161 0.023071747273206711 0.00055881537264212966
0.43964117765426636 0.011385125108063221 3.4971304557984695e-05
0.49626201391220093 0.0033391441684216261 2.3777703361815838e-08
0.54724156856536865 0.00063094962388277054 0
0.60105204582214355 2.4184815629268996e-05 0
0.65139639377593994 0 0
0.7012818455696106 0 0
0.7441067099571228 0 0
0.78695529699325562 2.0090849375264952e-06 0
0.82202649116516113 0.00028889297391287982 0
0.85692918300628662 0.0029354712460190058 0
0.88819539546966553 0.01486318651586771 0
0.91552841663360596 0.040732432156801224 0
0.9428253173828125 0.076919615268707275 0
0.96727222204208374 0.10754682123661041 0
0.99095022678375244 0.13456027209758759 0
0.99991023540496826 0.15780813992023468 0
0.99999219179153442 0.17957548797130585 0
0.99993586540222168 0.19998528063297272 0
0.99999356269836426 0.21962514519691467 0
0.99999642372131348 0.23653455078601837 0
0.015045921318233013 0.055326696485280991 0.025017805397510529
0.022669946774840355 0.054117795079946518 0.026182236149907112
0.033507801592350006 0.056822873651981354 0.024542771279811859
0.053776990622282028 0.061787892132997513 0.021550577133893967
0.083030685782432556 0.067933246493339539 0.01790258102118969
0.11696600914001465 0.073452427983283997 0.01463461946696043
0.15590094029903412 0.077117644250392914 0.011027979664504528
0.19599823653697968 0.078500501811504364 0.0078631797805428505
0.2404857724905014 0.078614518046379089 0.0047935154289007187
0.2851768434047699 0.076894529163837433 0.002502362011000514
0.33635678887367249 0.072958119213581085 0.00063396419864147902
0.39031049609184265 0.066286608576774597 6.8751942308153957e-05
0.44057044386863708 0.057147134095430374 3.1064420369375512e-08
0.4967295229434967 0.044360004365444183 0
0.54740244150161743 0.032639123499393463 0
0.60115092992782593 0.023066768422722816 0
0.65162897109985352 0.017541816458106041 0
0.70218962430953979 0.015809580683708191 0
0.74424678087234497 0.017583113163709641 0
0.78656637668609619 0.023850241675972939 0
0.82150125503540039 0.034904308617115021 0
0.8558381199836731 0.054354079067707062 0
0.88684409856796265 0.079576022922992706 0
0.91422110795974731 0.10350130498409271 0
0.9414868950843811 0.12692183256149292 0
0.96607089042663574 0.14767821133136749 0
0.9901999831199646 0.16853131353855133 0
0.99988806247711182 0.18750876188278198 0
0.99998998641967773 0.20600101351737976 0
0.99999392032623291 0.22344478964805603 0
0.99997442960739136 0.24086922407150269 0
1 0.2559019923210144 0
0.0087570156902074814 0.076515898108482361 0.027025448158383369
0.017280319705605507 0.074409052729606628 0.028717119246721268
0.028425198048353195 0.075414672493934631 0.028570769354701042
0.046080552041530609 0.080446645617485046 0.025330832228064537
0.073002971708774567 0.086525902152061462 0.020682208240032196
0.10832367837429047 0.093903087079524994 0.015768924728035927
0.14923612773418427 0.10137756913900375 0.010694162920117378
0.19167225062847137 0.10602099448442459 0.0054997089318931103
0.23960426449775696 0.10914705693721771 0.0013289591297507286
0.28589057922363281 0.10999529808759689 0.00028453051345422864
0.33687004446983337 0.10969626903533936 2.0358551410026848e-05
0.39025640487670898 0.10767906904220581 2.8567333743012568e-07
0.44023880362510681 0.10492481291294098 0
0.49570959806442261 0.10056283324956894 0
0.5457729697227478 0.095317862927913666 0
0.5992046594619751 0.089955344796180725 0
0.65044248104095459 0.08657383918762207 0
0.70035111904144287 0.086405962705612183 0
0.7418893575668335 0.090522706508636475 0
0.78370428085327148 0.099573403596878052 0
0.81797724962234497 0.11031105369329453 0
0.85246694087982178 0.12438062578439713 0
0.88362395763397217 0.13909503817558289 0
0.91109424829483032 0.15439336001873016 0
0.93834710121154785 0.17078074812889099 0
0.96308737993240356 0.18647319078445435 0
0.98790019750595093 0.20308287441730499 0
0.99968969821929932 0.21846722066402435 0
0.99999535083770752 0.23391927778720856 0
0.99999779462814331 0.24873985350131989 0
0.99999940395355225 0.26351609826087952 0
1 0.27715733647346497 0
0.0016970648430287838 0.1019316241145134 0.029982892796397209
0.0080477697774767876 0.099506460130214691 0.032019447535276413
0.021215248852968216 0.097712993621826172 0.033533699810504913
0.037608016282320023 0.10183202475309372 0.030420258641242981
0.062667064368724823 0.10805262625217438 0.025335177779197693
0.096428215503692627 0.11573917418718338 0.01918773353099823
0.13979077339172363 0.12499386072158813 0.011509312316775322
0.18456433713436127 0.13294923305511475 0.0047536641359329224
0.23335021734237671 0.13909493386745453 0.00060413964092731476
0.28188484907150269 0.1427534818649292 2.1802426999784075e-05
0.33556932210922241 0.14477868378162384 0
0.38996165990829468 0.14547847211360931 0
0.43977457284927368 0.14551785588264465 0
0.49468895792961121 0.14478965103626251 0
0.54478150606155396 0.14379312098026276 0
0.59917914867401123 0.14325007796287537 0
0.65023159980773926 0.14412695169448853 0
0.69905394315719604 0.14638683199882507 0
0.73990452289581299 0.15064617991447449 0
0.78102684020996094 0.15769749879837036 0
0.81519073247909546 0.16594772040843964 0
0.84951090812683105 0.17603117227554321 0
0.88074523210525513 0.18720926344394684 0
0.90833503007888794 0.19854822754859924 0
0.93582725524902344 0.21156623959541321 0
0.96090799570083618 0.22428978979587555 0
0.9855683445930481 0.23760819435119629 0
0.99935388565063477 0.2505333423614502 0
0.99997794628143311 0.26367133855819702 0
0.99999481439590454 0.2763361930847168 0
1 0.28909102082252502 0
0.99997460842132568 0.30129554867744446 0
6.456496976170456e-06 0.13108338415622711 0.03340446949005127
0.00072952039772644639 0.12890608608722687 0.03617081418633461
0.0098969815298914909 0.12547434866428375 0.039456643164157867
0.026787817478179932 0.12676815688610077 0.038126662373542786
0.050676856189966202 0.13315457105636597 0.032439138740301132
0.08299902081489563 0.14076502621173859 0.025410505011677742
0.12419049441814423 0.1498183012008667 0.016241051256656647
0.17187924683094025 0.16011565923690796 0.0064716748893260956
0.22458361089229584 0.17009714245796204 0.00049292470794171095
0.27387154102325439 0.17704333364963531 2.9821844691468868e-06
0.32928252220153809 0.18238875269889832 0
0.386503666639328 0.18558923900127411 0
0.43809562921524048 0.18737025558948517 0
0.49421831965446472 0.18902157247066498 0
0.54533851146697998 0.19131577014923096 0
0.59967637062072754 0.1936957985162735 0
0.64904201030731201 0.19597068428993225 0
0.6965862512588501 0.19922183454036713 0
0.73675340414047241 0.20365503430366516 0
0.77723795175552368 0.20958825945854187 0
0.8110540509223938 0.21645060181617737 0
0.84510952234268188 0.22436557710170746 0
0.8766753077507019 0.23326334357261658 0
0.90416127443313599 0.24241034686565399 0
0.9319758415222168 0.25290942192077637 0
0.95691013336181641 0.2631305456161499 0
0.98202210664749146 0.27433320879936218 0
0.99863594770431519 0.2849966287612915 0
0.9999699592590332 0.2959076464176178 0
1 0.30670562386512756 0
1 0.31746503710746765 0
0.99999904632568359 0.32825693488121033 0
0 0.16218523681163788 0.037980947643518448
4.1011203393281903e-06 0.15982301533222198 0.040637526661157608
0.0013623089762404561 0.15585741400718689 0.044091232120990753
0.012948061339557171 0.15418359637260437 0.046045500785112381
0.036051653325557709 0.15924516320228577 0.041338793933391571
0.068755112588405609 0.16654670238494873 0.033673863857984543
0.10926097631454468 0.17582185566425323 0.023491580039262772
0.15461842715740204 0.18578383326530457 0.01203362550586462
0.21008504927158356 0.19785977900028229 0.0015732623869553208
0.2640610933303833 0.20834445953369141 1.7483667761553079e-05
0.32081016898155212 0.21697498857975006 0
0.37899258732795715 0.22340615093708038 0
0.43313315510749817 0.22806364297866821 0
0.49230489134788513 0.2317318320274353 0
0.54394125938415527 0.2340661883354187 0
0.59710782766342163 0.2371208667755127 0
0.64555138349533081 0.24025943875312805 0
0.6923830509185791 0.24392898380756378 0
0.73181498050689697 0.24840471148490906 0
0.77206581830978394 0.25393608212471008 0
0.80558180809020996 0.25987249612808228 0
0.83997267484664917 0.26684373617172241 0
0.8715025782585144 0.27425366640090942 0
0.89927303791046143 0.2819969654083252 0
0.9272724986076355 0.29093334078788757 0
0.95249515771865845 0.29942139983177185 0
0.97789537906646729 0.30890801548957825 0
0.99719893932342529 0.31786209344863892 0
0.99997353553771973 0.32708188891410828 0
0.99998539686203003 0.33629369735717773 0
1 0.34545496106147766 0
0.99997496604919434 0.35432982444763184 0
0 0.19852973520755768 0.042979992926120758
0 0.19684168696403503 0.045829761773347855
7.4184436016366817e-06 0.19249936938285828 0.050006821751594543
0.0017105262959375978 0.18814995884895325 0.054434038698673248
0.016851803287863731 0.18972785770893097 0.052754521369934082
0.050719894468784332 0.19684378802776337 0.045079335570335388
0.093091599643230438 0.20572055876255035 0.034123849123716354
0.13742952048778534 0.21564556658267975 0.021028697490692139
0.19006434082984924 0.22684600949287415 0.0060791019350290298
0.24742595851421356 0.23966477811336517 0.0003001182631123811
0.31195330619812012 0.25321477651596069 1.9175566023932333e-07
0.37194088101387024 0.26351341605186462 0
0.42615428566932678 0.27076205611228943 0
0.4853646457195282 0.27632030844688416 0
0.53820204734802246 0.27992144227027893 0
0.59284675121307373 0.28287991881370544 0
0.64166760444641113 0.28576886653900146 0
0.68787151575088501 0.28990665078163147 0
0.72676217555999756 0.29385855793952942 0
0.76677948236465454 0.29918813705444336 0
0.80055779218673706 0.30495887994766235 0
0.8346099853515625 0.31068557500839233 0
0.8664710521697998 0.31702175736427307 0
0.8942568302154541 0.32336392998695374 0
0.92246872186660767 0.33088865876197815 0
0.94776111841201782 0.33803179860115051 0
0.97351038455963135 0.34593504667282104 0
0.99516534805297852 0.35344028472900391 0
0.99999785423278809 0.36118641495704651 0
0.99993604421615601 0.36893913149833679 0
0.99999147653579712 0.37665584683418274 0
0.99999874830245972 0.38412916660308838 0
0 0.23306992650032043 0.048684410750865936
0 0.23176151514053345 0.051915634423494339
0 0.22796294093132019 0.056085478514432907
2.868800402211491e-05 0.22272996604442596 0.061101607978343964
0.0031313959043473005 0.22008121013641357 0.063740670680999756
0.028506390750408173 0.22629740834236145 0.05754493921995163
0.075127236545085907 0.23534496128559113 0.047206498682498932
0.12134233862161636 0.24542613327503204 0.033806212246417999
0.17369501292705536 0.25745978951454163 0.016041485592722893
0.22834305465221405 0.26979437470436096 0.0028268930036574602
0.29458796977996826 0.28473028540611267 2.8678608941845596e-05
0.3624190092086792 0.29888689517974854 0
0.4180867075920105 0.30836647748947144 0
0.47728997468948364 0.31603908538818359 0
0.52943336963653564 0.32121556997299194 0
0.58418697118759155 0.3251824676990509 0
0.63377881050109863 0.32765746116638184 0
0.68085676431655884 0.33045226335525513 0
0.72007596492767334 0.33389577269554138 0
0.75983744859695435 0.33878114819526672 0
0.79335707426071167 0.34362655878067017 0
0.82775169610977173 0.34879025816917419 0
0.85994774103164673 0.35481566190719604 0
0.88792204856872559 0.36029210686683655 0
0.91629487276077271 0.36668461561203003 0
0.94198423624038696 0.37277233600616455 0
0.96823465824127197 0.37951794266700745 0
0.99134641885757446 0.3857121467590332 0
0.99977773427963257 0.39218121767044067 0
0.99996572732925415 0.39865174889564514 0
0.99999773502349854 0.40498605370521545 0
1 0.4116329550743103 0
0 0.27392449975013733 0.056350111961364746
0 0.27284717559814453 0.059506051242351532
0 0.26892468333244324 0.06358722597360611
0 0.26426538825035095 0.06921667605638504
3.5855427995556965e-05 0.25868427753448486 0.075125627219676971
0.0079395230859518051 0.26098504662513733 0.07289770245552063
0.050051216036081314 0.26985490322113037 0.063872881233692169
0.10211287438869476 0.27954071760177612 0.051223650574684143
0.1557091623544693 0.29125475883483887 0.03348507359623909
0.20840179920196533 0.30274063348770142 0.013180219568312168
0.27068972587585449 0.31631481647491455 0.0007335547124966979
0.34028619527816772 0.33170244097709656 3.2935859053395689e-06
0.40475010871887207 0.34512311220169067 0
0.46617022156715393 0.35568138957023621 0
0.51819193363189697 0.36218553781509399 0
0.57251912355422974 0.36766353249549866 0
0.62250024080276489 0.37151476740837097 0
0.67042595148086548 0.37487804889678955 0
0.71072715520858765 0.37689357995986938 0
0.75155210494995117 0.38009476661682129 0
0.78520429134368896 0.38392558693885803 0
0.81998616456985474 0.38880518078804016 0
0.85223114490509033 0.39407283067703247 0
0.88079512119293213 0.3988834023475647 0
0.9094422459602356 0.40406104922294617 0
0.93547219038009644 0.4093138575553894 0
0.96180826425552368 0.41494825482368469 0
0.98588991165161133 0.42012256383895874 0
0.99908590316772461 0.425223708152771 0
0.99993294477462769 0.43028870224952698 0
0.99995476007461548 0.43524140119552612 0
0.99995768070220947 0.44078308343887329 0
0 0.31604394316673279 0.065793052315711975
0 0.31572312116622925 0.06929856538772583
0 0.31223651766777039 0.073445156216621399
0 0.30742526054382324 0.078664340078830719
0 0.3010353147983551 0.0849170982837677
0.00071831297827884555 0.29755690693855286 0.08801327645778656
0.020302450284361839 0.30341669917106628 0.08133041113615036
0.077591150999069214 0.31231239438056946 0.070584431290626526
0.13563789427280426 0.3234708309173584 0.055330850183963776
0.18846245110034943 0.33450868725776672 0.034341536462306976
0.24809277057647705 0.34739172458648682 0.0093710357323288918
0.31332460045814514 0.36140692234039307 0.00042511479114182293
0.37675723433494568 0.3751848042011261 0
0.448903888463974 0.39060702919960022 0
0.5058053731918335 0.40033850073814392 0
0.56049329042434692 0.40775951743125916 0
0.61041855812072754 0.41282826662063599 0
0.65839540958404541 0.41714969277381897 0
0.69942229986190796 0.41987240314483643 0
0.74116599559783936 0.42281568050384521 0
0.77595728635787964 0.42483183741569519 0
0.81179177761077881 0.42790359258651733 0
0.84456181526184082 0.43188729882240295 0
0.87349110841751099 0.43614834547042847 0
0.90277624130249023 0.44081714749336243 0
0.92888015508651733 0.44522479176521301 0
0.95560044050216675 0.44968956708908081 0
0.98028618097305298 0.45391982793807983 0
0.99765199422836304 0.45817086100578308 0
0.999988853931427 0.46245020627975464 0
0.9999929666519165 0.46660405397415161 0
0.99999457597732544 0.47099298238754272 0
0 0.35317206382751465 0.075287550687789917
0 0.35328850150108337 0.07889450341463089
0 0.34971994161605835 0.082823850214481354
0 0.34505394101142883 0.087807916104793549
0 0.33893191814422607 0.093977943062782288
9.6299686447309796e-07 0.33250918984413147 0.099701695144176483
0.0039593791589140892 0.33402919769287109 0.098360568284988403
0.050328478217124939 0.34216317534446716 0.088690012693405151
0.11633823066949844 0.35251176357269287 0.075835667550563812
0.17081038653850555 0.36323463916778564 0.058172374963760376
0.22991093993186951 0.37578955292701721 0.031788017600774765
0.29241263866424561 0.38920053839683533 0.0061859716661274433
0.35226106643676758 0.40166792273521423 0.00017142006254289299
0.42276045680046082 0.41659945249557495 4.3592459064711875e-07
0.48876741528511047 0.43094679713249207 0
0.54869741201400757 0.44070050120353699 0
0.59897434711456299 0.44698908925056458 0
0.64733803272247314 0.45208793878555298 0
0.68788605928421021 0.45557066798210144 0
0.72972440719604492 0.45887318253517151 0
0.7652016282081604 0.46094527840614319 0
0.80223351716995239 0.46322983503341675 0
0.83654516935348511 0.4653591513633728 0
0.86617743968963623 0.46836388111114502 0
0.8954395055770874 0.47195515036582947 0
0.92197281122207642 0.47549188137054443 0
0.94934940338134766 0.47937750816345215 0
0.97434759140014648 0.48292934894561768 0
0.99536401033401489 0.48619464039802551 0
0.99998146295547485 0.48973724246025085 0
0.99994194507598877 0.49304062128067017 0
0.99994724988937378 0.49674621224403381 0
0 0.39308303594589233 0.087510660290718079
0 0.39309987425804138 0.090598553419113159
0 0.38975656032562256 0.094279557466506958
0 0.38546100258827209 0.099221870303153992
0 0.3795047402381897 0.10470859706401825
0 0.37272092700004578 0.11119616776704788
0.0002145504840882495 0.36795836687088013 0.11560560017824173
0.022389471530914307 0.37384918332099915 0.10896226018667221
0.091938704252243042 0.38329800963401794 0.09751206636428833
0.15088161826133728 0.39339956641197205 0.08386944979429245
0.21007201075553894 0.40521565079689026 0.063465423882007599
0.27060338854789734 0.41777783632278442 0.032836601138114929
0.32779130339622498 0.42979356646537781 0.0072018560022115707
0.39396318793296814 0.44315025210380554 0.00023348651302512735
0.45716819167137146 0.4562704861164093 0
0.52744948863983154 0.4711383581161499 0
0.58540326356887817 0.48091396689414978 0
0.63452714681625366 0.48716747760772705 0
0.67560094594955444 0.49184742569923401 0
0.7178800106048584 0.49578756093978882 0
0.75378894805908203 0.49838346242904663 0
0.79154199361801147 0.50106352567672729 0
0.82638758420944214 0.50267893075942993 0
0.85671120882034302 0.50379085540771484 0
0.88742774724960327 0.50549077987670898 0
0.91487306356430054 0.5079195499420166 0
0.94251948595046997 0.51078134775161743 0
0.96764630079269409 0.51363122463226318 0
0.99177831411361694 0.51661241054534912 0
0.99999022483825684 0.51940608024597168 0
0.9999963641166687 0.52196913957595825 0
0.99999594688415527 0.52510374784469604 0
0 0.42795148491859436 0.099338032305240631
0 0.42825192213058472 0.10253244638442993
0 0.42503699660301208 0.10617952793836594
0 0.42124763131141663 0.1106056347489357
0 0.41543948650360107 0.11543533205986023
0 0.40883296728134155 0.12138305604457855
0 0.4009699821472168 0.1279972642660141
0.0070533594116568565 0.40219360589981079 0.12682628631591797
0.065901368856430054 0.41085320711135864 0.11730087548494339
0.13177910447120667 0.42025861144065857 0.10565191507339478
0.19278933107852936 0.43139779567718506 0.089621990919113159
0.25291594862937927 0.44350668787956238 0.066654853522777557
0.3081149160861969 0.45478764176368713 0.036654811352491379
0.37140956521034241 0.46762475371360779 0.0070427167229354382
0.43131348490715027 0.47940936684608459 0.00025385690969415009
0.4988284707069397 0.49269771575927734 9.3730170647177147e-07
0.56511366367340088 0.50668036937713623 0
0.62238103151321411 0.51644641160964966 0
0.66432219743728638 0.52161365747451782 0
0.70694464445114136 0.52615928649902344 0
0.74344408512115479 0.52970218658447266 0
0.78156423568725586 0.53258621692657471 0
0.8167305588722229 0.53454142808914185 0
0.84805995225906372 0.53609740734100342 0
0.87955623865127563 0.53701543807983398 0
0.90748423337936401 0.53743994235992432 0
0.93576526641845703 0.53882193565368652 0
0.96186679601669312 0.54103237390518188 0
0.98772561550140381 0.54329872131347656 0
0.99973398447036743 0.54548019170761108 0
0.99996435642242432 0.54730242490768433 0
0.99999284744262695 0.55002987384796143 0
0 0.46494922041893005 0.11377033591270447
0 0.46540820598602295 0.11709857732057571
0 0.46259838342666626 0.12001396715641022
0 0.45873880386352539 0.12411709874868393
0 0.45337653160095215 0.12878730893135071
0 0.44735413789749146 0.13421174883842468
0 0.43969842791557312 0.14073193073272705
0.001185988774523139 0.43488895893096924 0.14432547986507416
0.036653000861406326 0.44009849429130554 0.13836382329463959
0.1114712730050087 0.44907227158546448 0.1291404515504837
0.1757897287607193 0.45972141623497009 0.11647456884384155
0.2355383038520813 0.47064802050590515 0.099204383790493011
0.28938677906990051 0.4809955358505249 0.078080333769321442
0.3502621054649353 0.49311327934265137 0.044658508151769638
0.40726575255393982 0.50404685735702515 0.012957711704075336
0.47074124217033386 0.51583653688430786 0.00076092238305136561
0.53405302762985229 0.52803629636764526 1.4182248833094491e-06
0.59921318292617798 0.54157000780105591 0
0.64999496936798096 0.55038237571716309 0
0.69485998153686523 0.5560150146484375 0
0.73184281587600708 0.56026768684387207 0
