LUTs/Kodak Portra 160 1 -.cube
# Created by: G'MIC (https://gmic.eu)
TITLE "Kodak Portra 160 1 -"
# LUT size
LUT_3D_SIZE 5
# Data domain
# LUT data points
DOMAIN_MIN 0.000000 0.000000 0.000000
DOMAIN_MAX 0.903226 0.903226 0.903226
0.0040445365011692047 0.00558893708512187 0.0043057040311396122
0.20281434059143066 0.0058804769068956375 0.0022635112982243299
0.55398058891296387 0 0
0.78132712841033936 0 0
0.92972636222839355 0.071762539446353912 0
0 0.20590746402740479 5.4765414461144246e-06
0.18169787526130676 0.22610820829868317 0
0.59140437841415405 0.26441842317581177 0
0.78703165054321289 0.24842904508113861 0
0.93057286739349365 0.27703124284744263 0
0 0.47364717721939087 0
0.17446702718734741 0.46112480759620667 0
0.46816632151603699 0.50016462802886963 0
0.74527436494827271 0.53050500154495239 0
0.93156003952026367 0.51008349657058716 0
0.22123780846595764 0.63124138116836548 0.12299177795648575
0.28539085388183594 0.62103652954101562 0.10778612643480301
0.44006913900375366 0.62428885698318481 0.098589681088924408
0.63947904109954834 0.66020584106445312 0.12265503406524658
0.86815261840820312 0.71275860071182251 0.05669223889708519
0.4221971333026886 0.79536741971969604 0.30780333280563354
0.4494527280330658 0.79091978073120117 0.30033057928085327
0.51732736825942993 0.77989256381988525 0.27998992800712585
0.65593308210372925 0.80586749315261841 0.30252695083618164
0.82281643152236938 0.84085756540298462 0.32843068242073059
0 0.017682973295450211 0.23273803293704987
0.22328305244445801 0.00517298374325037 0.23830471932888031
0.57080274820327759 0 0.23942159116268158
0.76254832744598389 0.001289455802179873 0.22604456543922424
0.91125291585922241 0.16119919717311859 0.22881937026977539
0 0.26166906952857971 0.23626625537872314
0.24647141993045807 0.26160785555839539 0.24699132144451141
0.57125526666641235 0.25920385122299194 0.24038676917552948
0.76569145917892456 0.26695135235786438 0.22761720418930054
0.9138176441192627 0.3041970431804657 0.22109203040599823
0.15646255016326904 0.51345151662826538 0.26972633600234985
0.27279338240623474 0.49674275517463684 0.25571808218955994
0.4930272102355957 0.51176750659942627 0.25462517142295837
0.74874109029769897 0.53006857633590698 0.21840757131576538
0.91891205310821533 0.51500576734542847 0.19023574888706207
0.30101501941680908 0.64767277240753174 0.3021484911441803
0.34623175859451294 0.63801336288452148 0.28958320617675781
0.45821785926818848 0.62747782468795776 0.27132269740104675
0.64467740058898926 0.66405665874481201 0.30066478252410889
0.86934179067611694 0.71362012624740601 0.28813862800598145
0.43611043691635132 0.80218267440795898 0.38735044002532959
0.46144461631774902 0.79766428470611572 0.37969973683357239
0.52333462238311768 0.78426390886306763 0.35608762502670288
0.65565007925033569 0.80569171905517578 0.37233209609985352
0.82357585430145264 0.8420029878616333 0.40044876933097839
0 0.071822158992290497 0.5543704628944397
0.25036942958831787 0.092457108199596405 0.55868250131607056
0.56881290674209595 0.15263892710208893 0.56510037183761597
0.77783203125 0.26967763900756836 0.54724931716918945
0.90816384553909302 0.31881272792816162 0.52183526754379272
0.023585652932524681 0.30056542158126831 0.54495543241500854
0.3059864342212677 0.32208764553070068 0.55340361595153809
0.56440472602844238 0.35855025053024292 0.55997604131698608
0.75649029016494751 0.40235164761543274 0.54818689823150635
0.8921087384223938 0.39307370781898499 0.51732659339904785
0.17639763653278351 0.56032812595367432 0.53753292560577393
0.34908917546272278 0.55718147754669189 0.53996741771697998
0.54203552007675171 0.54383689165115356 0.538074791431427
0.71612811088562012 0.53234952688217163 0.52076572179794312
0.87891417741775513 0.52907252311706543 0.50387340784072876
0.38930299878120422 0.69478482007980347 0.51853394508361816
0.44249793887138367 0.68824911117553711 0.52410531044006348
0.51978158950805664 0.6582033634185791 0.50450700521469116
0.65953069925308228 0.67707937955856323 0.51352107524871826
0.87968266010284424 0.71276748180389404 0.50644451379776001
0.47149237990379333 0.82617592811584473 0.54035264253616333
0.4917018711566925 0.82097154855728149 0.53204208612442017
0.54416036605834961 0.80553489923477173 0.50649380683898926
0.6510549783706665 0.80452370643615723 0.4930722713470459
0.82779228687286377 0.84509813785552979 0.52801716327667236
0.21324683725833893 0.21769936382770538 0.73597580194473267
0.36234721541404724 0.24357758462429047 0.73851805925369263
0.56897103786468506 0.30809319019317627 0.73965573310852051
0.74801701307296753 0.3827129602432251 0.73954480886459351
0.90855449438095093 0.44867417216300964 0.73332107067108154
0.30696818232536316 0.38340684771537781 0.72887504100799561
0.40722367167472839 0.39668163657188416 0.73080885410308838
0.57467186450958252 0.43238964676856995 0.7332146167755127
0.74004018306732178 0.47627925872802734 0.73629850149154663
0.90122920274734497 0.5171959400177002 0.73441022634506226
0.32530897855758667 0.54199618101119995 0.70288228988647461
0.41607445478439331 0.55035686492919922 0.70571684837341309
0.57090336084365845 0.57511246204376221 0.71440869569778442
0.72405064105987549 0.60539931058883667 0.72579711675643921
0.89354580640792847 0.62820315361022949 0.73560863733291626
0.41020998358726501 0.73001968860626221 0.70750999450683594
0.46197685599327087 0.7281259298324585 0.70798397064208984
0.56995421648025513 0.72131133079528809 0.70697510242462158
0.70306360721588135 0.70981293916702271 0.70405292510986328
0.87418937683105469 0.69518065452575684 0.68616342544555664
0.50842821598052979 0.87425750494003296 0.70300024747848511
0.53217130899429321 0.87171804904937744 0.70163744688034058
0.58975380659103394 0.86109119653701782 0.69385397434234619
0.67088550329208374 0.82494699954986572 0.65969175100326538
0.84232378005981445 0.85272866487503052 0.67804425954818726
0.44678720831871033 0.40666845440864563 0.89566147327423096
0.50136041641235352 0.41944733262062073 0.89527720212936401
0.61611533164978027 0.45319357514381409 0.89462780952453613
0.75361734628677368 0.50853294134140015 0.89621591567993164
0.90211385488510132 0.54992222785949707 0.89833450317382812
0.46755829453468323 0.49204376339912415 0.89143329858779907
0.51577246189117432 0.50023525953292847 0.89197456836700439
0.62089234590530396 0.52185428142547607 0.89201277494430542
0.7543182373046875 0.56275802850723267 0.89469635486602783
0.90054500102996826 0.59271752834320068 0.89793437719345093
0.47605353593826294 0.60847562551498413 0.88020801544189453
0.51834583282470703 0.61241054534912109 0.88229119777679443
0.61976563930511475 0.62598639726638794 0.88543510437011719
0.75369119644165039 0.65287899971008301 0.89153528213500977
0.90011096000671387 0.67513209581375122 0.89876872301101685
0.43858492374420166 0.73310607671737671 0.87081116437911987
0.47662079334259033 0.72967648506164551 0.87063276767730713
0.57066047191619873 0.720225989818573 0.87028580904006958
0.73650538921356201 0.74298393726348877 0.88429433107376099
0.90437459945678711 0.77713549137115479 0.90066629648208618
0.48863893747329712 0.90764588117599487 0.88562130928039551
0.52314281463623047 0.90667957067489624 0.88602524995803833
0.6120256781578064 0.90442389249801636 0.88744765520095825
0.74585890769958496 0.89963579177856445 0.89005953073501587
0.89713996648788452 0.88846713304519653 0.88833338022232056
