LUTs/Kodak Kodachrome 64.cube
# Created by: G'MIC (https://gmic.eu)
TITLE "Kodak Kodachrome 64"
# LUT size
LUT_3D_SIZE 5
# Data domain
# LUT data points
DOMAIN_MIN 0.000000 0.000000 0.000000
DOMAIN_MAX 0.903226 0.903226 0.903226
0.0047513707540929317 0.0043756687082350254 0.0035478374920785427
0.15819051861763 0.011561514809727669 0.0026606319006532431
0.49131253361701965 0.047433283179998398 0.0011795071186497808
0.73525506258010864 0.076989360153675079 1.9812196114799008e-06
0.94091165065765381 0.11336663365364075 0
0.10187293589115143 0.18465453386306763 0.082651205360889435
0.22445058822631836 0.19555817544460297 0.078617498278617859
0.54042971134185791 0.22210881114006042 0.06644931435585022
0.76464414596557617 0.21847997605800629 0.046521607786417007
0.95177227258682251 0.19568262994289398 0.019197197631001472
0.14009490609169006 0.50238734483718872 0.22323514521121979
0.34834766387939453 0.51660364866256714 0.21870386600494385
0.61775022745132446 0.54163932800292969 0.20673808455467224
0.83056545257568359 0.55349946022033691 0.18584637343883514
0.99984663724899292 0.54061061143875122 0.14843964576721191
0.40175959467887878 0.71461552381515503 0.40819990634918213
0.48928171396255493 0.72242099046707153 0.40634271502494812
0.66016614437103271 0.73922538757324219 0.39962291717529297
0.84542441368103027 0.7573661208152771 0.38402813673019409
1 0.77290064096450806 0.34508800506591797
0.54266726970672607 0.88950914144515991 0.57351469993591309
0.59440356492996216 0.89457052946090698 0.57268810272216797
0.71169108152389526 0.90671151876449585 0.56939959526062012
0.86612904071807861 0.92347699403762817 0.56230437755584717
1 0.94207245111465454 0.54441481828689575
0 0.00045405901619233191 0.08266487717628479
0.12966762483119965 0.0036867787130177021 0.080609478056430817
0.46284723281860352 0.028085106983780861 0.071894757449626923
0.70205366611480713 0.051819551736116409 0.05476219579577446
0.90993183851242065 0.089716590940952301 0.033776096999645233
0.062661595642566681 0.1633792519569397 0.19482369720935822
0.18755434453487396 0.17488217353820801 0.19157858192920685
0.50236493349075317 0.20084838569164276 0.18077863752841949
0.72299349308013916 0.19616131484508514 0.16018849611282349
0.91163438558578491 0.17036186158657074 0.12230044603347778
0.078172162175178528 0.474800705909729 0.36195892095565796
0.30089250206947327 0.49055933952331543 0.35982134938240051
0.56285083293914795 0.51321613788604736 0.35312706232070923
0.77434909343719482 0.52464115619659424 0.33713725209236145
0.96956497430801392 0.51313275098800659 0.29754477739334106
0.35862654447555542 0.69518202543258667 0.50386548042297363
0.44778987765312195 0.7027822732925415 0.50364154577255249
0.61953818798065186 0.71874731779098511 0.49976098537445068
0.80198228359222412 0.73513060808181763 0.49140501022338867
0.98845487833023071 0.74598348140716553 0.4715304970741272
0.52002006769180298 0.87938374280929565 0.62891846895217896
0.57202553749084473 0.88419604301452637 0.62821418046951294
0.68897873163223267 0.8960111141204834 0.62601959705352783
0.84273171424865723 0.91208088397979736 0.62107664346694946
0.99967062473297119 0.92962956428527832 0.60801070928573608
0 0 0.27534058690071106
0.044448535889387131 0 0.27647233009338379
0.3795284628868103 0.00095893064280971885 0.27158179879188538
0.6121106743812561 0.0056643420830368996 0.26111483573913574
0.81886082887649536 0.027334921061992645 0.24244575202465057
0.0035667929332703352 0.11905713379383087 0.38676416873931885
0.11463804543018341 0.13177941739559174 0.38478004932403564
0.42388975620269775 0.15576893091201782 0.37785202264785767
0.63682281970977783 0.14631381630897522 0.3632131814956665
0.81781435012817383 0.11154395341873169 0.33649477362632751
0.026555519551038742 0.44475764036178589 0.51472777128219604
0.25307080149650574 0.46180525422096252 0.51413816213607788
0.50208586454391479 0.48155781626701355 0.5103459358215332
0.70782697200775146 0.4905877411365509 0.50238382816314697
0.89418995380401611 0.47459328174591064 0.48291260004043579
0.31312459707260132 0.6735040545463562 0.61905241012573242
0.40298154950141907 0.68040364980697632 0.61863547563552856
0.57380014657974243 0.6955336332321167 0.61596572399139404
0.75406032800674438 0.71054661273956299 0.6113661527633667
0.93960762023925781 0.71914052963256836 0.59996849298477173
0.48512470722198486 0.86316555738449097 0.71908402442932129
0.5368155837059021 0.86766153573989868 0.7185976505279541
0.65318793058395386 0.87902843952178955 0.71736514568328857
0.8063545823097229 0.89463794231414795 0.71422034502029419
0.98203581571578979 0.91083747148513794 0.70557647943496704
0 0 0.43129312992095947
0.0054664872586727142 0 0.43122810125350952
0.31702017784118652 0 0.42740833759307861
0.54119306802749634 0 0.4219745397567749
0.73963510990142822 2.153366403945256e-05 0.41502925753593445
0 0.092536903917789459 0.52344352006912231
0.084476932883262634 0.10674896091222763 0.52156507968902588
0.37745699286460876 0.12781335413455963 0.51541686058044434
0.58106487989425659 0.11501909792423248 0.50342762470245361
0.75526207685470581 0.071949705481529236 0.48128139972686768
0.015740832313895226 0.42649754881858826 0.63634496927261353
0.22980885207653046 0.44249251484870911 0.63484674692153931
0.46129727363586426 0.45946627855300903 0.63232988119125366
0.66101443767547607 0.4672795832157135 0.62657010555267334
0.84404510259628296 0.44997683167457581 0.61208349466323853
0.27902069687843323 0.65445816516876221 0.72619712352752686
0.36830860376358032 0.66081291437149048 0.72571671009063721
0.53584593534469604 0.674885094165802 0.72462993860244751
0.71257162094116211 0.68891608715057373 0.7218778133392334
0.89526617527008057 0.69588965177536011 0.71412068605422974
0.45273241400718689 0.8462364673614502 0.81458550691604614
0.50321298837661743 0.85071194171905518 0.81457489728927612
0.6177830696105957 0.86136871576309204 0.81416630744934082
0.76915979385375977 0.87623900175094604 0.8127516508102417
0.94345730543136597 0.891254723072052 0.80759167671203613
0 0 0.55339246988296509
0.0018797535449266434 0 0.55223178863525391
0.27852976322174072 0 0.54940110445022583
0.49183106422424316 0 0.5440438985824585
0.68419164419174194 0 0.53924655914306641
0 0.076313897967338562 0.63830965757369995
0.092365682125091553 0.093333795666694641 0.63632559776306152
0.34708788990974426 0.10707816481590271 0.63118171691894531
0.53928369283676147 0.09036283940076828 0.62077063322067261
0.70591622591018677 0.03926418349146843 0.60110718011856079
0.045446142554283142 0.41462132334709167 0.74606353044509888
0.2212166041135788 0.4261225163936615 0.74551868438720703
0.43181997537612915 0.44063347578048706 0.74410867691040039
0.62255889177322388 0.44684186577796936 0.74028462171554565
0.80044162273406982 0.42824730277061462 0.72891145944595337
0.26235669851303101 0.63667601346969604 0.83237224817276001
0.34689414501190186 0.64259195327758789 0.83237224817276001
0.50480973720550537 0.65510803461074829 0.83233869075775146
0.67507839202880859 0.66779607534408569 0.83130508661270142
0.852824866771698 0.67298084497451782 0.82661247253417969
0.43105369806289673 0.82898485660552979 0.91634911298751831
0.47876083850860596 0.83294177055358887 0.91674232482910156
0.58783245086669922 0.84278267621994019 0.9173315167427063
0.73363536596298218 0.85650146007537842 0.91807830333709717
0.90224188566207886 0.86968481540679932 0.91705137491226196
