LUTs/Kodak Portra 160 1 -.cube
# Created by: G'MIC (https://gmic.eu)
TITLE "Kodak Portra 160 1 -"
# LUT size
LUT_3D_SIZE 32
# Data domain
DOMAIN_MIN 0.0 0.0 0.0
DOMAIN_MAX 1.0 1.0 1.0
# LUT data points
0.0040445365011692047 0.00558893708512187 0.0043057040311396122
0.01255680900067091 0.0059417877346277237 0.0044552036561071873
0.029307445511221886 0.0070285797119140625 0.0047164503484964371
0.054368127137422562 0.0076134186238050461 0.0046625337563455105
0.083019189536571503 0.009406212717294693 0.0043234750628471375
0.11640943586826324 0.010978045873343945 0.0039417315274477005
0.15796977281570435 0.010266311466693878 0.0033138769213110209
0.20281434059143066 0.0058804769068956375 0.0022635112982243299
0.25398993492126465 0.0015458767302334309 0.001126217539422214
0.30438897013664246 0.00010829103121068329 0.00051890331087633967
0.35931611061096191 0 0.00016655556100886315
0.41399788856506348 0 1.1128094229206908e-05
0.46158525347709656 0 0
0.51154047250747681 0 0
0.55398058891296387 0 0
0.59666889905929565 0 0
0.63376688957214355 0 0
0.66884827613830566 0 0
0.69985294342041016 0 0
0.73068636655807495 0 0
0.7559654712677002 0 0
0.78132712841033936 0 0
0.80480808019638062 0 0
0.82568120956420898 0 0
0.84725499153137207 0 0
0.86735665798187256 2.0767305613844655e-05 0
0.8884391188621521 0.0046377843245863914 0
0.90882265567779541 0.032210063189268112 0
0.92972636222839355 0.071762539446353912 0
0.95138245820999146 0.10350235551595688 0
0.97450834512710571 0.13110710680484772 0
0.99410253763198853 0.1545100212097168 0
0.004254655446857214 0.015075202099978924 0.0051818876527249813
0.011526425369083881 0.016135793179273605 0.0050231399945914745
0.02907068096101284 0.018552448600530624 0.0043937591835856438
0.056080944836139679 0.021462047472596169 0.003669550409540534
0.086335882544517517 0.025148646906018257 0.0030863930005580187
0.12034782022237778 0.027055520564317703 0.0023805692326277494
0.16221721470355988 0.026599016040563583 0.0018844306468963623
0.20744329690933228 0.022899150848388672 0.0011376342736184597
0.25920218229293823 0.015369764529168606 0.00054950994672253728
0.30932307243347168 0.0066859615035355091 0.00018687108240555972
0.36375689506530762 0.0016306195175275207 1.6688303730916232e-05
0.41785365343093872 0.00019628518202807754 8.8207610104973355e-09
0.46497789025306702 2.1176842892600689e-06 0
0.51413577795028687 0 0
0.55589216947555542 0 0
0.59772801399230957 0 0
0.6344679594039917 0 0
0.66924947500228882 0 0
0.70020276308059692 0 0
0.73092764616012573 0 0
0.75611191987991333 0 0
0.7813677191734314 0 0
0.80467438697814941 0 0
0.82569527626037598 5.5774398788344115e-07 0
0.84713727235794067 0.00026746309595182538 0
0.86713165044784546 0.0038421875797212124 0
0.88818222284317017 0.0274631567299366 0
0.90852218866348267 0.062487371265888214 0
0.92949491739273071 0.093029782176017761 0
0.95102453231811523 0.11920434981584549 0
0.97405314445495605 0.1440177857875824 0
0.99363619089126587 0.16540157794952393 0
0.0044431178830564022 0.033224474638700485 0.0061597693711519241
0.011840361170470715 0.033744364976882935 0.0057707251980900764
0.026006145402789116 0.036566056311130524 0.0050107925198972225
0.051456362009048462 0.042955517768859863 0.0035012960433959961
0.086749181151390076 0.048962049186229706 0.0015287356218323112
0.12730623781681061 0.052559908479452133 0.00093027838738635182
0.17242811620235443 0.054029468446969986 0.00050463678780943155
0.21770352125167847 0.052555911242961884 0.00024067854974418879
0.26832902431488037 0.048098929226398468 7.361759344348684e-05
0.31750586628913879 0.040308170020580292 2.0640579805331072e-06
0.37100031971931458 0.028284957632422447 2.0453937210618278e-08
0.42389518022537231 0.015221310779452324 0
0.47031950950622559 0.0062435436993837357 0
0.51872479915618896 0.0017514240462332964 0
0.55980885028839111 0.00034227987634949386 0
0.60075896978378296 1.6072679500211962e-05 0
0.63698387145996094 0 0
0.67226862907409668 0 0
0.70273065567016602 0 0
0.7327340841293335 0 0
0.75721430778503418 1.7114427919295849e-06 0
0.78233969211578369 0.00014036915672477335 0
0.80540984869003296 0.0014883324038237333 0
0.82640218734741211 0.005772752221673727 0
0.84765172004699707 0.020029081031680107 0
0.86782234907150269 0.043063603341579437 0
0.88877177238464355 0.072177484631538391 0
0.90874415636062622 0.096846297383308411 0
0.92977821826934814 0.11962355673313141 0
0.95132935047149658 0.14101624488830566 0
0.97431027889251709 0.1621481329202652 0
0.99386334419250488 0.18160948157310486 0
0.0047214571386575699 0.05905885249376297 0.0063312137499451637
0.013491631485521793 0.05931394174695015 0.0062092714942991734
0.026683095842599869 0.061223451048135757 0.0054871351458132267
0.046771708875894547 0.065788418054580688 0.0042068078182637691
0.079003401100635529 0.074535682797431946 0.0018280224176123738
0.1232651025056839 0.083433367311954498 0.00041899381903931499
0.1762467622756958 0.088337160646915436 4.4036110921297222e-05
0.22710530459880829 0.089480899274349213 1.9378828710614471e-06
0.27934437990188599 0.087819121778011322 3.148628024973732e-07
0.32811790704727173 0.084229014813899994 0
0.38081586360931396 0.07760804146528244 0
0.43246468901634216 0.067790515720844269 0
0.47782599925994873 0.056585170328617096 0
0.52521252632141113 0.043038833886384964 0
0.56549727916717529 0.032423272728919983 0
0.60555130243301392 0.023682840168476105 0
0.64162707328796387 0.018819626420736313 0
0.67726421356201172 0.01693202368915081 0
0.7064628005027771 0.017057670280337334 0
0.73562490940093994 0.019161175936460495 0
0.75998479127883911 0.02357284352183342 0
0.78451025485992432 0.030885878950357437 0
0.80714809894561768 0.042825020849704742 0
0.82766753435134888 0.058827288448810577 0
0.84913134574890137 0.078638084232807159 0
0.86881333589553833 0.096415109932422638 0
0.89006310701370239 0.11504736542701721 0
0.91000533103942871 0.13239635527133942 0
0.93116611242294312 0.15006278455257416 0
0.95236432552337646 0.16702406108379364 0
0.97539204359054565 0.18520702421665192 0
0.9946364164352417 0.20244260132312775 0
0.0021044427994638681 0.08852454274892807 0.0049805887974798679
0.0093732317909598351 0.088384054601192474 0.0051554013043642044
0.022973204031586647 0.089814350008964539 0.0048251524567604065
0.043614931404590607 0.093580678105354309 0.0036075334064662457
0.070757940411567688 0.098735921084880829 0.0019615008495748043
0.10943545401096344 0.10984064638614655 0.00052605400560423732
0.16418945789337158 0.1231948584318161 4.4390158109308686e-06
0.22153249382972717 0.12916843593120575 0
0.28396415710449219 0.13114564120769501 0
0.33773952722549438 0.12976852059364319 0
0.39068347215652466 0.12644656002521515 0
0.44101518392562866 0.12131018191576004 0
0.4852028489112854 0.1161007434129715 0
0.53136122226715088 0.1088220626115799 0
0.57007348537445068 0.10199230909347534 0
0.60922056436538696 0.09483744204044342 0
0.64584577083587646 0.090415582060813904 0
0.6802678108215332 0.088164143264293671 0
0.70857590436935425 0.088464640080928802 0
0.73700618743896484 0.091188676655292511 0
0.76048004627227783 0.09489026665687561 0
0.78479528427124023 0.10113755613565445 0
0.80714815855026245 0.10912998020648956 0
0.82761925458908081 0.1182042732834816 0
0.84883695840835571 0.12911468744277954 0
0.86860328912734985 0.14053851366043091 0
0.88961142301559448 0.15340223908424377 0
0.90952807664871216 0.16639949381351471 0
0.93052256107330322 0.1799607127904892 0
0.95162653923034668 0.19405166804790497 0
0.97478199005126953 0.20958983898162842 0
0.99423038959503174 0.22434027493000031 0
0.00010451715206727386 0.12510795891284943 0.0028586906846612692
0.0021351147443056107 0.12446725368499756 0.0027510945219546556
0.013544236309826374 0.1241745725274086 0.0027467836625874043
0.037316542118787766 0.1272575706243515 0.0019600824452936649
0.068647384643554688 0.13177119195461273 0.00083987013204023242
0.10269229114055634 0.13835656642913818 0.00032705097692087293
0.15022562444210052 0.15171524882316589 4.4625380724028219e-06
0.20839950442314148 0.16560465097427368 0
0.27301573753356934 0.17339405417442322 0
0.33373883366584778 0.17550072073936462 0
0.39537227153778076 0.17391626536846161 0
0.44920802116394043 0.17023506760597229 0
0.493155837059021 0.16629229485988617 0
0.53781604766845703 0.16123668849468231 0
0.57630783319473267 0.15705057978630066 0
0.61616510152816772 0.15340600907802582 0
0.65193885564804077 0.1509755402803421 0
0.68469822406768799 0.14921881258487701 0
0.71184301376342773 0.14892980456352234 0
0.73943608999252319 0.14981625974178314 0
0.76248598098754883 0.15167666971683502 0
0.78622901439666748 0.15486957132816315 0
0.80828821659088135 0.15950988233089447 0
0.82838624715805054 0.16511350870132446 0
0.84949630498886108 0.17253415286540985 0
0.86936742067337036 0.18081586062908173 0
0.89021193981170654 0.19030347466468811 0
0.91008144617080688 0.20026379823684692 0
0.93104058504104614 0.21147847175598145 0
0.95248347520828247 0.22329886257648468 0
0.97523140907287598 0.23625679314136505 0
0.99471580982208252 0.24914994835853577 0
0 0.1656283438205719 0.0005831356393173337
1.1308109606034122e-05 0.16519060730934143 0.00051511562196537852
0.0028961410280317068 0.16347512602806091 0.00060594064416363835
0.025417117401957512 0.1648661345243454 0.00044145042193122208
0.062554232776165009 0.16942451894283295 0.00012562352640088648
0.09970371425151825 0.17487345635890961 5.5766390687495004e-06
0.14088332653045654 0.18213680386543274 3.6817088044927004e-08
0.19050131738185883 0.19550195336341858 0
0.2562527060508728 0.21325278282165527 0
0.31874659657478333 0.22091081738471985 0
0.38482174277305603 0.22407150268554688 0
0.44822874665260315 0.2227213978767395 0
0.49914509057998657 0.21911701560020447 0
0.54624396562576294 0.21517197787761688 0
0.58552473783493042 0.21262915432453156 0
0.62410175800323486 0.20983746647834778 0
0.65749573707580566 0.20695078372955322 0
0.68871045112609863 0.2047751396894455 0
0.71491026878356934 0.20355872809886932 0
0.74150830507278442 0.20293013751506805 0
0.76392233371734619 0.20345652103424072 0
0.78689670562744141 0.20469444990158081 0
0.80890852212905884 0.20699052512645721 0
0.82893437147140503 0.21053814888000488 0
0.8497808575630188 0.21556200087070465 0
0.86954319477081299 0.22128450870513916 0
0.89011430740356445 0.22845348715782166 0
0.9102512001991272 0.23629051446914673 0
0.93130767345428467 0.2452208399772644 0
0.95255762338638306 0.25470057129859924 0
0.97548431158065796 0.26560831069946289 0
0.99499458074569702 0.2772902250289917 0
0 0.20590746402740479 5.4765414461144246e-06
0 0.20539811253547668 6.9879597504041158e-06
0.0001402936177328229 0.20299966633319855 2.3049031369737349e-05
0.012478676624596119 0.20228426158428192 6.1749160522595048e-06
0.052519727498292923 0.2058512419462204 6.9888551479380112e-07
0.094865217804908752 0.21130914986133575 0
0.13842977583408356 0.21834477782249451 0
0.18169787526130676 0.22610820829868317 0
0.23698990046977997 0.24057158827781677 0
0.30094590783119202 0.25743541121482849 0
0.36896273493766785 0.26710125803947449 0
0.4344182014465332 0.27036616206169128 0
0.49141362309455872 0.27050322294235229 0
0.548564612865448 0.26800736784934998 0
0.59140437841415405 0.26441842317581177 0
0.62921398878097534 0.26009628176689148 0
0.66115856170654297 0.25659683346748352 0
0.6910778284072876 0.25341528654098511 0
0.71626478433609009 0.25109660625457764 0
0.74246972799301147 0.24951525032520294 0
0.76431363821029663 0.24872992932796478 0
0.78703165054321289 0.24842904508113861 0
0.80888718366622925 0.24935103952884674 0
0.82878017425537109 0.2512066662311554 0
0.84966319799423218 0.2546485960483551 0
0.86924642324447632 0.25888299942016602 0
0.88995617628097534 0.26423433423042297 0
0.90965557098388672 0.27024447917938232 0
0.93057286739349365 0.27703124284744263 0
0.9521675705909729 0.28489610552787781 0
0.97503578662872314 0.29399526119232178 0
0.99455314874649048 0.30377641320228577 0
0 0.25142627954483032 0
0 0.25151330232620239 0
0 0.24869410693645477 0
0.0036615310236811638 0.24618420004844666 0
0.038557566702365875 0.24735003709793091 0
0.088611118495464325 0.25217488408088684 0
0.13511715829372406 0.25839948654174805 0
0.17880901694297791 0.26512184739112854 0
0.22725886106491089 0.27351251244544983 0
0.28074365854263306 0.28689941763877869 0
0.3523465096950531 0.3085540235042572 0
0.42046761512756348 0.31837218999862671 0
0.47771462798118591 0.32183536887168884 0
0.5361478328704834 0.32174733281135559 0
0.58428221940994263 0.31906899809837341 0
0.62954449653625488 0.31394347548484802 0
0.66450464725494385 0.30889928340911865 0
0.69403833150863647 0.30451837182044983 0
0.71881365776062012 0.30083593726158142 0
0.74444055557250977 0.29809689521789551 0
0.76593053340911865 0.29623684287071228 0
0.7882002592086792 0.2946312427520752 0
0.80961877107620239 0.29400977492332458 0
0.82944083213806152 0.29452657699584961 0
0.85033535957336426 0.29650282859802246 0
0.86965519189834595 0.29879221320152283 0
0.89031898975372314 0.30269023776054382 0
0.91025334596633911 0.30712923407554626 0
0.93140733242034912 0.31267485022544861 0
0.95315670967102051 0.31896588206291199 0
0.97604954242706299 0.32615220546722412 0
0.99538743495941162 0.33488824963569641 0
0 0.29065179824829102 0
0 0.2911282479763031 0
0 0.28867876529693604 0
0.00066340621560811996 0.28576242923736572 0
0.023513821884989738 0.28449791669845581 0
0.079567976295948029 0.288554847240448 0
0.1311911940574646 0.29512670636177063 0
0.17702127993106842 0.30242234468460083 0
0.22638754546642303 0.31155535578727722 0
0.27456557750701904 0.3208450973033905 0
0.3333192765712738 0.33525821566581726 0
0.40358451008796692 0.35497379302978516 0
0.46278977394104004 0.36415991187095642 0
0.52097570896148682 0.36657902598381042 0
0.56920355558395386 0.36542603373527527 0
0.61616635322570801 0.36172959208488464 0
0.65663039684295654 0.35641258955001831 0
0.69234967231750488 0.35083949565887451 0
0.71908360719680786 0.34578481316566467 0
0.74443340301513672 0.34174114465713501 0
0.7655261754989624 0.33845207095146179 0
0.78768116235733032 0.33559992909431458 0
0.80910784006118774 0.33411887288093567 0
0.82873904705047607 0.3333916962146759 0
0.84949290752410889 0.33397990465164185 0
0.86892563104629517 0.33508434891700745 0
0.88981884717941284 0.33771863579750061 0
0.90964740514755249 0.34101900458335876 0
0.93085187673568726 0.34501215815544128 0
0.95262020826339722 0.34984630346298218 0
0.97581356763839722 0.35573822259902954 0
0.99529528617858887 0.3631095290184021 0
0 0.33512350916862488 0
0 0.33564352989196777 0
0 0.33366084098815918 0
7.3553101174184121e-06 0.33123975992202759 0
0.013482746668159962 0.3283923864364624 0
0.072292566299438477 0.33007216453552246 0
0.12889257073402405 0.33610621094703674 0
0.17595462501049042 0.3427409827709198 0
0.22470685839653015 0.35053130984306335 0
0.2708553671836853 0.35804972052574158 0
0.32246538996696472 0.36704939603805542 0
0.37938416004180908 0.37969440221786499 0
0.44055408239364624 0.39811968803405762 0
0.50179511308670044 0.40788382291793823 0
0.55015122890472412 0.40914162993431091 0
0.59738832712173462 0.40709978342056274 0
0.63939893245697021 0.40387141704559326 0
0.67900562286376953 0.3991081714630127 0
0.71177959442138672 0.39362967014312744 0
0.74271494150161743 0.38803637027740479 0
0.76502501964569092 0.38354617357254028 0
0.78698700666427612 0.3789767324924469 0
0.80834907293319702 0.37633761763572693 0
0.82812106609344482 0.37454056739807129 0
0.84869247674942017 0.37385544180870056 0
0.86814773082733154 0.37382704019546509 0
0.88911473751068115 0.37532401084899902 0
0.90892034769058228 0.37709030508995056 0
0.93035411834716797 0.37963852286338806 0
0.95186996459960938 0.38348433375358582 0
0.97537630796432495 0.38779968023300171 0
0.99494212865829468 0.39346468448638916 0
0 0.37780660390853882 0
0 0.3792673647403717 0
0 0.37752270698547363 0
0 0.37473544478416443 0
0.009670487605035305 0.37105336785316467 0
0.067387521266937256 0.36901313066482544 0
0.12594996392726898 0.37258204817771912 0
0.17316100001335144 0.37803265452384949 0
0.22130043804645538 0.38466742634773254 0
0.26596364378929138 0.39134737849235535 0
0.31516966223716736 0.39928057789802551 0
0.36577910184860229 0.4078829288482666 0
0.41433608531951904 0.41764584183692932 0
0.47645112872123718 0.43537145853042603 0
0.53017067909240723 0.44630330801010132 0
0.57854831218719482 0.44748806953430176 0
0.62083685398101807 0.44587701559066772 0
0.66089397668838501 0.44272902607917786 0
0.69522935152053833 0.43876618146896362 0
0.73013156652450562 0.43369972705841064 0
0.75855052471160889 0.42811548709869385 0
0.78569000959396362 0.42220735549926758 0
0.80819249153137207 0.41832968592643738 0
0.82788163423538208 0.41556987166404724 0
0.84881210327148438 0.41380980610847473 0
0.86831659078598022 0.41292399168014526 0
0.88895571231842041 0.41274869441986084 0
0.90925836563110352 0.41369915008544922 0
0.93074947595596313 0.41514572501182556 0
0.95271331071853638 0.41751891374588013 0
0.97635108232498169 0.42098525166511536 0
0.99572253227233887 0.42560723423957825 0
0 0.41208398342132568 0
0 0.41402637958526611 0
0 0.41222685575485229 0
2.2147783056425396e-06 0.40945634245872498 0
0.01064443401992321 0.40589269995689392 0
0.067901343107223511 0.40208244323730469 0
0.12500981986522675 0.40286043286323547 0
0.17196957767009735 0.4077751636505127 0
0.21925152838230133 0.41380035877227783 0
0.2627829909324646 0.41983711719512939 0
0.31022220849990845 0.42711141705513 0
0.35863995552062988 0.43462854623794556 0
0.4026588499546051 0.4419674277305603 0
0.45312252640724182 0.45135414600372314 0
0.50628983974456787 0.46658915281295776 0
0.56018614768981934 0.47774729132652283 0
0.60362082719802856 0.47865566611289978 0
0.64435797929763794 0.47685980796813965 0
0.67845630645751953 0.47422772645950317 0
0.71412765979766846 0.47056642174720764 0
0.74407047033309937 0.4658929705619812 0
0.77576643228530884 0.46027868986129761 0
0.80427676439285278 0.4550175666809082 0
0.82686412334442139 0.45115971565246582 0
0.84786695241928101 0.44819459319114685 0
0.86743849515914917 0.44622096419334412 0
0.888469398021698 0.44545012712478638 0
0.90864890813827515 0.44508561491966248 0
0.93038088083267212 0.44566011428833008 0
0.95270079374313354 0.44749882817268372 0
0.97643834352493286 0.44977927207946777 0
0.99572974443435669 0.45345592498779297 0
0 0.44629031419754028 0
0 0.44760236144065857 0
0 0.44616326689720154 0
0.00026764869107864797 0.44375765323638916 0
0.019407199695706367 0.44033327698707581 0
0.077610582113265991 0.43666017055511475 0
0.12777645885944366 0.43393522500991821 0
0.17213401198387146 0.43713697791099548 0
0.2177770733833313 0.44215327501296997 0
0.25949513912200928 0.44763422012329102 0
0.30490380525588989 0.45386838912963867 0
0.35045796632766724 0.46007415652275085 0
0.39228025078773499 0.46671789884567261 0
0.43820509314537048 0.47370293736457825 0
0.48125362396240234 0.48129656910896301 0
0.53337979316711426 0.49531668424606323 0
0.58324313163757324 0.50764662027359009 0
0.62550616264343262 0.50958311557769775 0
0.66057556867599487 0.50864851474761963 0
0.69676685333251953 0.50646424293518066 0
0.72751373052597046 0.50331467390060425 0
0.76002585887908936 0.49899950623512268 0
0.79087597131729126 0.4946276843547821 0
0.81806820631027222 0.48994317650794983 0
0.84490776062011719 0.48562198877334595 0
0.86732929944992065 0.48269042372703552 0
0.88846403360366821 0.48085975646972656 0
0.90897679328918457 0.47969856858253479 0
0.93086749315261841 0.47952353954315186 0
0.9534447193145752 0.48035269975662231 0
0.97725814580917358 0.48178058862686157 0
0.99606287479400635 0.48462286591529846 0
0 0.47364717721939087 0
0 0.47537356615066528 0
6.5228632593061775e-06 0.47392362356185913 0
0.0034437398426234722 0.47183042764663696 0
0.039070222526788712 0.46855124831199646 0
0.091742977499961853 0.4650571346282959 0
0.13472147285938263 0.4607064425945282 0
0.17446702718734741 0.46112480759620667 0
0.21798454225063324 0.46557304263114929 0
0.25779819488525391 0.47034025192260742 0
0.30124935507774353 0.47608643770217896 0
0.34485584497451782 0.48211100697517395 0
0.38458731770515442 0.48775178194046021 0
0.42826208472251892 0.4940757155418396 0
0.46816632151603699 0.50016462802886963 0
0.51169055700302124 0.50735008716583252 0
0.55868935585021973 0.5206800103187561 0
0.6076129674911499 0.53377562761306763 0
0.64405232667922974 0.53572887182235718 0
0.68061882257461548 0.53518491983413696 0
0.71214663982391357 0.53367924690246582 0
0.74527436494827271 0.53050500154495239 0
0.77646583318710327 0.52739983797073364 0
0.80522292852401733 0.52421844005584717 0
0.8347899317741394 0.5201532244682312 0
0.86144697666168213 0.51577556133270264 0
0.88717746734619141 0.51245146989822388 0
0.90927189588546753 0.5108795166015625 0
0.93156003952026367 0.51008349657058716 0
0.95416116714477539 0.50983333587646484 0
0.97829532623291016 0.51063120365142822 0
0.9966614842414856 0.51272678375244141 0
0 0.50101959705352783 0
7.6318276114761829e-05 0.50280052423477173 0
0.0027552049141377211 0.50134956836700439 0
0.026375489309430122 0.49949753284454346 0
0.072997413575649261 0.49660700559616089 0
0.11309030652046204 0.49347946047782898 0
0.14891164004802704 0.48929613828659058 0
0.18184001743793488 0.48666670918464661 0
0.22092224657535553 0.48927807807922363 0
0.25896912813186646 0.49375638365745544 0
0.30000370740890503 0.49878296256065369 0
0.34102919697761536 0.50373220443725586 0
0.37848809361457825 0.50888615846633911 0
0.4198974072933197 0.5147402286529541 0
0.45746022462844849 0.52011549472808838 0
0.49768146872520447 0.52610284090042114 0
0.53692090511322021 0.53300106525421143 0
0.58091545104980469 0.54466527700424194 0
0.6232648491859436 0.55741482973098755 0
0.66284787654876709 0.56240463256835938 0
0.69486099481582642 0.56210935115814209 0
0.7286306619644165 0.56118804216384888 0
0.76081055402755737 0.55933225154876709 0
0.7896696925163269 0.55673843622207642 0
0.81981498003005981 0.55390638113021851 0
0.84769678115844727 0.55093330144882202 0
0.87741291522979736 0.54779988527297974 0
0.90484368801116943 0.54473888874053955 0
0.93107146024703979 0.54240983724594116 0
0.95464468002319336 0.54120117425918579 0
0.97910255193710327 0.54119211435317993 0
0.99693053960800171 0.54224121570587158 0
0.004053010605275631 0.5255051851272583 0.00014617363922297955
0.014173825271427631 0.52649056911468506 0.0002362340601393953
0.036945577710866928 0.52521759271621704 0.00020715538994409144
0.072128847241401672 0.52373868227005005 0.00011586266191443428
0.10618136823177338 0.52136164903640747 6.4656946051400155e-05
0.1359284371137619 0.51822495460510254 3.1918112654238939e-05
0.16564108431339264 0.51457363367080688 7.4111644607910421e-06
0.19287480413913727 0.51059538125991821 2.0266656974854413e-06
0.22555990517139435 0.50992894172668457 0
0.26084029674530029 0.51349955797195435 0
0.29949820041656494 0.51802253723144531 0
0.33820733428001404 0.52280044555664062 0
0.37346738576889038 0.52726083993911743 0
0.41265049576759338 0.53268492221832275 0
0.44839558005332947 0.53795188665390015 0
0.48694857954978943 0.54353839159011841 0
0.52361541986465454 0.54940712451934814 0
0.56148678064346313 0.55625683069229126 0
0.59925824403762817 0.56649541854858398 0
0.64402389526367188 0.5816684365272522 0
0.6791684627532959 0.58726304769515991 0
0.71355736255645752 0.58825242519378662 0
0.7463066577911377 0.58754843473434448 0
0.7756233811378479 0.58627992868423462 0
0.80653542280197144 0.58489042520523071 0
0.83505117893218994 0.58315151929855347 0
0.86542266607284546 0.58093088865280151 0
0.89424073696136475 0.57817888259887695 0
0.92470133304595947 0.57577246427536011 0
0.95355886220932007 0.57290762662887573 0
0.98068958520889282 0.57133293151855469 0
0.99761337041854858 0.5716317892074585 0
0.048705581575632095 0.54775798320770264 0.0056057032197713852
0.072837859392166138 0.54891330003738403 0.0072766919620335102
0.092734105885028839 0.54778259992599487 0.0064726071432232857
