LUTs/Kodak Portra 800 3 +.cube
# Created by: G'MIC (https://gmic.eu)
TITLE "Kodak Portra 800 3 +"
# LUT size
LUT_3D_SIZE 5
# Data domain
# LUT data points
DOMAIN_MIN 0.000000 0.000000 0.000000
DOMAIN_MAX 0.903226 0.903226 0.903226
0.072377786040306091 0.089661382138729095 0.056093145161867142
0.22427231073379517 0.089234106242656708 0.051442097872495651
0.52881652116775513 0.0057271351106464863 0.031611297279596329
0.87102913856506348 0 0
0.99998360872268677 0.055229194462299347 0
0.033770658075809479 0.20046475529670715 0.079097829759120941
0.18704548478126526 0.22245799005031586 0.052823226898908615
0.49987423419952393 0.23232062160968781 0.012999583035707474
0.84064000844955444 0.24870166182518005 0
0.99997353553771973 0.29531583189964294 0
0 0.41195666790008545 0.0986761674284935
0.026808954775333405 0.41088131070137024 0.092653043568134308
0.4336513876914978 0.4881344735622406 0
0.78552925586700439 0.52833634614944458 0
0.99284183979034424 0.53102540969848633 0
0 0.64818042516708374 0.10872361809015274
0 0.64188408851623535 0.10379276424646378
0.30602291226387024 0.66680943965911865 0.013169770129024982
0.68920081853866577 0.7343829870223999 0
0.96262228488922119 0.77622115612030029 0
0 0.8793216347694397 0.26157054305076599
0.0037204769905656576 0.87652289867401123 0.25701314210891724
0.34277361631393433 0.87125933170318604 0.24298764765262604
0.6370587944984436 0.89766240119934082 0.16796845197677612
0.88398343324661255 0.92396068572998047 7.098230707924813e-05
0.06339610368013382 0.092499636113643646 0.2233184278011322
0.23611366748809814 0.082946449518203735 0.2315232902765274
0.54473030567169189 0 0.22062225639820099
0.88579869270324707 0 0.20155690610408783
0.99998021125793457 0.00035616609966382384 0.18049080669879913
0.06967461109161377 0.22152939438819885 0.21541579067707062
0.22311431169509888 0.23135881125926971 0.22322236001491547
0.54501283168792725 0.22990132868289948 0.21797432005405426
0.86067688465118408 0.22630462050437927 0.19450211524963379
0.99998313188552856 0.27900472283363342 0.1566275954246521
0.007452013436704874 0.45169118046760559 0.25123196840286255
0.14333993196487427 0.4456903338432312 0.2329627126455307
0.46038484573364258 0.49592295289039612 0.19193699955940247
0.787464439868927 0.5147663950920105 0.13558529317378998
0.99723976850509644 0.5301748514175415 0.079570405185222626
0 0.67033469676971436 0.24614787101745605
0 0.66391682624816895 0.24060025811195374
0.33234134316444397 0.66895759105682373 0.21613217890262604
0.69834548234939575 0.73682564496994019 0.11954545974731445
0.96268784999847412 0.77158719301223755 0.00071786396438255906
8.2716149336192757e-05 0.88341718912124634 0.35284724831581116
0.060810629278421402 0.88087278604507446 0.34793233871459961
0.36518058180809021 0.8734857439994812 0.33256039023399353
0.63982212543487549 0.89634180068969727 0.29528653621673584
0.88470602035522461 0.92404502630233765 0.18108190596103668
0 0.091422013938426971 0.52240324020385742
0.25455653667449951 0.06642458587884903 0.53393274545669556
0.59163415431976318 0 0.55888068675994873
0.87942135334014893 0 0.53841644525527954
0.9999847412109375 0 0.49245545268058777
0 0.23056039214134216 0.50950616598129272
0.2412567138671875 0.23715217411518097 0.52722859382629395
0.5866052508354187 0.21594785153865814 0.55220842361450195
0.87406080961227417 0.12896162271499634 0.52915400266647339
0.99999737739562988 0.1912626326084137 0.48933535814285278
9.303096157964319e-05 0.49050584435462952 0.49022766947746277
0.23967655003070831 0.50167596340179443 0.49964058399200439
0.52439308166503906 0.51591205596923828 0.51097261905670166
0.8195464015007019 0.52632582187652588 0.50393003225326538
0.99981051683425903 0.550495445728302 0.49432271718978882
0.2183309942483902 0.71513938903808594 0.52759414911270142
0.33270895481109619 0.71529841423034668 0.52883613109588623
0.43988797068595886 0.69901442527770996 0.48014554381370544
0.72106736898422241 0.74453353881835938 0.46844896674156189
0.95627343654632568 0.75810176134109497 0.43858754634857178
0.27915254235267639 0.89359331130981445 0.56302917003631592
0.30325430631637573 0.89238017797470093 0.54380345344543457
0.44411385059356689 0.8846251368522644 0.52335053682327271
0.64653527736663818 0.89166474342346191 0.50222140550613403
0.88456708192825317 0.92407840490341187 0.48094615340232849
0.061318933963775635 0.063954688608646393 0.79733759164810181
0.32102480530738831 0.012864073738455772 0.80408257246017456
0.61733072996139526 0 0.81417620182037354
0.88348639011383057 0 0.82515168190002441
0.99998611211776733 0 0.79215586185455322
0.021214684471487999 0.23905374109745026 0.79222416877746582
0.30938562750816345 0.2354750782251358 0.7975730299949646
0.6080329418182373 0.22397378087043762 0.80801326036453247
0.87370556592941284 0.22006751596927643 0.82103115320205688
0.99999880790710449 0.21656885743141174 0.78912121057510376
0 0.48614376783370972 0.75440031290054321
0.15616218745708466 0.48933860659599304 0.7617037296295166
0.55195224285125732 0.51384669542312622 0.77891546487808228
0.82874459028244019 0.54941725730895996 0.80062222480773926
0.99836766719818115 0.55320370197296143 0.78170621395111084
0.22218069434165955 0.7395331859588623 0.74182349443435669
0.35424521565437317 0.74234229326248169 0.74445366859436035
0.55807727575302124 0.74828410148620605 0.75053554773330688
0.76188075542449951 0.76383262872695923 0.76386487483978271
0.9496762752532959 0.78069120645523071 0.76887094974517822
0.51485335826873779 0.90810620784759521 0.7850610613822937
0.55086839199066162 0.90752100944519043 0.78448307514190674
0.63319766521453857 0.90447050333023071 0.78057384490966797
0.69762450456619263 0.89446872472763062 0.73480224609375
0.88746762275695801 0.9246366024017334 0.74359798431396484
0.35175895690917969 0.084470517933368683 0.96852558851242065
0.45565459132194519 0.061259131878614426 0.96885287761688232
0.6547170877456665 0.0093747423961758614 0.9697996973991394
0.86909681558609009 0.068121269345283508 0.97271734476089478
0.99999046325683594 0.18173153698444366 0.97535425424575806
0.34912118315696716 0.26483884453773499 0.96509778499603271
0.45344728231430054 0.26452302932739258 0.96580797433853149
0.64977997541427612 0.26795485615730286 0.96675008535385132
0.85969012975692749 0.31212678551673889 0.9692833423614502
0.99999934434890747 0.37136375904083252 0.97144496440887451
0.24811485409736633 0.50163209438323975 0.95126247406005859
0.40543141961097717 0.51643610000610352 0.95205825567245483
0.62020379304885864 0.53360313177108765 0.95391535758972168
0.82881170511245728 0.57581984996795654 0.95728111267089844
0.98818910121917725 0.61620450019836426 0.96166872978210449
0.18504810333251953 0.73527956008911133 0.92960089445114136
0.31378912925720215 0.73403525352478027 0.93007552623748779
0.51870858669281006 0.7308388352394104 0.93065780401229858
0.77691680192947388 0.76638096570968628 0.93932098150253296
0.94907307624816895 0.80700141191482544 0.94993478059768677
0.52052772045135498 0.91765058040618896 0.92210584878921509
0.56083709001541138 0.91780692338943481 0.92232036590576172
0.65738123655319214 0.91917979717254639 0.92391002178192139
0.78347533941268921 0.92350274324417114 0.92708611488342285
0.91543972492218018 0.93374884128570557 0.93469125032424927
