LUTs/Kodak Elite Color 200.cube
# Created by: G'MIC (https://gmic.eu)
TITLE "Kodak Elite Color 200"
# LUT size
LUT_3D_SIZE 32
# Data domain
DOMAIN_MIN 0.0 0.0 0.0
DOMAIN_MAX 1.0 1.0 1.0
# LUT data points
0.0069572310894727707 0.006055386271327734 0.0068479133769869804
0.020472986623644829 0.0067979791201651096 0.0087232347577810287
0.039383873343467712 0.0074028163217008114 0.0087427925318479538
0.060162317007780075 0.0079816225916147232 0.0092318961396813393
0.081326968967914581 0.0086772311478853226 0.010704096406698227
0.10054948180913925 0.0096039595082402229 0.011474150232970715
0.12118491530418396 0.010538938455283642 0.011950631625950336
0.14290434122085571 0.011215156875550747 0.013253387063741684
0.16562876105308533 0.012017915025353432 0.014677057042717934
0.18836073577404022 0.013068857602775097 0.015722896903753281
0.21362815797328949 0.014527362771332264 0.016855139285326004
0.24059951305389404 0.016023688018321991 0.019247598946094513
0.26559796929359436 0.017258595675230026 0.020882884040474892
0.29382568597793579 0.019397398456931114 0.022458374500274658
0.32071131467819214 0.021431814879179001 0.024030199274420738
0.35255330801010132 0.02331535704433918 0.02624078281223774
0.3863125741481781 0.024920493364334106 0.029042569920420647
0.42446202039718628 0.027324113994836807 0.031667906790971756
0.46206459403038025 0.030637975782155991 0.034991145133972168
0.50523859262466431 0.033860638737678528 0.038008172065019608
0.54423695802688599 0.036935646086931229 0.040591020137071609
0.5856553316116333 0.041148241609334946 0.044580243527889252
0.62580746412277222 0.046481505036354065 0.048845916986465454
0.66312992572784424 0.051249559968709946 0.052359189838171005
0.70319908857345581 0.057872947305440903 0.057097498327493668
0.7411264181137085 0.063841946423053741 0.061963267624378204
0.78038889169692993 0.072112306952476501 0.067900858819484711
0.81690305471420288 0.079647183418273926 0.073289208114147186
0.85428786277770996 0.088114678859710693 0.080185063183307648
0.88874572515487671 0.098748758435249329 0.087660998106002808
0.92341047525405884 0.11009131371974945 0.096277348697185516
0.95220088958740234 0.12140608578920364 0.10441446304321289
0.011736237443983555 0.01744408905506134 0.0080663114786148071
0.024014323949813843 0.018514296039938927 0.0087414700537919998
0.042523793876171112 0.01969120092689991 0.008746112696826458
0.062724269926548004 0.020953891798853874 0.0092990389093756676
0.083794228732585907 0.022126898169517517 0.010922280140221119
0.10287974029779434 0.023427253589034081 0.011454817838966846
0.1235421821475029 0.024686917662620544 0.012123935855925083
0.14506620168685913 0.02606646716594696 0.013657152652740479
0.16774630546569824 0.027380423620343208 0.014818126335740089
0.19049134850502014 0.028803540393710136 0.015818579122424126
0.21583700180053711 0.030920017510652542 0.017414279282093048
0.24260635673999786 0.032927323132753372 0.019602777436375618
0.26772043108940125 0.035132642835378647 0.020834345370531082
0.29583266377449036 0.037980332970619202 0.022522501647472382
0.32279470562934875 0.040418811142444611 0.024207567796111107
0.35468900203704834 0.043105144053697586 0.026665840297937393
0.38855862617492676 0.045449651777744293 0.029314732179045677
0.42626196146011353 0.048663664609193802 0.032012965530157089
0.46401289105415344 0.052486501634120941 0.035156700760126114
0.50718843936920166 0.056402865797281265 0.038134727627038956
0.54599273204803467 0.060168031603097916 0.040972691029310226
0.58733624219894409 0.065048277378082275 0.044859740883111954
0.62743932008743286 0.070689000189304352 0.049169421195983887
0.66458451747894287 0.0758543461561203 0.052934717386960983
0.70462614297866821 0.082396984100341797 0.057671178132295609
0.74243819713592529 0.088757850229740143 0.062464162707328796
0.78156989812850952 0.096762798726558685 0.068479143083095551
0.81854403018951416 0.1039726585149765 0.073979698121547699
0.85497450828552246 0.11268403381109238 0.08083653450012207
0.89018118381500244 0.1230282336473465 0.088199160993099213
0.92398059368133545 0.13445098698139191 0.096849985420703888
0.95321309566497803 0.14534656703472137 0.10499272495508194
0.019324334338307381 0.033480625599622726 0.0087152700871229172
0.029867140576243401 0.034261155873537064 0.0087678926065564156
0.046437382698059082 0.035659588873386383 0.0091720568016171455
0.06599937379360199 0.037349026650190353 0.010619362816214561
0.08629695326089859 0.038460846990346909 0.011470912955701351
0.10484865307807922 0.04027349129319191 0.011960539966821671
0.12590983510017395 0.041791189461946487 0.013398666866123676
0.147462397813797 0.043266382068395615 0.014692647382616997
0.17005643248558044 0.045222010463476181 0.015704965218901634
0.19275027513504028 0.046581856906414032 0.017247553914785385
0.21807926893234253 0.049076873809099197 0.019077097997069359
0.24483543634414673 0.051199428737163544 0.020280545577406883
0.26970294117927551 0.05366983637213707 0.021894317120313644
0.29787439107894897 0.056640297174453735 0.023986494168639183
0.32478412985801697 0.059205193072557449 0.025633081793785095
0.35672175884246826 0.061779230833053589 0.028158023953437805
0.39030188322067261 0.064469501376152039 0.030842795968055725
0.42834901809692383 0.067963778972625732 0.033771656453609467
0.46604037284851074 0.071676202118396759 0.036602605134248734
0.50922214984893799 0.07567913830280304 0.039709772914648056
0.5479089617729187 0.079480446875095367 0.04288666695356369
0.58900636434555054 0.084424547851085663 0.046557575464248657
0.62897849082946777 0.090139694511890411 0.051182098686695099
0.66622507572174072 0.095173589885234833 0.054917983710765839
0.70605301856994629 0.1016695573925972 0.059759143739938736
0.74397599697113037 0.10810364782810211 0.064744718372821808
0.78307563066482544 0.11554288864135742 0.070530273020267487
0.81924086809158325 0.12260619550943375 0.076246388256549835
0.85503876209259033 0.13134600222110748 0.083105139434337616
0.89047986268997192 0.1413206160068512 0.090372882783412933
0.9250372052192688 0.15254627168178558 0.099098600447177887
0.95407563447952271 0.16319765150547028 0.10728852450847626
0.029273206368088722 0.052002705633640289 0.0098278187215328217
0.0390658900141716 0.052983500063419342 0.010576365515589714
0.052601952105760574 0.054359938949346542 0.011443925090134144
0.070059463381767273 0.055667996406555176 0.01192143838852644
0.089484110474586487 0.057061295956373215 0.012618350796401501
0.10762737691402435 0.058628316968679428 0.013882839120924473
0.12883017957210541 0.060190070420503616 0.015277338214218616
0.14999568462371826 0.061923224478960037 0.016538480296730995
0.17261716723442078 0.063595928251743317 0.017982294782996178
0.19522911310195923 0.065292812883853912 0.01922566257417202
0.2207312285900116 0.067417837679386139 0.0209049042314291
0.24731038510799408 0.069884456694126129 0.022298054769635201
0.27209082245826721 0.072190441191196442 0.024071717634797096
0.30018657445907593 0.075041718780994415 0.025942472741007805
0.32713636755943298 0.077790684998035431 0.028211101889610291
0.35908049345016479 0.080148272216320038 0.030577164143323898
0.39294692873954773 0.082922168076038361 0.033167567104101181
0.43092295527458191 0.086424872279167175 0.036362621933221817
0.4686037003993988 0.090210102498531342 0.039300777018070221
0.51170039176940918 0.094112381339073181 0.04253271222114563
0.55012422800064087 0.098190255463123322 0.045705273747444153
0.59099274873733521 0.10282618552446365 0.049283593893051147
0.63093602657318115 0.10844459384679794 0.054144613444805145
0.66804540157318115 0.11364483088254929 0.058241836726665497
0.70778626203536987 0.119827501475811 0.063164688646793365
0.74546718597412109 0.1260189563035965 0.068146549165248871
0.78451502323150635 0.13313937187194824 0.073926344513893127
0.82030379772186279 0.1402367502450943 0.079683661460876465
0.85712343454360962 0.14893662929534912 0.086508192121982574
0.89120328426361084 0.15833941102027893 0.093655772507190704
0.92635494470596313 0.16942970454692841 0.10243373364210129
0.95493572950363159 0.17996034026145935 0.11047305911779404
0.041543863713741302 0.071337245404720306 0.012774977833032608
0.050345666706562042 0.07204987108707428 0.012998618185520172
0.06175868958234787 0.073361583054065704 0.013557944446802139
0.075824931263923645 0.074275948107242584 0.014462814666330814
0.092998266220092773 0.075616545975208282 0.015391861088573933
0.11096983402967453 0.076988890767097473 0.016164680942893028
0.13245055079460144 0.078640781342983246 0.017746295779943466
0.15298646688461304 0.080225422978401184 0.019251337274909019
0.17578920722007751 0.081893816590309143 0.020629273727536201
0.1982751339673996 0.083568878471851349 0.02221977710723877
0.22369459271430969 0.085748501121997833 0.023945959284901619
0.25017264485359192 0.088177189230918884 0.025303343310952187
0.27491208910942078 0.090421579778194427 0.026995066553354263
0.30296006798744202 0.093240506947040558 0.029349207878112793
0.32983323931694031 0.095807284116744995 0.031873341649770737
0.36195442080497742 0.098285146057605743 0.034386400133371353
0.39594045281410217 0.10099504142999649 0.036729369312524796
0.43412554264068604 0.10446469485759735 0.040238305926322937
0.47176727652549744 0.10808641463518143 0.043218821287155151
0.51466202735900879 0.1120167002081871 0.046393435448408127
0.5527769923210144 0.11605091392993927 0.049922343343496323
0.59349870681762695 0.12071956694126129 0.053414024412631989
0.63325852155685425 0.12599740922451019 0.058303885161876678
0.6704217791557312 0.13110333681106567 0.062815748155117035
0.70990169048309326 0.13728858530521393 0.06771811842918396
0.74750798940658569 0.143172487616539 0.072816424071788788
0.78624176979064941 0.15014727413654327 0.078291051089763641
0.82283204793930054 0.15712830424308777 0.084208518266677856
0.85889101028442383 0.16562171280384064 0.091071836650371552
0.89335942268371582 0.17482049763202667 0.097986973822116852
0.92735809087753296 0.18564668297767639 0.10678340494632721
0.95584595203399658 0.19582900404930115 0.11464385688304901
0.054347727447748184 0.089920602738857269 0.015869639813899994
0.061977744102478027 0.090747453272342682 0.016343820840120316
0.072010718286037445 0.091687612235546112 0.017169702798128128
0.083754092454910278 0.092565178871154785 0.017791153863072395
0.097474120557308197 0.09369245171546936 0.018510976806282997
0.11504331231117249 0.094987533986568451 0.019482165575027466
0.13649040460586548 0.096536546945571899 0.020720623433589935
0.15645165741443634 0.098043821752071381 0.022232839837670326
0.17921450734138489 0.099606364965438843 0.023888822644948959
0.20149579644203186 0.10128839313983917 0.025384765118360519
0.22698801755905151 0.10342425853013992 0.027504432946443558
0.25345087051391602 0.1057378277182579 0.0291286651045084
0.27803930640220642 0.10781466215848923 0.030734507367014885
0.30603370070457458 0.11067859828472137 0.033250987529754639
0.33298087120056152 0.11321844905614853 0.035839341580867767
0.36504006385803223 0.11557850241661072 0.038423918187618256
0.39924320578575134 0.1182028204202652 0.040729142725467682
0.43757161498069763 0.12180434167385101 0.04436856135725975
0.4752240777015686 0.12528842687606812 0.047590833157300949
0.51785933971405029 0.12907429039478302 0.050726927816867828
0.55585384368896484 0.13302396237850189 0.054540004581212997
0.59632235765457153 0.13762104511260986 0.05797334760427475
0.63588100671768188 0.14275699853897095 0.062618061900138855
0.67279118299484253 0.14773948490619659 0.067494586110115051
0.71225088834762573 0.15376147627830505 0.0721573606133461
0.74958473443984985 0.15962989628314972 0.07733878493309021
0.78835225105285645 0.16618375480175018 0.082832477986812592
0.82374465465545654 0.17325890064239502 0.088863424956798553
0.8595503568649292 0.18158957362174988 0.09552350640296936
0.89431363344192505 0.19045482575893402 0.1024458184838295
0.92827290296554565 0.20100446045398712 0.11085786670446396
0.95717799663543701 0.21089614927768707 0.1182902604341507
0.068343356251716614 0.11069105565547943 0.019414260983467102
0.074916690587997437 0.11136883497238159 0.019978422671556473
0.083557136356830597 0.11208125203847885 0.020554130896925926
0.093553848564624786 0.11287329345941544 0.020951006561517715
0.10521990805864334 0.11380799114704132 0.021668771281838417
0.12075294554233551 0.1151420995593071 0.022790011018514633
0.14075043797492981 0.11645375192165375 0.024064775556325912
0.16050764918327332 0.11777064949274063 0.025270076468586922
0.18311220407485962 0.11947722733020782 0.027180356904864311
0.20539675652980804 0.12100990116596222 0.028932442888617516
0.23071461915969849 0.12311306595802307 0.031112939119338989
0.25718122720718384 0.12516120076179504 0.033015154302120209
0.28154215216636658 0.12739016115665436 0.03449542447924614
0.30952030420303345 0.13006055355072021 0.036870278418064117
0.33655849099159241 0.13236576318740845 0.039507735520601273
0.36879247426986694 0.13479690253734589 0.042441971600055695
0.40309599041938782 0.13734404742717743 0.044749695807695389
0.44169437885284424 0.14089132845401764 0.048444598913192749
0.47934737801551819 0.14430341124534607 0.051635090261697769
0.52169764041900635 0.14806416630744934 0.054571107029914856
0.55942767858505249 0.15191131830215454 0.05844530463218689
0.59953385591506958 0.15641127526760101 0.06207854300737381
0.63895565271377563 0.16116710007190704 0.066523745656013489
0.67570799589157104 0.16618785262107849 0.071447253227233887
0.71497839689254761 0.17216172814369202 0.076170198619365692
0.75233215093612671 0.17777688801288605 0.081332430243492126
0.79065901041030884 0.18401129543781281 0.086780279874801636
0.82674992084503174 0.19096724689006805 0.092737667262554169
0.86260539293289185 0.19897180795669556 0.098968759179115295
0.89606279134750366 0.20763234794139862 0.10571560263633728
0.93004864454269409 0.21785403788089752 0.11351536959409714
0.95836281776428223 0.22767484188079834 0.12091582268476486
0.081733249127864838 0.12997864186763763 0.02255278080701828
0.087357692420482635 0.13047279417514801 0.022910669445991516
0.094596348702907562 0.13112503290176392 0.023676835000514984
0.10352759063243866 0.13193443417549133 0.024617848917841911
0.11494643241167068 0.13297228515148163 0.025485072284936905
0.1285293847322464 0.13409025967121124 0.026308316737413406
0.14553505182266235 0.13531894981861115 0.027379291132092476
0.16513891518115997 0.13674071431159973 0.029064232483506203
0.18731603026390076 0.13817180693149567 0.030757442116737366
0.20966637134552002 0.13972155749797821 0.032477226108312607
0.23489245772361755 0.14159245789051056 0.034390471875667572
0.26120072603225708 0.14374652504920959 0.036485731601715088
0.28548839688301086 0.1457458883523941 0.038170788437128067
0.31337863206863403 0.14836931228637695 0.040700394660234451
0.34046632051467896 0.15055231750011444 0.043111562728881836
0.37284931540489197 0.15308885276317596 0.04608594998717308
0.40745583176612854 0.15564194321632385 0.048773191869258881
0.44621971249580383 0.15893477201461792 0.052055411040782928
0.48401117324829102 0.16218304634094238 0.055210288614034653
0.52588552236557007 0.16613130271434784 0.058391764760017395
0.56312388181686401 0.16973137855529785 0.061960984021425247
0.60306638479232788 0.17407050728797913 0.066004000604152679
0.64224672317504883 0.17868724465370178 0.070155657827854156
0.67885559797286987 0.18361009657382965 0.074759319424629211
0.71810489892959595 0.18925400078296661 0.07969200611114502
0.75503885746002197 0.19469946622848511 0.084473341703414917
0.79342019557952881 0.20085775852203369 0.089623130857944489
0.82858395576477051 0.20770488679409027 0.09511999785900116
0.86398923397064209 0.21553055942058563 0.10132012516260147
0.89811855554580688 0.22415666282176971 0.10791328549385071
0.93175274133682251 0.23401212692260742 0.11597586423158646
0.96007585525512695 0.24379253387451172 0.12376456707715988
0.09565398097038269 0.15111193060874939 0.025742560625076294
0.10009657591581345 0.15153510868549347 0.026121525093913078
0.10668481886386871 0.15209458768367767 0.027008812874555588
0.1154172271490097 0.15285249054431915 0.027859341353178024
0.12666502594947815 0.15389995276927948 0.028773123398423195
0.13869097828865051 0.15492627024650574 0.029886879026889801
0.15254603326320648 0.15603949129581451 0.031264785677194595
0.17052280902862549 0.15738333761692047 0.03270094096660614
0.192522332072258 0.15894997119903564 0.034520857036113739
0.21476434171199799 0.16036729514598846 0.036114398390054703
0.23958720266819 0.16208519041538239 0.037493132054805756
0.26575532555580139 0.16406495869159698 0.039799198508262634
0.28998732566833496 0.16606384515762329 0.041768066585063934
0.3179471492767334 0.16853545606136322 0.044374991208314896
0.34517905116081238 0.17068055272102356 0.046826504170894623
0.37767940759658813 0.17308773100376129 0.049362603574991226
0.41247013211250305 0.17574566602706909 0.052250053733587265
0.45159190893173218 0.17873014509677887 0.055494002997875214
0.48945847153663635 0.18180277943611145 0.05837935209274292
0.53083699941635132 0.1857469379901886 0.061909183859825134
0.56751608848571777 0.18938115239143372 0.065238729119300842
0.60723906755447388 0.19345998764038086 0.069093376398086548
0.64624869823455811 0.197805255651474 0.073048144578933716
0.68263566493988037 0.20278105139732361 0.07681601494550705
0.72177988290786743 0.2081022709608078 0.081819191575050354
0.7584763765335083 0.21325163543224335 0.086094573140144348
0.79664152860641479 0.21944697201251984 0.091222979128360748
0.83140730857849121 0.22620205581188202 0.096745431423187256
0.86682790517807007 0.23386108875274658 0.10341648757457733
0.9004935622215271 0.2423735111951828 0.11041732877492905
0.93398755788803101 0.25214171409606934 0.11870292574167252
0.96183985471725464 0.26196956634521484 0.12681646645069122
0.10840228199958801 0.17196221649646759 0.028775053098797798
0.11281649023294449 0.17225204408168793 0.029244571924209595
0.11929018795490265 0.17289985716342926 0.029771918430924416
0.12790748476982117 0.1736474335193634 0.030654760077595711
0.13819663226604462 0.17449158430099487 0.031811460852622986
0.149060919880867 0.17541275918483734 0.032837186008691788
0.1623779833316803 0.17654436826705933 0.034036468714475632
0.17743487656116486 0.1777174323797226 0.035538647323846817
0.19797328114509583 0.17918460071086884 0.037002313882112503
0.2196677029132843 0.18069000542163849 0.038898561149835587
0.24452877044677734 0.1823335736989975 0.040339987725019455
0.27034810185432434 0.18420733511447906 0.042349644005298615
0.29466873407363892 0.1860826313495636 0.044316545128822327
0.32280540466308594 0.18832546472549438 0.047067403793334961
0.35028678178787231 0.19038553535938263 0.049372099339962006
0.3830714225769043 0.19273021817207336 0.051617439836263657
0.41799217462539673 0.19538702070713043 0.05438544973731041
0.45733925700187683 0.19828395545482635 0.057644899934530258
0.49513530731201172 0.20112854242324829 0.060184985399246216
0.53614360094070435 0.20506937801837921 0.063489854335784912
0.57234388589859009 0.20853932201862335 0.066985785961151123
0.6116940975189209 0.21249960362911224 0.07013489305973053
0.65061819553375244 0.21681360900402069 0.074138998985290527
0.68661743402481079 0.22158505022525787 0.077925726771354675
0.72563481330871582 0.22673827409744263 0.082964599132537842
0.76220887899398804 0.23186789453029633 0.087674319744110107
0.79976809024810791 0.23804239928722382 0.093053944408893585
0.83490175008773804 0.24468614161014557 0.098834797739982605
0.86950075626373291 0.2522793710231781 0.1055142730474472
0.90290480852127075 0.26065462827682495 0.1126813068985939
0.93627071380615234 0.27064928412437439 0.12106789648532867
0.96394157409667969 0.28046980500221252 0.12870825827121735
0.12120743095874786 0.19505771994590759 0.031314067542552948
0.12571205198764801 0.19540761411190033 0.031734026968479156
0.13179595768451691 0.19589558243751526 0.03210904449224472
0.13939179480075836 0.19653922319412231 0.032833762466907501
0.14840231835842133 0.19726434350013733 0.033863142132759094
0.15869560837745667 0.19812741875648499 0.035085964947938919
0.1716463565826416 0.19908943772315979 0.035985838621854782
0.18518610298633575 0.20021265745162964 0.036932948976755142
0.20423279702663422 0.20150820910930634 0.038642365485429764
0.22561334073543549 0.20304723083972931 0.039926618337631226
0.2500995397567749 0.20467467606067657 0.041550200432538986
0.27576950192451477 0.20648106932640076 0.043696779757738113
0.29980513453483582 0.20830003917217255 0.045471493154764175
0.32840290665626526 0.21020777523517609 0.047827646136283875
0.35621964931488037 0.21204091608524323 0.050316687673330307
0.3892340362071991 0.21451589465141296 0.052430469542741776
0.42460325360298157 0.21715675294399261 0.055296644568443298
0.46431413292884827 0.21995335817337036 0.058063894510269165
0.50181591510772705 0.22281324863433838 0.060956232249736786
0.54215067625045776 0.22657796740531921 0.064340047538280487
0.57814347743988037 0.22983889281749725 0.067743100225925446
0.61677980422973633 0.23389331996440887 0.071516484022140503
0.65567648410797119 0.23805536329746246 0.07551351934671402
0.69154304265975952 0.24278666079044342 0.079896196722984314
0.73031246662139893 0.24789181351661682 0.085049040615558624
0.76650738716125488 0.25305193662643433 0.0895109623670578
0.80388867855072021 0.25934582948684692 0.095131926238536835
0.83848100900650024 0.26585868000984192 0.10068468749523163
0.87280762195587158 0.27341270446777344 0.10722089558839798
0.90586304664611816 0.28194159269332886 0.11424005031585693
0.93895900249481201 0.2920246422290802 0.12200246751308441
0.96671313047409058 0.30165642499923706 0.12881892919540405
0.12520483136177063 0.21888358891010284 0.032186027616262436
0.12908920645713806 0.21931251883506775 0.032445952296257019
0.13441157341003418 0.21963179111480713 0.032941173762083054
0.14136481285095215 0.22015863656997681 0.033803436905145645
0.15043877065181732 0.22080707550048828 0.034702319651842117
0.16140586137771606 0.22159053385257721 0.035742808133363724
0.17396478354930878 0.22260643541812897 0.03680989146232605
0.1897139847278595 0.22367781400680542 0.038182210177183151
0.2106281965970993 0.22474402189254761 0.039420228451490402
0.23260354995727539 0.22612117230892181 0.04066036269068718
0.25674471259117126 0.227788046002388 0.042454786598682404
0.28209015727043152 0.22953623533248901 0.044547494500875473
0.30617418885231018 0.23131412267684937 0.046608924865722656
0.33482024073600769 0.23313702642917633 0.048870287835597992
0.36289852857589722 0.23499514162540436 0.051192250102758408
0.39644572138786316 0.23740744590759277 0.053858213126659393
0.43229365348815918 0.24011105298995972 0.056484881788492203
0.47186499834060669 0.24288670718669891 0.059377249330282211
0.50905144214630127 0.24590040743350983 0.062192961573600769
0.549041748046875 0.24918805062770844 0.065854273736476898
0.58426302671432495 0.25246572494506836 0.068817570805549622
0.62289333343505859 0.25659042596817017 0.072926320135593414
0.66116076707839966 0.2608853280544281 0.076866798102855682
0.69715368747711182 0.26541620492935181 0.081258974969387054
0.73545461893081665 0.27055761218070984 0.08614087849855423
0.77145743370056152 0.27585592865943909 0.09081142395734787
0.80817514657974243 0.28224813938140869 0.09574349969625473
0.84234565496444702 0.28873971104621887 0.10089817643165588
0.87657684087753296 0.2965218722820282 0.10693827271461487
0.90933620929718018 0.30515268445014954 0.11358011513948441
0.94210356473922729 0.3151688277721405 0.12142767012119293
0.96961754560470581 0.32476848363876343 0.1288682222366333
0.12493167072534561 0.24110998213291168 0.033014658838510513
0.12882445752620697 0.24150495231151581 0.033113449811935425
0.13434915244579315 0.24187196791172028 0.033527746796607971
0.14171043038368225 0.24245257675647736 0.034432742744684219
0.15135824680328369 0.2431294322013855 0.035218078643083572
0.16205166280269623 0.24385964870452881 0.036264780908823013
