LUTs/Kodak Portra 400 NC 1 -.cube
# Created by: G'MIC (https://gmic.eu)
TITLE "Kodak Portra 400 NC 1 -"
# LUT size
LUT_3D_SIZE 32
# Data domain
DOMAIN_MIN 0.0 0.0 0.0
DOMAIN_MAX 1.0 1.0 1.0
# LUT data points
0.00067254831083118916 0.00074817548738792539 0.00093512871535494924
0.0024835793301463127 0.00079082814045250416 0.00075082434341311455
0.0077694584615528584 0.0014191896189004183 0.00085637043230235577
0.019096409901976585 0.0019240560941398144 0.00079159991582855582
0.039380274713039398 0.0028529430273920298 0.00072168943006545305
0.066488802433013916 0.0050615542568266392 0.0005803738022223115
0.09923660010099411 0.009505189023911953 0.00015684908430557698
0.13410082459449768 0.014781738631427288 1.8471822841092944e-05
0.17546553909778595 0.020536782220005989 0
0.21954667568206787 0.025423157960176468 0
0.27199801802635193 0.028900053352117538 0
0.32880160212516785 0.028556015342473984 0
0.38186946511268616 0.024777628481388092 0
0.44008320569992065 0.017343230545520782 0
0.49155500531196594 0.0090844109654426575 0
0.54460781812667847 0.0029876402113586664 0
0.59183347225189209 0.00057359144557267427 0
0.63769280910491943 8.4571991465054452e-05 0
0.68017047643661499 2.1026007743785158e-06 0
0.72102874517440796 1.2862969924753997e-05 0
0.7516215443611145 5.9807312936754897e-05 0
0.78115367889404297 0.00031475623836740851 0
0.80911469459533691 0.0016087604453787208 0
0.83425426483154297 0.0060018869116902351 0
0.86058735847473145 0.018897095695137978 0
0.88494384288787842 0.036912247538566589 0
0.90964591503143311 0.058240346610546112 0
0.93306964635848999 0.077064700424671173 0
0.95659548044204712 0.095366351306438446 0
0.97947901487350464 0.11298161000013351 0
0.99751156568527222 0.13049159944057465 0
0.99998986721038818 0.14766800403594971 0
0.00091431435430422425 0.0028432561084628105 0.0015551155665889382
0.002914143493399024 0.0035806626547127962 0.0012442885199561715
0.0091955289244651794 0.0049605877138674259 0.00097049650503322482
0.022125286981463432 0.0065351910889148712 0.00085022242274135351
0.044113468378782272 0.0087413415312767029 0.00056236755335703492
0.070898868143558502 0.012225594371557236 0.00027909441269002855
0.10313607007265091 0.018777128309011459 9.8806129244621843e-05
0.1383519321680069 0.025780444964766502 1.2077730389137287e-05
0.18093223869800568 0.033387843519449234 0
0.22528755664825439 0.039462272077798843 0
0.27796193957328796 0.044136740267276764 0
0.33495551347732544 0.045528590679168701 0
0.38742595911026001 0.043050222098827362 0
0.44493281841278076 0.037016864866018295 0
0.49496793746948242 0.029131997376680374 0
0.54703801870346069 0.019728939980268478 0
0.5938713550567627 0.012051274068653584 0
0.64014214277267456 0.0070866793394088745 0
0.6821247935295105 0.0050983689725399017 0
0.72229325771331787 0.0050861267372965813 0
0.75260621309280396 0.006914239376783371 0
0.78180837631225586 0.010441802442073822 0
0.80950301885604858 0.018046317622065544 0
0.83509033918380737 0.029277581721544266 0
0.86105978488922119 0.044766753911972046 0
0.88510555028915405 0.060361232608556747 0
0.90992629528045654 0.076905570924282074 0
0.93318825960159302 0.092718027532100677 0
0.95637685060501099 0.10854317247867584 0
0.979134202003479 0.12406376749277115 0
0.99732840061187744 0.14020568132400513 0
0.9999890923500061 0.15608707070350647 0
0.00095465203048661351 0.0090410644188523293 0.0024517492856830359
0.0030015443917363882 0.0098680770024657249 0.0022937979083508253
0.0091387173160910606 0.012470665387809277 0.0013424515491351485
0.024164292961359024 0.016806906089186668 0.00051978486590087414
0.049533218145370483 0.02151193842291832 0.00014384514361154288
0.07968844473361969 0.028303125873208046 3.0970713851274922e-05
0.11386167258024216 0.036974355578422546 6.2946992329671048e-07
0.14969801902770996 0.045181382447481155 0
0.19185642898082733 0.053654782474040985 0
0.23642474412918091 0.060620732605457306 0
0.2887968122959137 0.065701037645339966 0
0.34501707553863525 0.067833594977855682 0
0.39698895812034607 0.067540295422077179 0
0.45342263579368591 0.064403899013996124 0
0.50275570154190063 0.059815224260091782 0
0.55381351709365845 0.053413819521665573 0
0.60000097751617432 0.047237318009138107 0
0.64757627248764038 0.041951503604650497 0
0.68837952613830566 0.040089238435029984 0
0.72661435604095459 0.040943708270788193 0
0.7556908130645752 0.043806809931993484 0
0.78475171327590942 0.049139164388179779 0
0.81244337558746338 0.056931149214506149 0
0.83763432502746582 0.065808460116386414 0
0.86357790231704712 0.077070146799087524 0
0.88734006881713867 0.088340222835540771 0
0.91194605827331543 0.10112426429986954 0
0.93470096588134766 0.11379942297935486 0
0.95763039588928223 0.12687338888645172 0
0.98030227422714233 0.14039903879165649 0
0.99775147438049316 0.15461577475070953 0
0.99999642372131348 0.16944058239459991 0
0.00029654896934516728 0.022437352687120438 0.0039438791573047638
0.0030390915926545858 0.023110255599021912 0.0039624124765396118
0.0092408293858170509 0.026500523090362549 0.0025700214318931103
0.023547982797026634 0.032612115144729614 0.00098125613294541836
0.051164176315069199 0.042685430496931076 9.3118556833360344e-05
0.084831953048706055 0.053683120757341385 2.1284878926053352e-07
0.12323544174432755 0.062877126038074493 0
0.16234160959720612 0.070986680686473846 0
0.20606008172035217 0.079233527183532715 0
0.25130012631416321 0.085866831243038177 0
0.30396968126296997 0.091504059731960297 0
0.3596750795841217 0.094465434551239014 0
0.41104468703269958 0.09541117399930954 0
0.46653389930725098 0.0942082479596138 0
0.51528966426849365 0.092012353241443634 0
0.56493538618087769 0.088747791945934296 0
0.61151123046875 0.085767373442649841 0
0.65973579883575439 0.084251873195171356 0
0.6981579065322876 0.084081016480922699 0
0.73402494192123413 0.085381634533405304 0
0.76245838403701782 0.087520651519298553 0
0.7903938889503479 0.0906243696808815 0
0.81725597381591797 0.095577001571655273 0
0.84194314479827881 0.10160385072231293 0
0.86773550510406494 0.10990677028894424 0
0.89116090536117554 0.11832205951213837 0
0.91561263799667358 0.12849986553192139 0
0.93839746713638306 0.13889962434768677 0
0.96139436960220337 0.15012025833129883 0
0.98325467109680176 0.16147373616695404 0
0.99874407052993774 0.1741192638874054 0
1 0.18762585520744324 0
2.1870693672099151e-05 0.04450642317533493 0.0057234363630414009
0.0020919886883348227 0.045152299106121063 0.0056439870968461037
0.0095896832644939423 0.048017498105764389 0.0048693818971514702
0.023819535970687866 0.054650362581014633 0.0025004718918353319
0.047272134572267532 0.063338816165924072 0.0004350388771854341
0.081454455852508545 0.077593542635440826 8.1697507994249463e-06
0.12332350760698318 0.092211194336414337 0
0.16675396263599396 0.10166002064943314 0
0.21757340431213379 0.10980676859617233 0
0.26679086685180664 0.11579552292823792 0
0.32049790024757385 0.12126290053129196 0
0.37493109703063965 0.12451846897602081 0
0.42528122663497925 0.126365065574646 0
0.47902023792266846 0.1267801821231842 0
0.52564209699630737 0.1260448545217514 0
0.57411462068557739 0.12456846237182617 0
0.62222498655319214 0.12405627220869064 0
0.66842043399810791 0.12389589101076126 0
0.70432239770889282 0.12423759698867798 0
0.73845887184143066 0.12519776821136475 0
0.76514291763305664 0.12587606906890869 0
0.7929147481918335 0.12797202169895172 0
0.81937748193740845 0.13132584095001221 0
0.84405958652496338 0.13548038899898529 0
0.8690001368522644 0.14156356453895569 0
0.89246201515197754 0.14794646203517914 0
0.9165576696395874 0.15611746907234192 0
0.93888354301452637 0.16440853476524353 0
0.96140104532241821 0.17341610789299011 0
0.98307770490646362 0.18282832205295563 0
0.99869710206985474 0.19388787448406219 0
1 0.20585714280605316 0
4.1227471569982299e-07 0.07890591025352478 0.0081006912514567375
0.001105398521758616 0.079231888055801392 0.0083761662244796753
0.0093107447028160095 0.080065898597240448 0.0080463392660021782
0.024063576012849808 0.085788659751415253 0.004896925762295723
0.047732789069414139 0.093696780502796173 0.0012552362168207765
0.078840024769306183 0.10405809432268143 8.6242114775814116e-05
0.12143132090568542 0.12050213664770126 0
0.16907276213169098 0.13599854707717896 0
0.22155171632766724 0.14613904058933258 0
0.27559623122215271 0.15187446773052216 0
0.33515286445617676 0.15569782257080078 0
0.39226844906806946 0.1582597941160202 0
0.44167757034301758 0.16023819148540497 0
0.49394166469573975 0.1611562967300415 0
0.54053312540054321 0.1614571213722229 0
0.5915490984916687 0.16214001178741455 0
0.63815712928771973 0.16299986839294434 0
0.68022018671035767 0.16307663917541504 0
0.71361106634140015 0.16292205452919006 0
0.74557346105575562 0.16278696060180664 0
0.77173459529876709 0.16309814155101776 0
0.79885262250900269 0.16417373716831207 0
0.82472240924835205 0.16631750762462616 0
0.84845328330993652 0.16952873766422272 0
0.87314093112945557 0.17382684350013733 0
0.89608007669448853 0.17898431420326233 0
0.91965568065643311 0.1851736307144165 0
0.94162476062774658 0.19183824956417084 0
0.96400493383407593 0.1993757039308548 0
0.98574161529541016 0.20754328370094299 0
0.99909496307373047 0.21687532961368561 0
0.99997460842132568 0.22790881991386414 0
0 0.11736496537923813 0.010930263437330723
8.4197970863897353e-05 0.11824017763137817 0.011490912176668644
0.0037199403159320354 0.11764243245124817 0.012089088559150696
0.018725994974374771 0.12095051258802414 0.0090047959238290787
0.044337052851915359 0.12820453941822052 0.003369778161868453
0.076391085982322693 0.13705547153949738 0.00054841849487274885
0.11470488458871841 0.14846202731132507 2.4529383608751232e-06
0.16224329173564911 0.16549435257911682 0
0.2219928503036499 0.18480347096920013 0
0.27815917134284973 0.19371873140335083 0
0.34090104699134827 0.19958688318729401 0
0.4046330451965332 0.20106640458106995 0
0.45924708247184753 0.20108933746814728 0
0.51437532901763916 0.20191647112369537 0
0.56356871128082275 0.20412378013134003 0
0.61278176307678223 0.20520372688770294 0
0.65464216470718384 0.20522375404834747 0
0.69260489940643311 0.20459502935409546 0
0.72308427095413208 0.2036212682723999 0
0.7528194785118103 0.20253102481365204 0
0.77788615226745605 0.20204721391201019 0
0.80401933193206787 0.20182830095291138 0
0.82942730188369751 0.2028958797454834 0
0.85280752182006836 0.20505934953689575 0
0.87698906660079956 0.20809872448444366 0
0.89941543340682983 0.21182134747505188 0
0.92253178358078003 0.21660466492176056 0
0.94460880756378174 0.22206400334835052 0
0.96659159660339355 0.22824247181415558 0
0.98767602443695068 0.23504988849163055 0
0.99935996532440186 0.24264533817768097 0
0.99999904632568359 0.25290793180465698 0
0 0.156915083527565 0.015911409631371498
0 0.15827061235904694 0.016512136906385422
0.00029737775912508368 0.1566634327173233 0.01732989214360714
0.0092666344717144966 0.15747904777526855 0.016096673905849457
0.035635706037282944 0.16393668949604034 0.0090981563553214073
0.070665501058101654 0.17251305282115936 0.002513175830245018
0.11098706722259521 0.18351249396800995 9.9626857263501734e-05
0.1543392539024353 0.19578719139099121 2.1745091771663283e-07
0.21239198744297028 0.21471112966537476 0
0.27667394280433655 0.23329299688339233 0
0.34254428744316101 0.24364982545375824 0
0.40847933292388916 0.24843700230121613 0
0.46920382976531982 0.2505384087562561 0
0.53303593397140503 0.24988380074501038 0
0.58318865299224854 0.24834762513637543 0
0.62872970104217529 0.24732677638530731 0
0.66708540916442871 0.24611829221248627 0
0.70213323831558228 0.24419699609279633 0
0.73021543025970459 0.24215853214263916 0
0.75846391916275024 0.24008947610855103 0
0.78275090456008911 0.23868590593338013 0
0.80832123756408691 0.23787851631641388 0
0.83304452896118164 0.23772141337394714 0
0.85589569807052612 0.23878826200962067 0
0.87974512577056885 0.24079141020774841 0
0.90154635906219482 0.24343410134315491 0
0.92469358444213867 0.24707840383052826 0
0.94588679075241089 0.25107482075691223 0
0.96752578020095825 0.25589519739151001 0
0.98840099573135376 0.26135829091072083 0
0.9994385838508606 0.26776868104934692 0
0.99997496604919434 0.27612689137458801 0
0 0.20694133639335632 0.025956930592656136
0 0.20869667828083038 0.027728848159313202
1.4895954336680006e-06 0.20693884789943695 0.028479443863034248
0.0020516079384833574 0.20536206662654877 0.028914602473378181
0.022809965535998344 0.20886865258216858 0.022350678220391273
0.062935218214988708 0.21629607677459717 0.010629535652697086
0.10677295923233032 0.22610943019390106 0.0015828101895749569
0.15101167559623718 0.23680661618709564 6.2324528698809445e-05
0.20346781611442566 0.24992598593235016 1.534045566131681e-07
0.26553046703338623 0.26796597242355347 0
0.3459123969078064 0.29311272501945496 0
0.41651862859725952 0.30331167578697205 0
0.47623902559280396 0.30672150850296021 0
0.53864282369613647 0.30638948082923889 0
0.59150218963623047 0.30333545804023743 0
0.64212632179260254 0.29754406213760376 0
0.6809844970703125 0.29240962862968445 0
0.71356880664825439 0.28894206881523132 0
0.73983502388000488 0.28549379110336304 0
0.76730251312255859 0.28237667679786682 0
0.79080909490585327 0.28020089864730835 0
0.81571722030639648 0.27805927395820618 0
0.83964568376541138 0.27703380584716797 0
0.86165088415145874 0.27650505304336548 0
0.88504672050476074 0.2777152955532074 0
0.90639293193817139 0.27896204590797424 0
0.92875534296035767 0.28150731325149536 0
0.94980728626251221 0.28432935476303101 0
0.97119694948196411 0.2881198525428772 0
0.99146223068237305 0.2926480770111084 0
0.99981600046157837 0.29813116788864136 0
0.99999874830245972 0.30590376257896423 0
0 0.2506900429725647 0.040143758058547974
0 0.2536410391330719 0.042334090918302536
0 0.252287358045578 0.04355989396572113
0.00015872508811298758 0.25043395161628723 0.044923081994056702
0.0098146367818117142 0.25101757049560547 0.042603194713592529
0.051242884248495102 0.25815436244010925 0.029310641810297966
0.1014370322227478 0.26870724558830261 0.012540110386908054
0.1494210958480835 0.28052470088005066 0.0026482671964913607
0.20482498407363892 0.29509827494621277 6.2257859099190682e-05
0.26259681582450867 0.30942043662071228 0
0.33511638641357422 0.3288266658782959 0
0.41693761944770813 0.35135245323181152 0
0.47987574338912964 0.35954669117927551 0
0.54008650779724121 0.35961711406707764 0
0.59046292304992676 0.35653802752494812 0
0.64003342390060425 0.35013517737388611 0
0.68209594488143921 0.34120014309883118 0
0.71852654218673706 0.33218875527381897 0
0.74597758054733276 0.32612752914428711 0
0.77289658784866333 0.32148626446723938 0
0.79565608501434326 0.31818729639053345 0
0.81978243589401245 0.31503814458847046 0
0.84342920780181885 0.31298536062240601 0
0.864937424659729 0.31197163462638855 0
0.88793796300888062 0.31175890564918518 0
0.90877676010131836 0.31200486421585083 0
0.93081450462341309 0.31344866752624512 0
0.95142596960067749 0.31541812419891357 0
0.97253739833831787 0.31789425015449524 0
0.99208551645278931 0.32128283381462097 0
0.99985724687576294 0.32573726773262024 0
1 0.3325924277305603 0
0 0.30650037527084351 0.063892103731632233
0 0.30955025553703308 0.066597558557987213
0 0.30874940752983093 0.067721255123615265
2.6845793854590738e-07 0.30792373418807983 0.069568909704685211
0.0035684423055499792 0.3071417510509491 0.070832081139087677
0.045393399894237518 0.31190997362136841 0.062738329172134399
0.10164420306682587 0.32184302806854248 0.044131048023700714
0.15170006453990936 0.33229556679725647 0.021539824083447456
0.20617145299911499 0.34433025121688843 0.0037851149681955576
0.26092717051506042 0.35560598969459534 0.00020821680664084852
0.32444211840629578 0.36884307861328125 8.5906538060953608e-07
0.3960283100605011 0.38510003685951233 0
0.47026929259300232 0.40581461787223816 0
0.53575921058654785 0.41306224465370178 0
0.58476501703262329 0.41058230400085449 0
0.63257724046707153 0.40436404943466187 0
0.67472177743911743 0.39623889327049255 0
0.71354138851165771 0.38573184609413147 0
0.74587398767471313 0.37529820203781128 0
0.77763974666595459 0.36616700887680054 0
0.80093300342559814 0.36076042056083679 0
0.82471829652786255 0.35583469271659851 0
0.84773761034011841 0.35252976417541504 0
0.86883324384689331 0.35047903656959534 0
0.89091616868972778 0.34906986355781555 0
0.91163957118988037 0.34848225116729736 0
0.9330783486366272 0.34894919395446777 0
0.95318901538848877 0.34971043467521667 0
0.97395259141921997 0.35082957148551941 0
0.99305522441864014 0.35307782888412476 0
0.9998633861541748 0.35611444711685181 0
0.99995768070220947 0.36150598526000977 0
0 0.3627873957157135 0.093175835907459259
0 0.36862194538116455 0.097654283046722412
0 0.36765968799591064 0.098574034869670868
0 0.3658527135848999 0.099610909819602966
0.0036930276546627283 0.36364051699638367 0.10094570368528366
0.051563989371061325 0.36338910460472107 0.098421819508075714
0.1078675240278244 0.36976093053817749 0.084686890244483948
0.15506087243556976 0.37790969014167786 0.064277961850166321
0.20630726218223572 0.38784137368202209 0.035883259028196335
0.25751915574073792 0.39768162369728088 0.010887826792895794
0.3160761296749115 0.40889826416969299 0.00060042407130822539
0.37911832332611084 0.42041271924972534 3.8460666473838501e-06
0.44039008021354675 0.432533860206604 0
0.51655548810958862 0.45258912444114685 0
0.57600539922714233 0.46144291758537292 0
0.62436139583587646 0.45730245113372803 0
0.66573035717010498 0.44919618964195251 0
0.70443129539489746 0.43925005197525024 0
0.73781979084014893 0.42968562245368958 0
0.7726597785949707 0.41887465119361877 0
0.80140239000320435 0.40880486369132996 0
0.82956093549728394 0.39993152022361755 0
0.8529895544052124 0.39451795816421509 0
0.87370353937149048 0.39135637879371643 0
0.89549678564071655 0.38886436820030212 0
0.9155271053314209 0.38699591159820557 0
0.93664252758026123 0.38599291443824768 0
0.95632147789001465 0.38573923707008362 0
0.97672790288925171 0.3863125741481781 0
0.99523556232452393 0.38743779063224792 0
0.99998974800109863 0.38967990875244141 0
0.99999457597732544 0.39460813999176025 0
0 0.40864080190658569 0.12046629935503006
0 0.41511163115501404 0.12575267255306244
0 0.4139748215675354 0.12648068368434906
2.5767050829017535e-05 0.41186898946762085 0.12697786092758179
0.0090004606172442436 0.40964409708976746 0.12785592675209045
0.067257598042488098 0.40733730792999268 0.12795013189315796
0.12159913778305054 0.41046628355979919 0.12073025852441788
0.16442054510116577 0.41782271862030029 0.10521969944238663
0.2116498202085495 0.42670875787734985 0.083479925990104675
0.25884425640106201 0.43545818328857422 0.053675319999456406
0.31303462386131287 0.44553479552268982 0.017878012731671333
0.37089937925338745 0.45548900961875916 0.001963113434612751
0.42565667629241943 0.46456202864646912 3.8540223613381386e-05
0.48946905136108398 0.47565296292304993 0
0.55479079484939575 0.49289572238922119 0
0.61375218629837036 0.50036287307739258 0
0.6558072566986084 0.49428844451904297 0
0.69449454545974731 0.48459070920944214 0
0.72765129804611206 0.47539517283439636 0
0.76272797584533691 0.46508222818374634 0
0.79254436492919922 0.45501303672790527 0
0.82426011562347412 0.44379115104675293 0
0.85327434539794922 0.43394148349761963 0
0.87641239166259766 0.4279654324054718 0
0.89771878719329834 0.42388123273849487 0
0.91743671894073486 0.42114770412445068 0
0.93817657232284546 0.41926711797714233 0
0.95775163173675537 0.41779768466949463 0
0.97799086570739746 0.41737839579582214 0
0.99565756320953369 0.41761147975921631 0
0.99994194507598877 0.4188103973865509 0
0.99994724988937378 0.42269384860992432 0
0 0.4544588029384613 0.15147420763969421
0 0.45993760228157043 0.15648069977760315
0 0.4592326283454895 0.1570792943239212
0.0022182543762028217 0.45782390236854553 0.1577766090631485
0.034599985927343369 0.45551604032516479 0.15814265608787537
0.095969893038272858 0.45319554209709167 0.15905246138572693
0.14428412914276123 0.45246589183807373 0.15754927694797516
0.18045763671398163 0.45737540721893311 0.14597503840923309
0.22070294618606567 0.46415293216705322 0.12902039289474487
0.26232829689979553 0.47160863876342773 0.10856742411851883
0.31028661131858826 0.48034194111824036 0.078677445650100708
0.362221360206604 0.48886185884475708 0.037487629801034927
0.41176345944404602 0.49688288569450378 0.0083099249750375748
0.4683535099029541 0.50530999898910522 0.00041869358392432332
0.52188080549240112 0.51374143362045288 3.4228386880386097e-07
0.58586961030960083 0.52884024381637573 0
0.64096033573150635 0.53772521018981934 0
0.68234515190124512 0.53172636032104492 0
0.71640658378601074 0.52350038290023804 0
0.75177609920501709 0.51392239332199097 0
0.78228557109832764 0.50468671321868896 0
0.81447356939315796 0.49419727921485901 0
0.84507930278778076 0.48377829790115356 0
0.87212193012237549 0.47386261820793152 0
0.89850467443466187 0.46545639634132385 0
0.92031276226043701 0.46013954281806946 0
0.94077539443969727 0.45686942338943481 0
0.95991861820220947 0.45453420281410217 0
0.97992193698883057 0.4531484842300415 0
0.99680060148239136 0.45244413614273071 0
0.9999963641166687 0.45255449414253235 0
0.99999594688415527 0.45549923181533813 0
7.3902640451706247e-07 0.49116396903991699 0.17829258739948273
0.0001445031666662544 0.49728348851203918 0.18414118885993958
0.0020536445081233978 0.49687784910202026 0.18483586609363556
0.022979583591222763 0.49545976519584656 0.18540127575397491
0.077241607010364532 0.49295184016227722 0.18549515306949615
0.12414884567260742 0.49050459265708923 0.18600796163082123
0.16538558900356293 0.48766109347343445 0.18596060574054718
0.1985783725976944 0.48975378274917603 0.17986588180065155
0.23336093127727509 0.49583661556243896 0.16621671617031097
0.26948192715644836 0.50250017642974854 0.15040409564971924
0.31196942925453186 0.51029175519943237 0.12955944240093231
0.35877427458763123 0.51802915334701538 0.10063967853784561
0.40321162343025208 0.52502977848052979 0.063709951937198639
0.454662024974823 0.5328173041343689 0.019825449213385582
0.50290799140930176 0.53937649726867676 0.0024470621719956398
0.55671852827072144 0.54670870304107666 0.00011601160076679662
0.61398696899414062 0.55964922904968262 0
0.66861510276794434 0.56972277164459229 0
0.70496922731399536 0.5646626353263855 0
0.74056023359298706 0.55565178394317627 0
0.77173042297363281 0.54749548435211182 0
0.80423116683959961 0.53764384984970093 0
0.8353036642074585 0.52753150463104248 0
0.86359435319900513 0.51862901449203491 0
0.89227837324142456 0.50896537303924561 0
0.91751372814178467 0.49934521317481995 0
0.94134920835494995 0.49198979139328003 0
0.96164661645889282 0.48812869191169739 0
0.98155105113983154 0.48592889308929443 0
0.99758744239807129 0.48415467143058777 0
0.99996435642242432 0.48342594504356384 0
0.99999284744262695 0.48578187823295593 0
0.0049817608669400215 0.52891427278518677 0.20884519815444946
0.020546875894069672 0.53488576412200928 0.21486377716064453
0.047842252999544144 0.53410261869430542 0.21549871563911438
0.086647346615791321 0.53270679712295532 0.215510293841362
0.12562759220600128 0.53062146902084351 0.21583165228366852
0.15951316058635712 0.52861905097961426 0.21605050563812256
0.19336326420307159 0.52606445550918579 0.21673658490180969
0.22336438298225403 0.52514076232910156 0.21485795080661774
0.25279426574707031 0.52903693914413452 0.20513975620269775
0.28351894021034241 0.53500890731811523 0.19277998805046082
0.32001250982284546 0.5417332649230957 0.17672248184680939
0.36006134748458862 0.54791957139968872 0.155840203166008
0.39894211292266846 0.55387812852859497 0.13267852365970612
0.44426685571670532 0.56058526039123535 0.097252331674098969
0.48696863651275635 0.56605607271194458 0.055323004722595215
0.53477883338928223 0.57158124446868896 0.014559438452124596
0.58297640085220337 0.57769131660461426 0.00093289033975452185
0.63726788759231567 0.58920276165008545 6.2888316278986167e-06
0.68642807006835938 0.59995484352111816 0
0.72725498676300049 0.59764355421066284 0
