LUTs/Kodak Portra 400 1 -.cube
# Created by: G'MIC (https://gmic.eu)
TITLE "Kodak Portra 400 1 -"
# LUT size
LUT_3D_SIZE 32
# Data domain
DOMAIN_MIN 0.0 0.0 0.0
DOMAIN_MAX 1.0 1.0 1.0
# LUT data points
0.0042011658661067486 0.0041887294501066208 0.0042872130870819092
0.013091670349240303 0.0045774541795253754 0.0044239121489226818
0.030309285968542099 0.0051041091792285442 0.0045289779081940651
0.05647924542427063 0.0054972241632640362 0.0038752516265958548
0.085829503834247589 0.0066150804050266743 0.0034301059786230326
0.1190757155418396 0.0080932732671499252 0.0027567287907004356
0.16001799702644348 0.0074916593730449677 0.00199297652579844
0.20426878333091736 0.0039825234562158585 0.001065898803062737
0.25489288568496704 0.00074461387703195214 0.00045456641237251461
0.30518063902854919 2.0129933545831591e-05 0.00013450434198603034
0.36090561747550964 0 1.2761659490934107e-05
0.41750568151473999 0 0
0.46822246909141541 0 0
0.52270472049713135 0 0
0.57023024559020996 0 0
0.61891549825668335 0 0
0.66265577077865601 0 0
0.7044406533241272 0 0
0.74181324243545532 0 0
0.77930885553359985 0 0
0.80937248468399048 0 0
0.83831101655960083 0 0
0.86468243598937988 0 0
0.88757002353668213 0 0
0.91128969192504883 0 0
0.93299847841262817 1.4117220416665077e-05 0
0.95533663034439087 0.0039346707053482533 0
0.97605395317077637 0.033063691109418869 0
0.99489647150039673 0.078249022364616394 0
0.99993103742599487 0.11324919760227203 0
0.99998176097869873 0.14315953850746155 0
0.99998986721038818 0.16778293251991272 0
0.0038241457659751177 0.01205812580883503 0.0060231992974877357
0.011602750979363918 0.01287023164331913 0.0054787877015769482
0.029899559915065765 0.014932132326066494 0.0044190338812768459
0.056687392294406891 0.017272038385272026 0.0033851671032607555
0.086529769003391266 0.020645091310143471 0.0026836283504962921
0.11927907168865204 0.022554822266101837 0.0018903033342212439
0.16020689904689789 0.022086303681135178 0.0011701937764883041
0.20449270308017731 0.01840277761220932 0.00072870828444138169
0.25538787245750427 0.01089112926274538 0.00026516235084272921
0.30551826953887939 0.0040508536621928215 2.8124037271481939e-05
0.36104616522789001 0.00078970083268359303 5.1134843026545695e-09
0.41738703846931458 4.7003348299767822e-05 0
0.46787437796592712 0 0
0.52185767889022827 0 0
0.56892496347427368 0 0
0.61714440584182739 0 0
0.66075807809829712 0 0
0.70295631885528564 0 0
0.74052661657333374 0 0
0.77764946222305298 0 0
0.80777055025100708 0 0
0.83676570653915405 0 0
0.86298960447311401 0 0
0.88644945621490479 0 0
0.91020488739013672 7.256803655764088e-05 0
0.93170976638793945 0.0025940644554793835 0
0.95394182205200195 0.025930626317858696 0
0.97505646944046021 0.066081829369068146 0
0.99432528018951416 0.10115160793066025 0
0.99999791383743286 0.13020128011703491 0
0.9999803900718689 0.1565365344285965 0
0.9999890923500061 0.17912520468235016 0
0.0034643083345144987 0.025956358760595322 0.0085404077544808388
0.010389355942606926 0.026130795478820801 0.0086097018793225288
0.025954091921448708 0.029905064031481743 0.0066779968328773975
0.05340879037976265 0.035077132284641266 0.0040904819034039974
0.085747897624969482 0.040303520858287811 0.0018780832178890705
0.12176127731800079 0.043956540524959564 0.0010706796310842037
0.16396643221378326 0.045640751719474792 0.00047923234524205327
0.20793737471103668 0.044436562806367874 0.00020942698756698519
0.25786033272743225 0.039855428040027618 4.6863173338351771e-05
0.30731365084648132 0.032087020576000214 5.499553594745521e-07
0.36220762133598328 0.020645329728722572 0
0.41773030161857605 0.0092841563746333122 0
0.4678170382976532 0.0029751339461654425 0
0.52168327569961548 0.000514780986122787 0
0.56845128536224365 1.8714254110818729e-05 0
0.61632788181304932 0 0
0.65985190868377686 0 0
0.70315682888031006 0 0
0.74030524492263794 0 0
0.77693015336990356 0 0
0.80655419826507568 0 0
0.83563441038131714 1.9842816527670948e-06 0
0.86219006776809692 0.00029084397829137743 0
0.88544976711273193 0.0027625882066786289 0
0.90921974182128906 0.014919656328856945 0
0.93091249465942383 0.039820294827222824 0
0.95313060283660889 0.074270464479923248 0
0.97418630123138428 0.10337226092815399 0
0.99366426467895508 0.12899826467037201 0
0.99993586540222168 0.15286850929260254 0
0.99999356269836426 0.17587347328662872 0
0.99999642372131348 0.19610141217708588 0
0.0016726027242839336 0.04703998938202858 0.011284795589745045
0.0094538703560829163 0.045569028705358505 0.012257477268576622
0.023053547367453575 0.048599123954772949 0.010513289831578732
0.047248676419258118 0.054344341158866882 0.007136249914765358
0.080658853054046631 0.06174798309803009 0.0033782066311687231
0.11910881102085114 0.068818338215351105 0.0010681855492293835
0.16427385807037354 0.073682494461536407 0.00015017492114566267
0.2102242112159729 0.075626872479915619 1.384194638376357e-05
0.26045742630958557 0.075280845165252686 7.9143950415527797e-07
0.30945733189582825 0.072403714060783386 0
0.36363193392753601 0.066299371421337128 0
0.41882562637329102 0.056382820010185242 0
0.46847784519195557 0.044907327741384506 0
0.52193015813827515 0.031807646155357361 0
0.56862062215805054 0.022086905315518379 0
0.61615663766860962 0.014428802765905857 0
0.66028600931167603 0.010071290656924248 0
0.70465761423110962 0.0083046499639749527 0
0.74097108840942383 0.008284054696559906 0
0.77701014280319214 0.010116122663021088 0
0.80621469020843506 0.013935939408838749 0
0.83502453565597534 0.021005762740969658 0
0.86121445894241333 0.032991908490657806 0
0.88440358638763428 0.05100511759519577 0
0.90842050313949585 0.075932793319225311 0
0.92998296022415161 0.098495662212371826 0
0.95258831977844238 0.12073651701211929 0
0.97347956895828247 0.14084117114543915 0
0.99341481924057007 0.16075804829597473 0
0.99999392032623291 0.17994424700737 0
0.99997442960739136 0.19937008619308472 0
1 0.21756118535995483 0
0.00040341724525205791 0.07139955461025238 0.014038560912013054
0.0061083179898560047 0.068991705775260925 0.015830067917704582
0.01900528185069561 0.070100836455821991 0.015515789389610291
0.038630444556474686 0.075702056288719177 0.011876893229782581
0.069194033741950989 0.08271760493516922 0.0067625320516526699
0.10921843349933624 0.091990619897842407 0.0022432494442909956
0.15655417740345001 0.10184753686189651 0.00018661422654986382
0.2051241397857666 0.10774079710245132 2.0841284822381567e-06
0.25910645723342896 0.11131661385297775 0
0.30979639291763306 0.11211951076984406 0
0.36388722062110901 0.11098509281873703 0
0.41842842102050781 0.10745676606893539 0
0.46757411956787109 0.10291177779436111 0
0.52024972438812256 0.096439927816390991 0
0.56617540121078491 0.089413218200206757 0
0.61362671852111816 0.081483326852321625 0
0.65898948907852173 0.075872078537940979 0
0.7026360034942627 0.073177710175514221 0
0.73821228742599487 0.07370777428150177 0
0.77392363548278809 0.078361004590988159 0
0.80255264043807983 0.085170656442642212 0
0.83143788576126099 0.094541653990745544 0
0.85777014493942261 0.10568954050540924 0
0.88145428895950317 0.11788567155599594 0
0.90532225370407104 0.13180394470691681 0
0.92718911170959473 0.14582572877407074 0
0.94960898160934448 0.16099855303764343 0
0.97063142061233521 0.17627069354057312 0
0.99143815040588379 0.19179965555667877 0
0.99992114305496216 0.20740500092506409 0
0.99999940395355225 0.22439548373222351 0
1 0.24026808142662048 0
3.2560110412305221e-06 0.10161256045103073 0.01737648993730545
0.0013341843150556087 0.098704561591148376 0.019786665216088295
0.01022068876773119 0.096462517976760864 0.021401131525635719
0.027887871488928795 0.10128864645957947 0.017926331609487534
0.057495772838592529 0.10865775495767593 0.012011663056910038
0.096439309418201447 0.11783145368099213 0.0055080526508390903
0.14654476940631866 0.12916073203086853 0.00072082586120814085
0.19775877892971039 0.13902159035205841 1.1493041711219121e-05
0.25248980522155762 0.14610067009925842 0
0.3052942156791687 0.14953918755054474 0
0.3619009256362915 0.15093347430229187 0
0.41729041934013367 0.15004678070545197 0
0.46602064371109009 0.14884193241596222 0
0.51805263757705688 0.1462724506855011 0
0.56437349319458008 0.14327587187290192 0
0.61372298002243042 0.14101164042949677 0
0.65927290916442871 0.13978035748004913 0
0.70154321193695068 0.13919799029827118 0
0.73630088567733765 0.140400230884552 0
0.77123284339904785 0.14304597675800323 0
0.79988676309585571 0.14727160334587097 0
0.82892286777496338 0.15273973345756531 0
0.85511761903762817 0.15971708297729492 0
0.87865066528320312 0.16769908368587494 0
0.90267640352249146 0.17741525173187256 0
0.92474281787872314 0.18771092593669891 0
0.947235107421875 0.19927668571472168 0
0.9683232307434082 0.2111985832452774 0
0.98972302675247192 0.22423511743545532 0
0.99975568056106567 0.23741500079631805 0
1 0.25174409151077271 0
0.99997460842132568 0.26573297381401062 0
0 0.13609451055526733 0.020234271883964539
7.9001838457770646e-06 0.13340653479099274 0.022973785176873207
0.0012841597199440002 0.12904396653175354 0.026661958545446396
0.013122343458235264 0.1307203471660614 0.025045217946171761
0.041059702634811401 0.13813009858131409 0.018735127523541451
0.080296270549297333 0.14678989350795746 0.01090827863663435
0.12879610061645508 0.15736523270606995 0.0028026187792420387
0.1833345890045166 0.16924087703227997 0.00012106274516554549
0.24248799681663513 0.1811952143907547 0
0.29621323943138123 0.18826141953468323 0
0.35459840297698975 0.19290414452552795 0
0.4128241240978241 0.19448792934417725 0
0.46352717280387878 0.19449564814567566 0
0.51692235469818115 0.1943998783826828 0
0.56497848033905029 0.1948937326669693 0
0.61419433355331421 0.19482102990150452 0
0.65793776512145996 0.19444428384304047 0
0.69862955808639526 0.19465385377407074 0
0.73292165994644165 0.19551742076873779 0
0.76736831665039062 0.19770064949989319 0
0.79572033882141113 0.20009966194629669 0
0.82440608739852905 0.20367918908596039 0
0.85079455375671387 0.20836749672889709 0
0.87456202507019043 0.2139531672000885 0
0.89890354871749878 0.22137311100959778 0
0.92105728387832642 0.22907741367816925 0
0.94381940364837646 0.23810453712940216 0
0.96542656421661377 0.24771147966384888 0
0.98720639944076538 0.25858733057975769 0
0.99948132038116455 0.26965972781181335 0
1 0.28166770935058594 0
0.99999904632568359 0.29405659437179565 0
0 0.17163793742656708 0.022856978699564934
0 0.16927607357501984 0.025881890207529068
8.3872801042161882e-06 0.16425235569477081 0.030287157744169235
0.0025434314738959074 0.16197377443313599 0.032489024102687836
0.020599972456693649 0.16797994077205658 0.026669105514883995
0.060992222279310226 0.17644259333610535 0.017577361315488815
0.11075680702924728 0.18700551986694336 0.0069241449236869812
0.16328199207782745 0.19817616045475006 0.00084362470079213381
0.22607685625553131 0.21171052753925323 4.5194055928732269e-06
0.28523772954940796 0.2226700484752655 0
0.34524166584014893 0.23086319863796234 0
0.40474706888198853 0.23594728112220764 0
0.45832648873329163 0.23873807489871979 0
0.51539105176925659 0.24019576609134674 0
0.56330329179763794 0.24042659997940063 0
0.61124593019485474 0.24040423333644867 0
0.65376591682434082 0.24029706418514252 0
0.69390904903411865 0.24051733314990997 0
0.72752416133880615 0.24104952812194824 0
0.76170432567596436 0.24269889295101166 0
0.79004555940628052 0.24432392418384552 0
0.81912654638290405 0.24699181318283081 0
0.84565502405166626 0.25036484003067017 0
0.86965632438659668 0.25446975231170654 0
0.89414060115814209 0.26018625497817993 0
0.91654843091964722 0.2665134072303772 0
0.93966460227966309 0.27386981248855591 0
0.96123647689819336 0.28162902593612671 0
0.98337537050247192 0.29046732187271118 0
0.99873602390289307 0.299775630235672 0
1 0.31026667356491089 0
0.99997496604919434 0.32086595892906189 0
0 0.21352173388004303 0.026124101132154465
0 0.21177448332309723 0.029659777879714966
0 0.20677922666072845 0.034947261214256287
2.7509157007443719e-05 0.20132249593734741 0.040732402354478836
0.0031947167590260506 0.20302705466747284 0.038397256284952164
0.035675998777151108 0.21088618040084839 0.028212068602442741
0.090321816504001617 0.22069011628627777 0.015284993685781956
0.14292848110198975 0.23130463063716888 0.0040208003483712673
0.20301578938961029 0.24379046261310577 8.7941647507250309e-05
0.26673343777656555 0.25736039876937866 0
0.3359428346157074 0.27113419771194458 0
0.39760538935661316 0.27956056594848633 0
0.45127257704734802 0.2848411500453949 0
0.50825518369674683 0.28780123591423035 0
0.5571168065071106 0.28848963975906372 0
0.60643327236175537 0.28790926933288574 0
0.64919364452362061 0.28710272908210754 0
0.68893826007843018 0.28691980242729187 0
0.72229158878326416 0.28740233182907104 0
0.75620383024215698 0.28856098651885986 0
0.78471708297729492 0.28976675868034363 0
0.81363463401794434 0.29137736558914185 0
0.84083336591720581 0.29354491829872131 0
0.86476242542266846 0.29641827940940857 0
0.8896636962890625 0.3010634183883667 0
0.91214334964752197 0.30586442351341248 0
0.93557250499725342 0.31192916631698608 0
0.95743298530578613 0.31824344396591187 0
0.98000270128250122 0.32574060559272766 0
0.99756002426147461 0.33371195197105408 0
0.99999147653579712 0.34267112612724304 0
0.99999874830245972 0.35236212611198425 0
0 0.25086084008216858 0.031205199658870697
0 0.25006964802742004 0.035572737455368042
0 0.24546755850315094 0.041303049772977829
0 0.23951199650764465 0.048358399420976639
0.00011999256821582094 0.23662148416042328 0.051653716713190079
0.013213641941547394 0.24325734376907349 0.043059766292572021
0.065971620380878448 0.25307434797286987 0.029675297439098358
0.12342491000890732 0.26427397131919861 0.013953446410596371
0.18430696427822113 0.2775493860244751 0.0020063782576471567
0.24542924761772156 0.29065480828285217 5.4321943025570363e-05
0.31736084818840027 0.30561080574989319 0
0.38752827048301697 0.31828674674034119 0
0.44280907511711121 0.32537746429443359 0
0.49928703904151917 0.32990047335624695 0
0.54784297943115234 0.33155557513237 0
0.59675377607345581 0.33135932683944702 0
0.64050853252410889 0.32951503992080688 0
0.68117541074752808 0.32791423797607422 0
0.71481418609619141 0.32724365592002869 0
0.74870765209197998 0.32762879133224487 0
0.77725940942764282 0.32836255431175232 0
0.8064458966255188 0.32938683032989502 0
0.83400297164916992 0.33126610517501831 0
0.85836184024810791 0.33357825875282288 0
0.88349086046218872 0.33687281608581543 0
0.90621072053909302 0.34059238433837891 0
0.93002378940582275 0.34571236371994019 0
0.95218580961227417 0.35090342164039612 0
0.97488230466842651 0.35704526305198669 0
0.99486488103866577 0.36389395594596863 0
0.9999890923500061 0.37168541550636292 0
1 0.38031065464019775 0
0 0.29491415619850159 0.041554998606443405
0 0.29396983981132507 0.046030569821596146
0 0.28996729850769043 0.051636151969432831
0 0.28494313359260559 0.059087026864290237
0 0.27907490730285645 0.066621363162994385
0.0018853559158742428 0.28146284818649292 0.063911966979503632
0.035571683198213577 0.29102826118469238 0.051756054162979126
0.10098321735858917 0.30117508769035339 0.03512214869260788
0.16392740607261658 0.31301742792129517 0.014448587782680988
0.22263622283935547 0.32484471797943115 0.0022586267441511154
0.2900238037109375 0.33831223845481873 3.9167796785477549e-05
0.36321794986724854 0.35287082195281982 0
0.42815202474594116 0.36432322859764099 0
0.48699375987052917 0.37076810002326965 0
0.53516209125518799 0.373757004737854 0
0.58397740125656128 0.37465420365333557 0
0.62804675102233887 0.37404802441596985 0
0.67009091377258301 0.37255522608757019 0
0.70480149984359741 0.37026306986808777 0
0.73982387781143188 0.36866667866706848 0
0.7685733437538147 0.36861345171928406 0
0.79819416999816895 0.36879259347915649 0
0.82600671052932739 0.36998611688613892 0
0.85105377435684204 0.37198364734649658 0
0.87630969285964966 0.3740469217300415 0
0.89948916435241699 0.3772234320640564 0
0.92354118824005127 0.38116589188575745 0
0.94587194919586182 0.38546589016914368 0
0.96906030178070068 0.39059856534004211 0
0.99115192890167236 0.39649257063865662 0
0.99980068206787109 0.40294814109802246 0
0.99995768070220947 0.41003650426864624 0
0 0.33838337659835815 0.056603316217660904
0 0.33891323208808899 0.061580684036016464
0 0.33532300591468811 0.06688179075717926
0 0.33032634854316711 0.073411636054515839
0 0.32362273335456848 0.080905377864837646
5.6925269745988771e-05 0.31988245248794556 0.084716811776161194
0.010739698074758053 0.32573723793029785 0.076606370508670807
0.07326187938451767 0.33469867706298828 0.063073404133319855
0.14163139462471008 0.34546363353729248 0.043717097491025925
0.1998937577009201 0.35617804527282715 0.020471114665269852
0.26400625705718994 0.36862120032310486 0.0029281715396791697
0.33210259675979614 0.38171446323394775 5.7718509197002277e-05
0.39729002118110657 0.39422032237052917 0
0.46789005398750305 0.40663778781890869 0
0.52108442783355713 0.41235461831092834 0
0.57076555490493774 0.41494622826576233 0
0.61483180522918701 0.41540688276290894 0
0.65696936845779419 0.41478773951530457 0
0.69263917207717896 0.41326650977134705 0
0.72869765758514404 0.41112098097801208 0
0.75896114110946655 0.40898594260215759 0
0.78975480794906616 0.40767812728881836 0
0.818084716796875 0.40789911150932312 0
0.84337037801742554 0.4092249870300293 0
0.86942142248153687 0.41106340289115906 0
0.8929322361946106 0.41343247890472412 0
0.91724878549575806 0.41643232107162476 0
0.94009149074554443 0.41983914375305176 0
0.96383363008499146 0.42437678575515747 0
0.98689937591552734 0.42910802364349365 0
0.99941772222518921 0.43479332327842712 0
0.99999457597732544 0.44120883941650391 0
0 0.37518766522407532 0.072229713201522827
0 0.37586650252342224 0.077270157635211945
0 0.37227225303649902 0.081785738468170166
0 0.36764934659004211 0.087401404976844788
0 0.36127200722694397 0.094496913254261017
0 0.35454350709915161 0.10112101584672928
0.0018687213305383921 0.35543644428253174 0.09925214946269989
0.047075226902961731 0.36407792568206787 0.088479317724704742
0.12227167934179306 0.37391895055770874 0.073419034481048584
0.18112285435199738 0.38413882255554199 0.05301334336400032
0.24363094568252563 0.3958858847618103 0.024430654942989349
0.30836027860641479 0.40828689932823181 0.003953905776143074
0.36951571702957153 0.41939881443977356 0.00014137575635686517
0.43959671258926392 0.4320749044418335 4.3592459064711875e-07
0.50276237726211548 0.44279825687408447 0
0.55750536918640137 0.44760268926620483 0
0.60209321975708008 0.4495413601398468 0
0.64468342065811157 0.44977682828903198 0
0.68020343780517578 0.44878792762756348 0
0.71662640571594238 0.44715762138366699 0
0.74772262573242188 0.44509857892990112 0
0.77972805500030518 0.44281652569770813 0
0.80967342853546143 0.44115379452705383 0
0.83555829524993896 0.44115746021270752 0
0.86182570457458496 0.44209864735603333 0
0.88570570945739746 0.44380825757980347 0
0.91046369075775146 0.44657143950462341 0
0.93354284763336182 0.44909736514091492 0
0.95771288871765137 0.45282483100891113 0
0.98194044828414917 0.45709806680679321 0
0.99860584735870361 0.4620060920715332 0
0.99994724988937378 0.46767625212669373 0
0 0.41251024603843689 0.091169685125350952
0 0.41326692700386047 0.095864921808242798
0 0.41028493642807007 0.099718548357486725
0 0.40591177344322205 0.10471842437982559
0 0.39997941255569458 0.11058303713798523
0 0.39321905374526978 0.11750908941030502
0.00012149159738328308 0.38832804560661316 0.12203924357891083
0.025281660258769989 0.39396560192108154 0.11493302881717682
0.10068362206220627 0.40263816714286804 0.10267630219459534
0.16179484128952026 0.41206309199333191 0.088331505656242371
0.22280597686767578 0.42280331254005432 0.066763021051883698
0.28421872854232788 0.43370944261550903 0.035548374056816101
0.34168508648872375 0.44422966241836548 0.0098131662234663963
0.40689483284950256 0.45583328604698181 0.00062159058870747685
0.46852093935012817 0.46659198403358459 1.7114192587541766e-06
0.53484028577804565 0.47746804356575012 0
0.58715170621871948 0.48258650302886963 0
0.63052141666412354 0.48430448770523071 0
0.66664713621139526 0.48446059226989746 0
0.70380318164825439 0.48387140035629272 0
0.73531633615493774 0.48264476656913757 0
0.76819711923599243 0.48104485869407654 0
0.79889845848083496 0.47888141870498657 0
0.82584935426712036 0.47675272822380066 0
0.85330259799957275 0.47575625777244568 0
0.87830018997192383 0.47664546966552734 0
0.90354514122009277 0.47852057218551636 0
0.92685055732727051 0.48061051964759827 0
0.95163083076477051 0.48359483480453491 0
0.97621214389801025 0.48728892207145691 0
0.9971468448638916 0.49135318398475647 0
0.99999594688415527 0.49634024500846863 0
0 0.44374376535415649 0.10892647504806519
0 0.44519266486167908 0.11330766230821609
0 0.44246155023574829 0.11671101301908493
0 0.43858599662780762 0.12125030159950256
0 0.43298274278640747 0.12627394497394562
0 0.42655915021896362 0.13213065266609192
0 0.41902288794517517 0.1385151594877243
0.013046549633145332 0.41974350810050964 0.13728168606758118
0.0828280970454216 0.4275052547454834 0.12771520018577576
0.14602123200893402 0.43604648113250732 0.11631117016077042
0.20632840692996979 0.44601207971572876 0.10079314559698105
0.26553210616111755 0.45645132660865784 0.078966133296489716
0.32011398673057556 0.46635046601295471 0.050645079463720322
0.38178753852844238 0.47699081897735596 0.016071736812591553
0.43956980109214783 0.48666998744010925 0.0018090629018843174
0.50411844253540039 0.49749898910522461 6.4422194554936141e-05
0.56604260206222534 0.50771218538284302 0
0.6172221302986145 0.51254194974899292 0
0.65412980318069458 0.51366543769836426 0
0.69169032573699951 0.51402068138122559 0
0.72400009632110596 0.51375246047973633 0
0.75718718767166138 0.51282930374145508 0
0.78835773468017578 0.51105320453643799 0
0.81635075807571411 0.50964200496673584 0
0.84476006031036377 0.50814282894134521 0
0.87027275562286377 0.50630974769592285 0
0.89636975526809692 0.50615864992141724 0
0.92092478275299072 0.5078730583190918 0
0.94621926546096802 0.51092225313186646 0
0.97094720602035522 0.51382070779800415 0
0.99477899074554443 0.51749676465988159 0
0.99999022483825684 0.52215415239334106 0
0 0.47608664631843567 0.12925349175930023
0 0.47795194387435913 0.13361836969852448
0 0.4752543568611145 0.13652999699115753
0 0.47159644961357117 0.14001098275184631
0 0.46661686897277832 0.14443932473659515
0 0.46077460050582886 0.14957033097743988
0 0.45346170663833618 0.15576130151748657
0.0066991210915148258 0.44895452260971069 0.15921677649021149
0.067208774387836456 0.45376524329185486 0.15336225926876068
0.13285320997238159 0.46160793304443359 0.14459666609764099
0.19235339760780334 0.47072955965995789 0.13288286328315735
0.24888360500335693 0.48012983798980713 0.11706840246915817
0.30045318603515625 0.48894745111465454 0.098881445825099945
0.35883596539497375 0.49912852048873901 0.070741884410381317
0.4130072295665741 0.50809192657470703 0.037247661501169205
0.4731905460357666 0.51744627952575684 0.0081472937017679214
0.53293168544769287 0.52689415216445923 0.00035531865432858467
0.59332418441772461 0.53692770004272461 1.03343529644917e-06
0.63874590396881104 0.54154086112976074 0
0.67832523584365845 0.54310709238052368 0
0.71083897352218628 0.54358375072479248 0
0.74507623910903931 0.54395514726638794 0
0.7769087553024292 0.54285615682601929 0
0.80499309301376343 0.54150605201721191 0
0.83382487297058105 0.54042083024978638 0
0.86005920171737671 0.53910726308822632 0
0.88742148876190186 0.53817051649093628 0
0.91303569078445435 0.53775477409362793 0
0.9391627311706543 0.53878301382064819 0
0.96464264392852783 0.54107928276062012 0
0.99057269096374512 0.54439306259155273 0
0.99985873699188232 0.54824638366699219 0
0 0.50598090887069702 0.14996050298213959
0 0.50683814287185669 0.15351986885070801
0 0.50439250469207764 0.15571525692939758
0 0.50135910511016846 0.15902930498123169
0 0.49681174755096436 0.16300235688686371
0 0.49158871173858643 0.16706183552742004
