LUTs/Kodak Ektar 100.cube
# Created by: G'MIC (https://gmic.eu)
TITLE "Kodak Ektar 100"
# LUT size
LUT_3D_SIZE 32
# Data domain
DOMAIN_MIN 0.0 0.0 0.0
DOMAIN_MAX 1.0 1.0 1.0
# LUT data points
0.018418215215206146 0.013719867914915085 0.015200822614133358
0.044944692403078079 0.015713468194007874 0.012691202573478222
0.082814335823059082 0.019259704276919365 0.018579630181193352
0.12206922471523285 0.02619687095284462 0.015227759256958961
0.17285612225532532 0.031348001211881638 0.022699028253555298
0.20816910266876221 0.025034504011273384 0.020117240026593208
0.26459088921546936 0.038059968501329422 0.023902822285890579
0.28620722889900208 0.034203082323074341 0.013398374430835247
0.29309254884719849 0.029169213026762009 0.011168357916176319
0.30817708373069763 0.028904562816023827 0.013158970512449741
0.34530791640281677 0.029204361140727997 0.0096843717619776726
0.38135790824890137 0.028282830491662025 0.0047521903179585934
0.4305567741394043 0.027079259976744652 0.0057439636439085007
0.49125930666923523 0.036796364933252335 0.0060412879101932049
0.51805490255355835 0.048991486430168152 0.018088715150952339
0.53503763675689697 0.069490708410739899 0.036265961825847626
0.55558902025222778 0.086624875664710999 0.052520379424095154
0.57993221282958984 0.10037959367036819 0.066449061036109924
0.6070902943611145 0.1122310534119606 0.078470304608345032
0.63860964775085449 0.12268964946269989 0.088026545941829681
0.67603838443756104 0.12670506536960602 0.091456957161426544
0.71551209688186646 0.12681101262569427 0.091924689710140228
0.75501948595046997 0.12577919661998749 0.092047169804573059
0.79563945531845093 0.12684391438961029 0.093622356653213501
0.83695375919342041 0.12742091715335846 0.093331918120384216
0.87879782915115356 0.12655119597911835 0.089942090213298798
0.92040872573852539 0.12536343932151794 0.085712447762489319
0.95226722955703735 0.11909430474042892 0.077339127659797668
0.97036910057067871 0.11011809855699539 0.066537313163280487
0.98284924030303955 0.10158341377973557 0.054743397980928421
0.99136674404144287 0.093753807246685028 0.042414311319589615
0.99712443351745605 0.090151794254779816 0.03664344921708107
0.019914250820875168 0.036358963698148727 0.01988343708217144
0.049390390515327454 0.043641619384288788 0.023166516795754433
0.081559039652347565 0.050335720181465149 0.028075840324163437
0.10916761308908463 0.058652717620134354 0.032720319926738739
0.15341740846633911 0.065426819026470184 0.03721967339515686
0.19767540693283081 0.061104927211999893 0.032255522906780243
0.24105121195316315 0.066070124506950378 0.02959885261952877
0.2656225860118866 0.068081744015216827 0.02254752442240715
0.28305900096893311 0.058457124978303909 0.014975343830883503
0.30714094638824463 0.055282298475503922 0.017641175538301468
0.34099525213241577 0.051972635090351105 0.016967335715889931
0.37270978093147278 0.045699626207351685 0.011910371482372284
0.40651461482048035 0.052325844764709473 0.012984153814613819
0.45021528005599976 0.060751065611839294 0.016416113823652267
0.50030803680419922 0.063379041850566864 0.025691770017147064
0.52853983640670776 0.07701149582862854 0.040331918746232986
0.55143576860427856 0.093213163316249847 0.055335011333227158
0.5769268274307251 0.10751566290855408 0.068985015153884888
0.60582572221755981 0.12054628878831863 0.081168487668037415
0.63902413845062256 0.13059951364994049 0.089930310845375061
0.67694848775863647 0.13444238901138306 0.093073561787605286
0.71644395589828491 0.13494633138179779 0.093750834465026855
0.75585943460464478 0.13459545373916626 0.094295233488082886
0.79658979177474976 0.13572059571743011 0.096078693866729736
0.83793169260025024 0.13583101332187653 0.095889076590538025
0.87926918268203735 0.13355304300785065 0.091633573174476624
0.92156243324279785 0.13167153298854828 0.086478784680366516
0.95650804042816162 0.12516702711582184 0.076165579259395599
0.97442364692687988 0.11397524923086166 0.062726497650146484
0.98461270332336426 0.10489678382873535 0.051819466054439545
0.99236255884170532 0.097898021340370178 0.041606541723012924
0.99744641780853271 0.094774380326271057 0.036813613027334213
0.029401864856481552 0.064120970666408539 0.032905329018831253
0.055740177631378174 0.073594406247138977 0.034057535231113434
0.089645996689796448 0.090357191860675812 0.036810383200645447
0.10349015146493912 0.076936878263950348 0.033739518374204636
0.14252524077892303 0.085552655160427094 0.037125140428543091
0.18872831761837006 0.095398366451263428 0.047143377363681793
0.22951921820640564 0.096099331974983215 0.040118377655744553
0.25331860780715942 0.09075753390789032 0.022505022585391998
0.27117368578910828 0.087342806160449982 0.014889631420373917
0.29694303870201111 0.083338014781475067 0.018748102709650993
0.32977932691574097 0.081479929387569427 0.026438111439347267
0.36572825908660889 0.080420784652233124 0.028927605599164963
0.39967265725135803 0.084843717515468597 0.030934389680624008
0.43111833930015564 0.090029329061508179 0.034003995358943939
0.4727056622505188 0.09171634167432785 0.040002144873142242
0.51447266340255737 0.095703057944774628 0.049755755811929703
0.54499202966690063 0.10563959926366806 0.06143280491232872
0.57385545969009399 0.11766456067562103 0.07377886027097702
0.60517352819442749 0.12902253866195679 0.08466271311044693
0.63967412710189819 0.13782960176467896 0.092153973877429962
0.67796534299850464 0.14187747240066528 0.095456741750240326
0.71727538108825684 0.14317011833190918 0.096630066633224487
0.75636839866638184 0.14334404468536377 0.097114518284797668
0.79689109325408936 0.1442011296749115 0.098745353519916534
0.83767855167388916 0.14340688288211823 0.098407700657844543
0.87716716527938843 0.1385347843170166 0.092490717768669128
0.91849201917648315 0.13399796187877655 0.083717167377471924
0.95620614290237427 0.12765763700008392 0.070615999400615692
0.97883647680282593 0.11720168590545654 0.056018799543380737
0.98756241798400879 0.10878831148147583 0.047577239573001862
0.99307882785797119 0.10289295017719269 0.04135093092918396
0.99670583009719849 0.10079250484704971 0.038874875754117966
0.038195844739675522 0.099820315837860107 0.055108189582824707
0.055119190365076065 0.10121107846498489 0.050737220793962479
0.080327019095420837 0.10343658179044724 0.046886216849088669
0.10549379885196686 0.10359629243612289 0.038499467074871063
0.13834117352962494 0.10927185416221619 0.03611384704709053
0.17640860378742218 0.11365498602390289 0.043122779577970505
0.22077924013137817 0.11900398135185242 0.038419902324676514
0.24697856605052948 0.11410662531852722 0.024797810241580009
0.25530046224594116 0.10846991091966629 0.01425714697688818
0.28372877836227417 0.10726238787174225 0.01868438720703125
0.32057866454124451 0.11040499061346054 0.033332563936710358
0.35913091897964478 0.11346884816884995 0.044152554124593735
0.3943820595741272 0.1159011647105217 0.048363368958234787
0.42668455839157104 0.11766473203897476 0.052195452153682709
0.46100723743438721 0.11913495510816574 0.056457743048667908
0.50016933679580688 0.12119806557893753 0.062564529478549957
0.53734284639358521 0.12545354664325714 0.071144789457321167
0.57173293828964233 0.13207009434700012 0.081421636044979095
0.60579377412796021 0.13933055102825165 0.090155251324176788
0.64158028364181519 0.14732271432876587 0.097529336810112
0.67998993396759033 0.15205258131027222 0.10148556530475616
0.71849006414413452 0.15372195839881897 0.10204332321882248
0.75695770978927612 0.1538773775100708 0.10160591453313828
0.79686933755874634 0.15387558937072754 0.10226171463727951
0.83635818958282471 0.15167397260665894 0.10100796818733215
0.87318497896194458 0.14386764168739319 0.093106560409069061
0.91195952892303467 0.1358238011598587 0.080194808542728424
0.95082682371139526 0.12929415702819824 0.065079212188720703
0.9793974757194519 0.12143973261117935 0.050297163426876068
0.98951303958892822 0.11702931672334671 0.044076208025217056
0.99108219146728516 0.11541960388422012 0.043378964066505432
0.99248182773590088 0.11517734825611115 0.042919278144836426
0.051856506615877151 0.12223751842975616 0.068384848535060883
0.058973241597414017 0.12292823195457458 0.063785530626773834
0.076457612216472626 0.12310117483139038 0.057335864752531052
0.10107741504907608 0.12385071069002151 0.051495224237442017
0.13031978905200958 0.12794545292854309 0.046085864305496216
0.16289104521274567 0.13306163251399994 0.041809085756540298
0.2010556161403656 0.13507038354873657 0.037270903587341309
0.23352941870689392 0.13062761723995209 0.038777288049459457
0.27195137739181519 0.14451058208942413 0.042113400995731354
0.3025003969669342 0.15301576256752014 0.055204242467880249
0.32866778969764709 0.14864815771579742 0.05781802162528038
0.35815495252609253 0.1466413289308548 0.061195105314254761
0.38904482126235962 0.14590318500995636 0.064096421003341675
0.42106878757476807 0.14617563784122467 0.067993044853210449
0.45605254173278809 0.1467573344707489 0.07298336923122406
0.49343162775039673 0.14777204394340515 0.076862059533596039
0.53150016069412231 0.1499878317117691 0.083695732057094574
0.56948423385620117 0.15264517068862915 0.091736070811748505
0.60715067386627197 0.15656661987304688 0.10013014078140259
0.64392602443695068 0.1632683128118515 0.10720638185739517
0.68211305141448975 0.16757720708847046 0.11098168790340424
0.71989071369171143 0.16881270706653595 0.11064349114894867
0.75695562362670898 0.16793754696846008 0.10804059356451035
0.7952035665512085 0.16624923050403595 0.105743408203125
0.83336144685745239 0.163320392370224 0.10325618833303452
0.86781179904937744 0.15456530451774597 0.094180084764957428
0.90380215644836426 0.14507898688316345 0.079775415360927582
0.94082427024841309 0.13851813971996307 0.063695773482322693
0.97137784957885742 0.13454905152320862 0.049463994801044464
0.98449420928955078 0.134280726313591 0.044395990669727325
0.98579508066177368 0.13498987257480621 0.046188909560441971
0.9861871600151062 0.13550512492656708 0.047248285263776779
0.065405890345573425 0.143309086561203 0.078614547848701477
0.069353073835372925 0.14173394441604614 0.075287848711013794
0.076217293739318848 0.13968253135681152 0.071053139865398407
0.094793610274791718 0.14135202765464783 0.065407343208789825
0.12396276742219925 0.14904187619686127 0.056192871183156967
0.15372420847415924 0.15736493468284607 0.047588128596544266
0.187740758061409 0.15920761227607727 0.046014592051506042
0.23302721977233887 0.16042919456958771 0.05633162334561348
0.27787336707115173 0.17169894278049469 0.063688434660434723
0.3080991804599762 0.17992575466632843 0.070398919284343719
0.33275619149208069 0.17955093085765839 0.074117787182331085
0.35813415050506592 0.17702540755271912 0.075425386428833008
0.38535910844802856 0.17527581751346588 0.076723597943782806
0.41544312238693237 0.17490363121032715 0.080372460186481476
0.45061203837394714 0.17531582713127136 0.087768502533435822
0.48880356550216675 0.17528592050075531 0.090689942240715027
0.52733534574508667 0.17591726779937744 0.094328843057155609
0.5658758282661438 0.17749984562397003 0.10092499852180481
0.60503077507019043 0.18091215193271637 0.10980440676212311
0.6438448429107666 0.18559958040714264 0.11771169304847717
0.68196481466293335 0.18847288191318512 0.1218327060341835
0.71832036972045898 0.1880878210067749 0.11951090395450592
0.75310015678405762 0.18492670357227325 0.11256413161754608
0.78936666250228882 0.18172357976436615 0.10694015026092529
0.82616925239562988 0.17995014786720276 0.10321453958749771
0.85992056131362915 0.17447619140148163 0.095984384417533875
0.89350259304046631 0.1666649729013443 0.083144739270210266
0.92711842060089111 0.16169051826000214 0.068380296230316162
0.95554077625274658 0.16008070111274719 0.055467750877141953
0.97068160772323608 0.16082374751567841 0.050335928797721863
0.97479891777038574 0.16078454256057739 0.050841949880123138
0.97699880599975586 0.15988993644714355 0.051669519394636154
0.07805352658033371 0.16472017765045166 0.089220799505710602
0.081287145614624023 0.16103933751583099 0.088284283876419067
0.08487488329410553 0.15867792069911957 0.087971657514572144
0.09902685135602951 0.16293758153915405 0.086745202541351318
0.12812989950180054 0.1733146607875824 0.079413317143917084
0.15736141800880432 0.18165381252765656 0.071593619883060455
0.1863812655210495 0.18312101066112518 0.067416355013847351
0.22492113709449768 0.1852036714553833 0.069464661180973053
0.26150897145271301 0.19243825972080231 0.06635863333940506
0.29347983002662659 0.19967751204967499 0.067478403449058533
0.32112497091293335 0.20207691192626953 0.071678653359413147
0.34819510579109192 0.20152807235717773 0.074580729007720947
0.3770829439163208 0.2014363706111908 0.077767468988895416
0.40957304835319519 0.20265756547451019 0.084958180785179138
0.44607540965080261 0.20300611853599548 0.094038285315036774
0.48425516486167908 0.20248915255069733 0.097792334854602814
0.52265036106109619 0.20238254964351654 0.1008182018995285
0.56091892719268799 0.20353028178215027 0.10826514661312103
0.60032981634140015 0.20671282708644867 0.11744251102209091
0.64044815301895142 0.21129725873470306 0.12640775740146637
0.67702603340148926 0.21191060543060303 0.12770631909370422
0.71079820394515991 0.20952244102954865 0.12244575470685959
0.7447514533996582 0.20571856200695038 0.11443271487951279
0.78071755170822144 0.20313218235969543 0.10856969654560089
0.81650149822235107 0.20212392508983612 0.1035626083612442
0.8508184552192688 0.20095984637737274 0.099510185420513153
0.88289958238601685 0.19574496150016785 0.089361771941184998
0.91272449493408203 0.19084611535072327 0.075884759426116943
0.93834090232849121 0.18917155265808105 0.063907414674758911
0.95456570386886597 0.18980942666530609 0.058397762477397919
0.96094381809234619 0.18966740369796753 0.058157593011856079
0.96455186605453491 0.18838997185230255 0.058028396219015121
0.093022257089614868 0.19093850255012512 0.10418359190225601
0.098124094307422638 0.18883724510669708 0.10626555234193802
0.10451936721801758 0.18958817422389984 0.11039004474878311
0.11721125990152359 0.19538404047489166 0.11412851512432098
0.14082416892051697 0.20400525629520416 0.10912666469812393
0.16566576063632965 0.20840734243392944 0.10039463639259338
0.1848318874835968 0.20563451945781708 0.090135462582111359
0.20633985102176666 0.20437592267990112 0.077988646924495697
0.2408103346824646 0.21335291862487793 0.067968323826789856
0.27689340710639954 0.22318720817565918 0.06593264639377594
0.30646803975105286 0.22549836337566376 0.068190410733222961
0.33558183908462524 0.22492522001266479 0.070739276707172394
0.36852321028709412 0.22811438143253326 0.077020756900310516
0.40439558029174805 0.22948664426803589 0.085919693112373352
0.44196590781211853 0.22922720015048981 0.093892663717269897
0.48006746172904968 0.22948268055915833 0.10047533363103867
0.51776129007339478 0.22993279993534088 0.10747173428535461
0.55557477474212646 0.22992129623889923 0.11546196043491364
0.59443259239196777 0.23148798942565918 0.12258099764585495
0.63308358192443848 0.23428516089916229 0.12694604694843292
0.66907721757888794 0.23488789796829224 0.12672753632068634
0.70212209224700928 0.23203819990158081 0.12201021611690521
0.73559588193893433 0.22942358255386353 0.11548829823732376
0.77104711532592773 0.2289893627166748 0.11035829782485962
0.8061748743057251 0.22919683158397675 0.10526411235332489
0.84064918756484985 0.23005205392837524 0.10256867855787277
0.8719867467880249 0.22727872431278229 0.094997316598892212
0.8990294337272644 0.22213628888130188 0.083119727671146393
0.92167991399765015 0.21959345042705536 0.072825491428375244
0.93839734792709351 0.21968530118465424 0.067053578794002533
0.94697386026382446 0.21961730718612671 0.066172190010547638
0.95195478200912476 0.21844761073589325 0.065564952790737152
0.11075315624475479 0.22397038340568542 0.12294965982437134
0.11829394847154617 0.22388762235641479 0.12702134251594543
0.12803494930267334 0.22748629748821259 0.13366453349590302
0.14052441716194153 0.23390406370162964 0.14023521542549133
0.15826401114463806 0.24058510363101959 0.14085462689399719
0.1769597977399826 0.24122661352157593 0.13139382004737854
0.19207313656806946 0.2370254248380661 0.11716523766517639
0.2089945524930954 0.23468717932701111 0.097980760037899017
0.23591691255569458 0.2406621128320694 0.080473475158214569
0.26513707637786865 0.24648232758045197 0.068441241979598999
0.29295948147773743 0.2444746345281601 0.063005469739437103
0.32609519362449646 0.24941019713878632 0.067994154989719391
0.36221325397491455 0.25378561019897461 0.077037043869495392
0.39896294474601746 0.25395548343658447 0.087247051298618317
0.43749231100082397 0.25548636913299561 0.097683891654014587
0.47577759623527527 0.25759345293045044 0.1077473983168602
0.51317232847213745 0.25974428653717041 0.11835825443267822
0.55054640769958496 0.26109135150909424 0.12701040506362915
0.58834898471832275 0.26146894693374634 0.13019903004169464
0.62526488304138184 0.26034623384475708 0.12823991477489471
0.66118896007537842 0.2589869499206543 0.12459923326969147
0.69534087181091309 0.25684788823127747 0.1209777295589447
0.72812223434448242 0.2563614547252655 0.11641599982976913
0.76175755262374878 0.25741899013519287 0.11156928539276123
0.79571497440338135 0.25776055455207825 0.10618707537651062
0.82991361618041992 0.25888651609420776 0.10308723151683807
0.86087346076965332 0.25814500451087952 0.097625419497489929
0.88642621040344238 0.25374430418014526 0.087534263730049133
0.90680211782455444 0.25098702311515808 0.079690150916576385
0.92312079668045044 0.25028151273727417 0.075090184807777405
0.9337049126625061 0.25012058019638062 0.073649048805236816
0.94022214412689209 0.24918128550052643 0.072900943458080292
0.12866947054862976 0.25996825098991394 0.14181952178478241
0.13914547860622406 0.26187139749526978 0.14800111949443817
0.1517297774553299 0.26656979322433472 0.15739054977893829
0.16474813222885132 0.27256721258163452 0.16791567206382751
0.1778055876493454 0.27813619375228882 0.17403614521026611
0.19174537062644958 0.27878269553184509 0.16563069820404053
0.20331697165966034 0.27226558327674866 0.14331232011318207
0.21872416138648987 0.26772758364677429 0.1198388859629631
0.24026866257190704 0.26884204149246216 0.099715113639831543
0.26126822829246521 0.26756507158279419 0.080088287591934204
0.285491943359375 0.26320388913154602 0.067047841846942902
0.32050561904907227 0.27332222461700439 0.071928165853023529
0.35496655106544495 0.27585083246231079 0.081935614347457886
0.39387929439544678 0.27943146228790283 0.09491344541311264
0.43331512808799744 0.28348842263221741 0.10720151662826538
0.47169110178947449 0.28706455230712891 0.11846555024385452
0.50904315710067749 0.29013076424598694 0.13001172244548798
0.54581737518310547 0.29238274693489075 0.13900953531265259
0.58223903179168701 0.29293864965438843 0.13991755247116089
0.61792612075805664 0.29158350825309753 0.13512136042118073
0.6534419059753418 0.28923529386520386 0.12794236838817596
0.68860864639282227 0.2869543731212616 0.12190665304660797
0.72157770395278931 0.2859673798084259 0.11673854291439056
0.75335520505905151 0.28669187426567078 0.11144375801086426
0.7863190770149231 0.28678551316261292 0.10586187243461609
0.820076584815979 0.2875155508518219 0.10202775895595551
0.8503718376159668 0.28740063309669495 0.09706810861825943
0.87496936321258545 0.2843385636806488 0.088937841355800629
0.89460170269012451 0.28220969438552856 0.083612732589244843
0.90990012884140015 0.28134378790855408 0.081252075731754303
0.92154103517532349 0.28094494342803955 0.080121219158172607
0.92965614795684814 0.28024667501449585 0.079442456364631653
0.1458171010017395 0.29620605707168579 0.16001024842262268
0.15838874876499176 0.29811030626296997 0.16823770105838776
0.17095661163330078 0.30169582366943359 0.17816488444805145
0.18246302008628845 0.30624896287918091 0.18825741112232208
0.19081361591815948 0.30940419435501099 0.1944611519575119
0.19785809516906738 0.30760663747787476 0.18802134692668915
0.20811109244823456 0.30090221762657166 0.1638229638338089
0.22135965526103973 0.29449030756950378 0.13715803623199463
0.23963204026222229 0.29149630665779114 0.11769549548625946
0.26258492469787598 0.29010653495788574 0.10311373323202133
0.28866949677467346 0.2881208062171936 0.091488964855670929
0.31636324524879456 0.29695150256156921 0.098906338214874268
0.34968918561935425 0.30217832326889038 0.10347313433885574
0.39026644825935364 0.30725419521331787 0.11058779060840607
0.42984721064567566 0.31205925345420837 0.11990765482187271
0.46823874115943909 0.31623357534408569 0.12950070202350616
0.5054398775100708 0.31968078017234802 0.1404908150434494
0.54128628969192505 0.32210752367973328 0.14851926267147064
0.57614505290985107 0.32286337018013 0.14741359651088715
0.61076444387435913 0.32224977016448975 0.14156711101531982
0.64541184902191162 0.32073789834976196 0.13355566561222076
0.68006986379623413 0.31862270832061768 0.12452845275402069
0.71404403448104858 0.31653988361358643 0.11685891449451447
0.74606162309646606 0.31587943434715271 0.11142574995756149
0.77852135896682739 0.31564980745315552 0.10614664107561111
0.81181859970092773 0.31594821810722351 0.10220281779766083
0.84134018421173096 0.31567835807800293 0.097453378140926361
0.86497288942337036 0.31369557976722717 0.090639181435108185
0.88438493013381958 0.31252190470695496 0.087299972772598267
0.89899516105651855 0.31197449564933777 0.086460426449775696
0.91049283742904663 0.31161153316497803 0.086205624043941498
0.91988492012023926 0.31126350164413452 0.085640393197536469
0.15323399007320404 0.3243158757686615 0.16923755407333374
0.1640242338180542 0.32446733117103577 0.17571994662284851
0.17368024587631226 0.3256828784942627 0.18280510604381561
0.18128183484077454 0.32720473408699036 0.18911221623420715
0.18610918521881104 0.32731181383132935 0.19227351248264313
0.19136853516101837 0.32423698902130127 0.18902048468589783
0.19886265695095062 0.31767451763153076 0.17134620249271393
0.21258716285228729 0.31257408857345581 0.14880304038524628
0.23737436532974243 0.31302949786186218 0.1356336921453476
0.266450434923172 0.31534740328788757 0.12731616199016571
0.29504814743995667 0.31984025239944458 0.12338981777429581
0.31910273432731628 0.32441410422325134 0.12433464825153351
0.34930714964866638 0.32882082462310791 0.12310601025819778
0.38768428564071655 0.33383512496948242 0.12457175552845001
0.42691567540168762 0.33878049254417419 0.13048969209194183
0.46511727571487427 0.3433493971824646 0.13824185729026794
0.50192618370056152 0.34726825356483459 0.14804200828075409
0.53721755743026733 0.35026082396507263 0.15493623912334442
0.57150894403457642 0.35172945261001587 0.15355852246284485
0.60547113418579102 0.35178551077842712 0.14749634265899658
0.63914978504180908 0.3506905734539032 0.13868516683578491
0.67241126298904419 0.34889900684356689 0.12824897468090057
0.70576196908950806 0.34684082865715027 0.11998499929904938
0.73863369226455688 0.34480258822441101 0.11415260285139084
0.77081549167633057 0.34379753470420837 0.10859809070825577
0.80329269170761108 0.34366193413734436 0.10402249544858932
0.83184909820556641 0.3433874249458313 0.099124237895011902
0.85499507188796997 0.34255883097648621 0.094420716166496277
0.87422323226928711 0.34226611256599426 0.093805789947509766
0.88790231943130493 0.34199297428131104 0.094378083944320679
0.89862418174743652 0.34176728129386902 0.094913363456726074
0.90836119651794434 0.341724693775177 0.094408601522445679
0.14982406795024872 0.34511232376098633 0.16806437075138092
0.1589970588684082 0.34409460425376892 0.17274795472621918
0.16573475301265717 0.34334078431129456 0.17658048868179321
0.17008934915065765 0.34241890907287598 0.17887027561664581
0.17377385497093201 0.34091141819953918 0.17968262732028961
0.18029637634754181 0.33817079663276672 0.1791444718837738
0.18942220509052277 0.33423370122909546 0.17137295007705688
0.20785665512084961 0.33399537205696106 0.15921564400196075
0.23863457143306732 0.33888128399848938 0.15164676308631897
