LUTs/Kodak Portra 160 3 +.cube
# Created by: G'MIC (https://gmic.eu)
TITLE "Kodak Portra 160 3 +"
# LUT size
LUT_3D_SIZE 5
# Data domain
# LUT data points
DOMAIN_MIN 0.000000 0.000000 0.000000
DOMAIN_MAX 0.903226 0.903226 0.903226
0.030052721500396729 0.039905913174152374 0.032950829714536667
0.18739764392375946 0.038204647600650787 0.030058819800615311
0.49868780374526978 0 0.0067342254333198071
0.78261488676071167 0 0
0.97679769992828369 0.007416857872158289 0
0.00023624311143066734 0.19064494967460632 0.023925367742776871
0.16767890751361847 0.20673221349716187 0.0101031344383955
0.52799326181411743 0.23523175716400146 0
0.78593677282333374 0.2295641303062439 0
0.97438263893127441 0.25914663076400757 0
0 0.44841912388801575 0
0.15781737864017487 0.43487748503684998 0
0.45058295130729675 0.48681420087814331 0
0.76017707586288452 0.52372342348098755 0
0.96430677175521851 0.50189650058746338 0
0.14806240797042847 0.6551700234413147 0.01046022679656744
0.24672755599021912 0.64268720149993896 0.0011816076003015041
0.43651747703552246 0.64901667833328247 1.6090430108306464e-06
0.67694282531738281 0.69420570135116577 8.7193429862963967e-06
0.92384696006774902 0.73963171243667603 0
0.42187798023223877 0.84125816822052002 0.25049695372581482
0.45684120059013367 0.83678698539733887 0.24060019850730896
0.54145371913909912 0.82545888423919678 0.21295055747032166
0.70995086431503296 0.84696018695831299 0.24486997723579407
0.88561534881591797 0.87454050779342651 0.2853507399559021
0.0014846414560452104 0.049742460250854492 0.20974807441234589
0.20199917256832123 0.049227353185415268 0.2144787609577179
0.5353618860244751 0 0.22586795687675476
0.7871207594871521 0 0.2047974020242691
0.97464632987976074 0.0020464658737182617 0.19495801627635956
0 0.23620201647281647 0.21329833567142487
0.21898794174194336 0.2366698831319809 0.22219944000244141
0.54029017686843872 0.22564984858036041 0.21057070791721344
0.78785157203674316 0.21744590997695923 0.19027210772037506
0.97318285703659058 0.25099924206733704 0.17118352651596069
0.036184210330247879 0.50028198957443237 0.23338346183300018
0.22865986824035645 0.48036429286003113 0.22048528492450714
0.4808279275894165 0.50322461128234863 0.21561121940612793
0.77202624082565308 0.51408594846725464 0.12653252482414246
0.96471613645553589 0.49570274353027344 0.046087011694908142
0.23212313652038574 0.67832005023956299 0.25244322419166565
0.30306532979011536 0.66629111766815186 0.23906542360782623
0.45197182893753052 0.65406578779220581 0.21838341653347015
0.68557977676391602 0.69894176721572876 0.24507959187030792
0.92572599649429321 0.73752313852310181 0.18089252710342407
0.44006437063217163 0.84743702411651611 0.35394755005836487
0.47204738855361938 0.84298968315124512 0.3442789614200592
0.54874789714813232 0.82944965362548828 0.31370294094085693
0.70988982915878296 0.84679150581359863 0.33684605360031128
0.88604700565338135 0.87547761201858521 0.37879374623298645
0 0.087000787258148193 0.54360097646713257
0.2361285388469696 0.093382216989994049 0.55001711845397949
0.56454950571060181 0.099982060492038727 0.5614435076713562
0.83270561695098877 0.18537129461765289 0.55399471521377563
0.98813295364379883 0.24121762812137604 0.52306002378463745
0 0.27381217479705811 0.5363394021987915
0.26217472553253174 0.2881227433681488 0.54690396785736084
0.56685179471969604 0.31842479109764099 0.55849862098693848
0.81504899263381958 0.36047956347465515 0.55201506614685059
0.97252136468887329 0.34801560640335083 0.5157092809677124
0.0068414164707064629 0.5640873908996582 0.53427934646606445
0.2883639931678772 0.56068164110183716 0.5365719199180603
0.54939949512481689 0.54599976539611816 0.53611528873443604
0.76663988828659058 0.52584636211395264 0.50966614484786987
0.94837462902069092 0.51509934663772583 0.4818994402885437
0.34790092706680298 0.73621642589569092 0.51502543687820435
0.42489480972290039 0.72824835777282715 0.52207821607589722
0.52765858173370361 0.69305580854415894 0.49742186069488525
0.70809817314147949 0.71391040086746216 0.50910651683807373
0.93093550205230713 0.72790169715881348 0.46425959467887878
0.50316441059112549 0.86728131771087646 0.54891562461853027
0.52494680881500244 0.86241304874420166 0.53872555494308472
0.58196407556533813 0.84828269481658936 0.50630229711532593
0.70651489496231079 0.84537327289581299 0.49047887325286865
0.88825911283493042 0.87755382061004639 0.53945297002792358
0.16183172166347504 0.18721294403076172 0.76464056968688965
0.3436356782913208 0.20357224345207214 0.76757776737213135
0.5885656476020813 0.25668433308601379 0.77136057615280151
0.8102797269821167 0.33661982417106628 0.77359956502914429
0.98363614082336426 0.42838910222053528 0.76314222812652588
0.24138273298740387 0.35120579600334167 0.75856876373291016
0.37979859113693237 0.36436086893081665 0.76081490516662598
0.59631979465484619 0.40408974885940552 0.76499420404434204
0.80262303352355957 0.45949611067771912 0.76958715915679932
0.97216415405273438 0.5208631157875061 0.76352769136428833
0.2512086033821106 0.54685688018798828 0.73256111145019531
0.38706964254379272 0.55591303110122681 0.73550891876220703
0.59720242023468018 0.58854824304580688 0.74540561437606812
0.78573793172836304 0.62820732593536377 0.75754719972610474
0.95458805561065674 0.66097760200500488 0.76409256458282471
0.40290218591690063 0.77376621961593628 0.73753780126571655
0.4731849730014801 0.77150839567184448 0.73825252056121826
0.61058300733566284 0.76296699047088623 0.73679029941558838
0.76444858312606812 0.74907821416854858 0.73387551307678223
0.92906087636947632 0.72558510303497314 0.70680075883865356
0.58710718154907227 0.90515178442001343 0.73225975036621094
0.61161565780639648 0.90237724781036377 0.73192018270492554
0.66794699430465698 0.89284944534301758 0.72606199979782104
0.73845744132995605 0.86122125387191772 0.68984872102737427
0.89908134937286377 0.88311511278152466 0.71169739961624146
0.44708928465843201 0.3799319863319397 0.92071413993835449
0.51445305347442627 0.39476662874221802 0.92041021585464478
0.65404218435287476 0.43610408902168274 0.91972923278808594
0.81112170219421387 0.50904947519302368 0.91924077272415161
0.95717769861221313 0.57014179229736328 0.919200599193573
0.4781988263130188 0.48435601592063904 0.91597157716751099
0.53707247972488403 0.49488568305969238 0.91608637571334839
0.66387408971786499 0.52419811487197876 0.91581934690475464
0.81259089708328247 0.57911831140518188 0.91645139455795288
0.95264220237731934 0.6236194372177124 0.91763889789581299
0.50826162099838257 0.63158291578292847 0.90367472171783447
0.55904293060302734 0.6374393105506897 0.9053424596786499
0.67402112483978271 0.65532547235488892 0.90713071823120117
0.81400084495544434 0.68868154287338257 0.91132479906082153
0.94702625274658203 0.71758317947387695 0.91630327701568604
0.48719155788421631 0.76845318078994751 0.8932611346244812
0.53058743476867676 0.76536941528320312 0.89299988746643066
0.63516330718994141 0.75751006603240967 0.89224624633789062
0.80499714612960815 0.78383845090866089 0.90325456857681274
0.94672191143035889 0.8175818920135498 0.91668450832366943
0.60178792476654053 0.93016517162322998 0.90401166677474976
0.63269984722137451 0.92897564172744751 0.90432018041610718
0.71126812696456909 0.92601823806762695 0.90577632188796997
0.82263100147247314 0.92126309871673584 0.90812283754348755
0.93779104948043823 0.9122810959815979 0.90628820657730103
