LUTs/Kodak Portra 160 2.cube
# Created by: G'MIC (https://gmic.eu)
TITLE "Kodak Portra 160 2"
# LUT size
LUT_3D_SIZE 5
# Data domain
# LUT data points
DOMAIN_MIN 0.000000 0.000000 0.000000
DOMAIN_MAX 0.903226 0.903226 0.903226
0.0096041169017553329 0.013229787349700928 0.010767725296318531
0.16719509661197662 0.015771485865116119 0.0085040377452969551
0.51073658466339111 0 0
0.79085338115692139 0 0
0.96539992094039917 0.074727140367031097 0
0 0.17186802625656128 0.0031324953306466341
0.14953432977199554 0.19043280184268951 1.8372686099610291e-05
0.56296449899673462 0.24706722795963287 0
0.80198949575424194 0.25233930349349976 0
0.96752017736434937 0.28901934623718262 0
0 0.44816836714744568 0
0.13859981298446655 0.43406948447227478 0
0.45234000682830811 0.48583737015724182 0
0.76794922351837158 0.54248785972595215 0
0.97155046463012695 0.52771139144897461 0
0.17208221554756165 0.64658373594284058 2.6357452952652238e-05
0.26062366366386414 0.63481271266937256 0
0.44333451986312866 0.63971036672592163 0
0.66497170925140381 0.68135124444961548 0
0.9115065336227417 0.73463839292526245 0
0.41847693920135498 0.82576102018356323 0.2549903392791748
0.45059680938720703 0.82117933034896851 0.24488058686256409
0.52926450967788696 0.81011033058166504 0.21660169959068298
0.68075686693191528 0.83447659015655518 0.24994255602359772
0.85583198070526123 0.86547863483428955 0.29056283831596375
2.2892994820722379e-05 0.023263938724994659 0.19286558032035828
0.18581965565681458 0.016300568357110023 0.19850488007068634
0.53850769996643066 0 0.21323336660861969
0.78091925382614136 0 0.18905168771743774
0.9551769495010376 0.040441621094942093 0.18489564955234528
0 0.22241540253162384 0.19813109934329987
0.20603708922863007 0.22313931584358215 0.20775501430034637
0.55093055963516235 0.21594816446304321 0.19883325695991516
0.78926175832748413 0.22589294612407684 0.18153582513332367
0.95832115411758423 0.27800896763801575 0.16831673681735992
0.008031095378100872 0.50015431642532349 0.21948698163032532
0.22014214098453522 0.48010784387588501 0.20497861504554749
0.48234093189239502 0.50187462568283081 0.20028398931026459
0.77909308671951294 0.53674834966659546 0.14301890134811401
0.96395844221115112 0.52166569232940674 0.096744947135448456
0.25305822491645813 0.66720730066299438 0.24834398925304413
0.31725886464118958 0.65616899728775024 0.23336248099803925
0.45752868056297302 0.6442757248878479 0.21092848479747772
0.67102581262588501 0.68633097410202026 0.24435774981975555
0.91374504566192627 0.73418670892715454 0.22786693274974823
0.43228617310523987 0.83233511447906494 0.35925552248954773
0.46213290095329285 0.8279234766960144 0.34977883100509644
0.53427815437316895 0.81435626745223999 0.31912297010421753
0.68001466989517212 0.83432680368423462 0.34235677123069763
0.85629808902740479 0.86647540330886841 0.38334152102470398
0 0.053406383842229843 0.54366481304168701
0.22892279922962189 0.052028831094503403 0.55014598369598389
0.56713861227035522 0.052305791527032852 0.56119894981384277
0.81376504898071289 0.18845926225185394 0.55208688974380493
0.95883935689926147 0.2568778395652771 0.52123582363128662
0 0.26396864652633667 0.53650569915771484
0.25630173087120056 0.27929419279098511 0.54680192470550537
0.56644678115844727 0.31397885084152222 0.55763566493988037
0.7933390736579895 0.36622047424316406 0.55028331279754639
0.94213193655014038 0.35895067453384399 0.51439249515533447
0.0075899423100054264 0.56118857860565186 0.53365021944046021
0.29279598593711853 0.55725961923599243 0.53580009937286377
0.54509741067886353 0.54288762807846069 0.53562986850738525
0.75044727325439453 0.53188490867614746 0.51736634969711304
0.92597568035125732 0.52860730886459351 0.49910470843315125
0.36237630248069763 0.72074663639068604 0.51639050245285034
0.43126654624938965 0.71330255270004272 0.52318704128265381
0.52459806203842163 0.68011385202407837 0.49914750456809998
0.68761920928955078 0.70042043924331665 0.51096153259277344
0.92192679643630981 0.73179322481155396 0.50619411468505859
0.48389235138893127 0.85410314798355103 0.54843908548355103
0.50464475154876709 0.84917992353439331 0.53878670930862427
0.55928826332092285 0.83458369970321655 0.50840121507644653
0.67637175321578979 0.83299148082733154 0.49292537569999695
0.86038833856582642 0.86873430013656616 0.53836393356323242
0.16711294651031494 0.16812114417552948 0.75636273622512817
0.34883567690849304 0.18688510358333588 0.75916069746017456
0.58438587188720703 0.25151750445365906 0.76250022649765015
0.78439879417419434 0.34448122978210449 0.7643553614616394
0.95498919486999512 0.43451744318008423 0.75321900844573975
0.24816827476024628 0.34746238589286804 0.74983417987823486
0.38395395874977112 0.36162012815475464 0.7519066333770752
0.58717840909957886 0.4053434431552887 0.75595909357070923
0.77497762441635132 0.4635501503944397 0.76044833660125732
0.94465696811676025 0.51991456747055054 0.75408041477203369
0.26437932252883911 0.54300409555435181 0.72375655174255371
0.39239287376403809 0.55187380313873291 0.72682428359985352
0.58496099710464478 0.58293795585632324 0.73653650283813477
0.75827521085739136 0.62063950300216675 0.74934238195419312
0.93137264251708984 0.64895492792129517 0.75598263740539551
0.4045657217502594 0.75732195377349854 0.73006927967071533
0.467384934425354 0.75534522533416748 0.73062729835510254
0.59213680028915405 0.7478334903717041 0.72957956790924072
0.73818033933639526 0.73527777194976807 0.72675549983978271
0.91123223304748535 0.71925359964370728 0.70849943161010742
0.55225950479507446 0.89623993635177612 0.72370857000350952
0.57650601863861084 0.89355659484863281 0.72347867488861084
0.63356554508209229 0.88366800546646118 0.71778178215026855
0.70680117607116699 0.85049289464950562 0.68256616592407227
0.8755229115486145 0.87480342388153076 0.70363789796829224
0.43908753991127014 0.37998542189598083 0.91511291265487671
0.5016971230506897 0.39592275023460388 0.91466069221496582
0.62868881225585938 0.43995881080627441 0.913898766040802
0.77575218677520752 0.51108521223068237 0.91397428512573242
0.92944163084030151 0.56454372406005859 0.91492241621017456
0.46649166941642761 0.48425847291946411 0.90998446941375732
0.52066266536712646 0.49502673745155334 0.91043329238891602
0.63629812002182007 0.5239679217338562 0.9103924036026001
0.77819186449050903 0.57541835308074951 0.91175609827041626
0.92712956666946411 0.61359423398971558 0.91377824544906616
0.49441981315612793 0.62282997369766235 0.89867192506790161
0.54044967889785767 0.62853914499282837 0.90017569065093994
0.6457861065864563 0.64544475078582764 0.90264034271240234
0.78327780961990356 0.67646872997283936 0.90754646062850952
0.92649579048156738 0.70254665613174438 0.91310387849807739
0.46993401646614075 0.75203901529312134 0.88920897245407104
0.51015347242355347 0.74929332733154297 0.88887953758239746
0.60808467864990234 0.74260157346725464 0.88812094926834106
0.77621757984161377 0.76972967386245728 0.89977431297302246
0.93002402782440186 0.80457234382629395 0.9139549732208252
0.55573761463165283 0.92414218187332153 0.90052759647369385
0.58830821514129639 0.92304724454879761 0.9008411169052124
0.67216616868972778 0.92046451568603516 0.9022599458694458
0.79342234134674072 0.91563355922698975 0.90476351976394653
0.92315000295639038 0.90592294931411743 0.9031139612197876
