LUTs/Kodak Portra 800 3 +.cube
# Created by: G'MIC (https://gmic.eu)
TITLE "Kodak Portra 800 3 +"
# LUT size
LUT_3D_SIZE 32
# Data domain
DOMAIN_MIN 0.0 0.0 0.0
DOMAIN_MAX 1.0 1.0 1.0
# LUT data points
0.072377786040306091 0.089661382138729095 0.056093145161867142
0.081643946468830109 0.089993938803672791 0.055553406476974487
0.09716961532831192 0.090420588850975037 0.055402364581823349
0.11765381693840027 0.090654395520687103 0.054687246680259705
0.14077134430408478 0.090990699827671051 0.054012168198823929
0.16559299826622009 0.091190755367279053 0.053502768278121948
0.19436553120613098 0.090899690985679626 0.05285065621137619
0.22427231073379517 0.089234106242656708 0.051442097872495651
0.2592805027961731 0.086455829441547394 0.050188656896352768
0.29538455605506897 0.082451924681663513 0.04884357750415802
0.33784475922584534 0.075604788959026337 0.046735361218452454
0.38418194651603699 0.064546108245849609 0.044005658477544785
0.42882898449897766 0.049795407801866531 0.040643919259309769
0.48055741190910339 0.026645347476005554 0.036462809890508652
0.52881652116775513 0.0057271351106464863 0.031611297279596329
0.58267861604690552 0.00016039627371355891 0.025032054632902145
0.6342388391494751 0 0.017605222761631012
0.68716555833816528 0 0.009212336502969265
0.73769491910934448 0 0.0027123410254716873
0.78943675756454468 0 0.00018844268925022334
0.83095580339431763 0 0
0.87102913856506348 0 0
0.90706866979598999 0 0
0.93779575824737549 0 0
0.96911138296127319 0 0
0.9938359260559082 3.2981978392854217e-07 0
0.99998694658279419 0.00037135041202418506 0
0.99997246265411377 0.011648914776742458 0
0.99998360872268677 0.055229194462299347 0
0.99993103742599487 0.096175640821456909 0
0.99998176097869873 0.12837319076061249 0
0.99998986721038818 0.1534050852060318 0
0.071827679872512817 0.097144454717636108 0.057571966201066971
0.080041110515594482 0.098448716104030609 0.056546431034803391
0.09626731276512146 0.099994920194149017 0.05539683997631073
0.11613301187753677 0.10088285058736801 0.054852891713380814
0.1390160471200943 0.1013731062412262 0.054130963981151581
0.16329410672187805 0.10115060210227966 0.053130410611629486
0.19195552170276642 0.10099098831415176 0.052337795495986938
0.22235244512557983 0.099515154957771301 0.051060248166322708
0.25783807039260864 0.097240224480628967 0.050012283027172089
0.2939465343952179 0.093599319458007812 0.048120647668838501
0.33638262748718262 0.087854363024234772 0.045971445739269257
0.38285496830940247 0.079306632280349731 0.043323196470737457
0.42715850472450256 0.068091414868831635 0.039830353111028671
0.47852349281311035 0.049799129366874695 0.035424325615167618
0.52634358406066895 0.027375614270567894 0.03030824288725853
0.57974052429199219 0.0063447626307606697 0.023715993389487267
0.63127130270004272 0.00054817338241264224 0.016389865428209305
0.68472385406494141 4.3626446313282941e-06 0.0077993092127144337
0.73536902666091919 0 0.0019215865759178996
0.78704118728637695 0 7.5325253419578075e-05
0.82846683263778687 0 0
0.86874973773956299 0 0
0.90467417240142822 0 0
0.93627536296844482 0 0
0.96742939949035645 4.4586281546799e-06 0
0.99288249015808105 0.00072218041168525815 0
0.99996596574783325 0.010976782068610191 0
0.99997025728225708 0.044792376458644867 0
0.99999642372131348 0.084986850619316101 0
0.99999791383743286 0.11654729396104813 0
0.9999803900718689 0.14440375566482544 0
0.9999890923500061 0.16675950586795807 0
0.069625742733478546 0.10939265042543411 0.059888582676649094
0.077320404350757599 0.11050913482904434 0.058857697993516922
0.092767328023910522 0.11304012686014175 0.056304596364498138
0.11427067220211029 0.11536186188459396 0.054057754576206207
0.13691754639148712 0.11507198214530945 0.053239606320858002
0.1608654111623764 0.11463996022939682 0.053106080740690231
0.18941828608512878 0.11432646960020065 0.0524098239839077
0.22014410793781281 0.11350025236606598 0.050932068377733231
0.25578650832176208 0.11166896671056747 0.049319040030241013
0.29227852821350098 0.10902415215969086 0.04748181626200676
0.33479255437850952 0.10478222370147705 0.04526810348033905
0.38098055124282837 0.09788019210100174 0.041856944561004639
0.42541354894638062 0.089982695877552032 0.038705728948116302
0.47668856382369995 0.078064136207103729 0.034129839390516281
0.52451217174530029 0.063342459499835968 0.028724584728479385
0.57758963108062744 0.0418984554708004 0.021672751754522324
0.62939411401748657 0.020347515121102333 0.01395728811621666
0.68434447050094604 0.0055566830560564995 0.00559592479839921
0.7348639965057373 0.0016106254188343883 0.0010989493457600474
0.78540486097335815 0.00034679734380915761 2.8456966902012937e-05
0.82658529281616211 5.5858850828371942e-05 0
0.86698859930038452 0.00014420795196201652 0
0.90345937013626099 0.00082145066699013114 0
0.93468910455703735 0.0027704578824341297 0
0.96605855226516724 0.01060150284320116 0
0.99220198392868042 0.028801273554563522 0
0.99993592500686646 0.060120139271020889 0
0.99999028444290161 0.091281220316886902 0
0.99999219179153442 0.11871562153100967 0
0.99993586540222168 0.1433325856924057 0
0.99999356269836426 0.16649161279201508 0
0.99999642372131348 0.18623533844947815 0
0.06632617861032486 0.12441218644380569 0.062592945992946625
0.074093766510486603 0.1249963566660881 0.06203615665435791
0.086918264627456665 0.12705236673355103 0.059660617262125015
0.1075068861246109 0.13033193349838257 0.055741284042596817
0.13483653962612152 0.13326407968997955 0.051962688565254211
0.16049012541770935 0.13323403894901276 0.051331777125597
0.18759000301361084 0.13165862858295441 0.051803164184093475
0.21681293845176697 0.13020022213459015 0.051034986972808838
0.25164419412612915 0.12883250415325165 0.049531944096088409
0.28838586807250977 0.12723052501678467 0.047586657106876373
0.33151283860206604 0.12455406039953232 0.045029126107692719
0.37827783823013306 0.12024419754743576 0.041324682533740997
0.42303979396820068 0.11490406841039658 0.037492398172616959
0.47466170787811279 0.10705122351646423 0.032053485512733459
0.522835373878479 0.097965896129608154 0.026091082021594048
0.57610982656478882 0.08568931370973587 0.018563536927103996
0.62886381149291992 0.071378685534000397 0.010371913202106953
0.68530398607254028 0.055585883557796478 0.0029764112550765276
0.73507237434387207 0.043150212615728378 0.00030620981124229729
0.78500592708587646 0.035232756286859512 2.531174914111034e-07
0.82601237297058105 0.033035162836313248 0
0.86589908599853516 0.03445126861333847 0
0.90193074941635132 0.041168197989463806 0
0.93337583541870117 0.052920036017894745 0
0.96487051248550415 0.072158165276050568 0
0.99116069078445435 0.092238046228885651 0
0.99986165761947632 0.11410947144031525 0
0.99999654293060303 0.13453112542629242 0
0.99998998641967773 0.15480537712574005 0
0.99999392032623291 0.17422303557395935 0
0.99997442960739136 0.19315344095230103 0
1 0.2102380245923996 0
0.06210998073220253 0.14003875851631165 0.065506651997566223
0.06991209089756012 0.14033819735050201 0.065350085496902466
0.081391803920269012 0.1419253945350647 0.064050838351249695
0.098423995077610016 0.14507780969142914 0.060447569936513901
0.12328604608774185 0.14887192845344543 0.055185116827487946
0.15508310496807098 0.1533825695514679 0.050264846533536911
0.18687662482261658 0.15423977375030518 0.048718515783548355
0.21512468159198761 0.15187568962574005 0.049105864018201828
0.24789129197597504 0.14940440654754639 0.049035456031560898
0.2830507755279541 0.14822651445865631 0.047984417527914047
0.32587030529975891 0.14708305895328522 0.045396927744150162
0.37226292490959167 0.14472754299640656 0.041302282363176346
0.41729241609573364 0.14234799146652222 0.03695012629032135
0.46854645013809204 0.13783900439739227 0.030904905870556831
0.51666641235351562 0.13265462219715118 0.024350209161639214
0.57038480043411255 0.12567165493965149 0.015761276707053185
0.62518942356109619 0.11904112249612808 0.0066707702353596687
0.6815987229347229 0.11237542331218719 0.0010995982447639108
0.73045402765274048 0.10757412761449814 4.8201294703176245e-05
0.78037244081497192 0.10464116185903549 0
0.82052624225616455 0.10428579896688461 0
0.8610304594039917 0.10657760500907898 0
0.89737427234649658 0.11200436949729919 0
0.92921918630599976 0.12003875523805618 0
0.96073919534683228 0.13123698532581329 0
0.98795598745346069 0.14369502663612366 0
0.99959027767181396 0.15865035355091095 0
0.9999920129776001 0.17361137270927429 0
0.99999535083770752 0.1892208606004715 0
0.99999779462814331 0.20473703742027283 0
0.99999940395355225 0.22109168767929077 0
1 0.23578493297100067 0
0.05648195743560791 0.15851357579231262 0.069898553192615509
0.064574271440505981 0.15846207737922668 0.069885656237602234
0.075987085700035095 0.15897020697593689 0.069213874638080597
0.091329723596572876 0.16187103092670441 0.065925687551498413
0.11297408491373062 0.16573791205883026 0.061204511672258377
0.14218740165233612 0.17061583697795868 0.055203661322593689
0.18073166906833649 0.17690163850784302 0.047825813293457031
0.21554526686668396 0.17841902375221252 0.044931158423423767
0.24927467107772827 0.17626255750656128 0.045061416923999786
0.28196743130683899 0.17349836230278015 0.045261431485414505
0.32092976570129395 0.17125387489795685 0.044285926967859268
0.36556872725486755 0.1697109043598175 0.040940895676612854
0.41002804040908813 0.16893172264099121 0.036247748881578445
0.46136569976806641 0.16727802157402039 0.029301976785063744
0.51016587018966675 0.16500723361968994 0.022059721872210503
0.56651675701141357 0.16243600845336914 0.012112344615161419
0.62213134765625 0.1598866879940033 0.0037916230503469706
0.67747873067855835 0.15736928582191467 0.00027672128635458648
0.72618210315704346 0.15577740967273712 2.8849638056271942e-06
0.77592957019805908 0.15579512715339661 0
0.81642121076583862 0.15696908533573151 0
0.85678744316101074 0.15922345221042633 0
0.89358973503112793 0.16360393166542053 0
0.92559248208999634 0.16964945197105408 0
0.95735210180282593 0.17836017906665802 0
0.98524987697601318 0.18795943260192871 0
0.99924987554550171 0.19961141049861908 0
0.9999997615814209 0.21136979758739471 0
0.99997794628143311 0.22429934144020081 0
0.99999481439590454 0.23740889132022858 0
1 0.2509160041809082 0
0.99997460842132568 0.26385581493377686 0
0.04737713560461998 0.17885829508304596 0.074601516127586365
0.05643608421087265 0.17903658747673035 0.074665635824203491
0.068944968283176422 0.17871098220348358 0.074474483728408813
0.083717234432697296 0.18056777119636536 0.072166077792644501
0.10366877913475037 0.18458329141139984 0.068160451948642731
0.12894700467586517 0.18972864747047424 0.062561579048633575
0.16341090202331543 0.19561938941478729 0.054885420948266983
0.20567643642425537 0.20345668494701385 0.044936936348676682
0.24898383021354675 0.20767676830291748 0.038380831480026245
0.28363510966300964 0.2058759331703186 0.038019090890884399
0.3219473659992218 0.20336316525936127 0.037962008267641068
0.36317336559295654 0.20039448142051697 0.036873981356620789
0.4034346342086792 0.19864208996295929 0.034157350659370422
0.4543851912021637 0.19870859384536743 0.027264943346381187
0.50528180599212646 0.19952571392059326 0.018637305125594139
0.5622064471244812 0.20016667246818542 0.0078649530187249184
0.61628109216690063 0.20027968287467957 0.001451225602068007
0.67087465524673462 0.20049980282783508 2.4767792638158426e-05
0.71884161233901978 0.20115260779857635 0
0.76842033863067627 0.20272599160671234 0
0.8089529275894165 0.20466381311416626 0
0.84982270002365112 0.2074388861656189 0
0.88742369413375854 0.21130593121051788 0
0.92013007402420044 0.21656122803688049 0
0.95247012376785278 0.22339360415935516 0
0.98077601194381714 0.23116488754749298 0
0.99834483861923218 0.24067284166812897 0
0.99999934434890747 0.25045862793922424 0
0.9999699592590332 0.26102539896965027 0
1 0.27198925614356995 0
1 0.28331533074378967 0
0.99999904632568359 0.29480659961700439 0
0.033770658075809479 0.20046475529670715 0.079097829759120941
0.043740503489971161 0.20065625011920929 0.079266160726547241
0.058100182563066483 0.19980226457118988 0.078873157501220703
0.074406370520591736 0.20048061013221741 0.077902108430862427
0.09383808821439743 0.20424047112464905 0.074373893439769745
0.11767962574958801 0.20930035412311554 0.069137208163738251
0.14951571822166443 0.21554116904735565 0.062158465385437012
0.18704548478126526 0.22245799005031586 0.052823226898908615
0.236329585313797 0.23228918015956879 0.03882545605301857
0.28249853849411011 0.23851673305034637 0.028767744079232216
0.32439589500427246 0.23810999095439911 0.026550229638814926
0.36659437417984009 0.23606216907501221 0.024914218112826347
0.4067765474319458 0.234366774559021 0.023086367174983025
0.4537358283996582 0.23279538750648499 0.01940806582570076
0.49987423419952393 0.23232062160968781 0.012999583035707474
0.55393314361572266 0.23379959166049957 0.0042413757182657719
0.60703796148300171 0.23547358810901642 0.00038159315590746701
0.6610601544380188 0.23758304119110107 1.8806117623171303e-06
0.70826518535614014 0.23987407982349396 0
0.75784331560134888 0.24288171529769897 0
0.79895061254501343 0.24550272524356842 0
0.84064000844955444 0.24870166182518005 0
0.87890708446502686 0.25254681706428528 0
0.91226232051849365 0.25717511773109436 0
0.94541728496551514 0.26334473490715027 0
0.97458845376968384 0.27011728286743164 0
0.99634289741516113 0.2780950665473938 0
0.99999940395355225 0.28637072443962097 0
0.99997353553771973 0.29531583189964294 0
0.99998539686203003 0.30473172664642334 0
1 0.31438225507736206 0
0.99997496604919434 0.32408386468887329 0
0.011307583190500736 0.22650060057640076 0.08341553807258606
0.021638359874486923 0.22713296115398407 0.083579055964946747
0.03899456188082695 0.22621347010135651 0.083173297345638275
0.059799883514642715 0.22561031579971313 0.083149559795856476
0.081426538527011871 0.22787037491798401 0.08042532205581665
0.10560036450624466 0.23288540542125702 0.07568831741809845
0.13600322604179382 0.23912936449050903 0.069162040948867798
0.17125877737998962 0.24614742398262024 0.060519151389598846
0.21534042060375214 0.25455039739608765 0.048033852130174637
0.26672512292861938 0.26600176095962524 0.029967846348881721
0.32599523663520813 0.27851086854934692 0.011710057035088539
0.37276738882064819 0.27885213494300842 0.0081833787262439728
0.41384828090667725 0.27782422304153442 0.0065547502599656582
0.45948991179466248 0.27583780884742737 0.0045133968815207481
0.50144338607788086 0.27379265427589417 0.0028462386690080166
0.5485614538192749 0.27180451154708862 0.00099953124299645424
0.59762930870056152 0.27218958735466003 4.321168307797052e-05
0.65039104223251343 0.27562344074249268 0
0.69748866558074951 0.27907660603523254 0
0.74762392044067383 0.28344422578811646 0
0.78937447071075439 0.28718060255050659 0
0.8313978910446167 0.29073673486709595 0
0.87039625644683838 0.29488471150398254 0
0.90433919429779053 0.29934734106063843 0
0.93810474872589111 0.30524212121963501 0
0.96777307987213135 0.31102076172828674 0
0.99330753087997437 0.31821924448013306 0
1 0.32523098587989807 0
0.99999785423278809 0.3329470157623291 0
0.99993604421615601 0.34089061617851257 0
0.99999147653579712 0.34903118014335632 0
0.99999874830245972 0.35802552103996277 0
0.00046178969205357134 0.25145718455314636 0.08682636171579361
0.0034687849693000317 0.25246259570121765 0.087177932262420654
0.015085936523973942 0.25173035264015198 0.087092563509941101
0.037779010832309723 0.25075674057006836 0.086923733353614807
0.064879909157752991 0.25127744674682617 0.085648663341999054
0.091171391308307648 0.25610253214836121 0.081156589090824127
0.12262190878391266 0.26306670904159546 0.074841864407062531
0.15760394930839539 0.27113938331604004 0.066576316952705383
0.20059825479984283 0.28056967258453369 0.054501388221979141
0.24785597622394562 0.2908012866973877 0.037990521639585495
0.3089052140712738 0.30511805415153503 0.013916017487645149
0.37290948629379272 0.31888145208358765 0.0010690989438444376
0.41894537210464478 0.32121163606643677 0.00023509447055403143
0.46515500545501709 0.31949862837791443 0.00013019732432439923
0.50653040409088135 0.31730768084526062 3.2274012482957914e-05
0.55131798982620239 0.31436601281166077 1.0123549145646393e-05
0.59420841932296753 0.31147560477256775 2.968377827983204e-07
0.64015358686447144 0.31053784489631653 0
0.68483060598373413 0.31313461065292358 0
0.73425561189651489 0.31796860694885254 0
0.77630311250686646 0.32213231921195984 0
0.8193967342376709 0.32645022869110107 0
0.85946553945541382 0.33135473728179932 0
0.89439183473587036 0.33579134941101074 0
0.92878484725952148 0.34168371558189392 0
0.95891803503036499 0.34707513451576233 0
0.98772174119949341 0.35356020927429199 0
0.99974197149276733 0.36015734076499939 0
0.99996328353881836 0.36684992909431458 0
0.99996572732925415 0.37380987405776978 0
0.99999773502349854 0.38099765777587891 0
1 0.38869911432266235 0
0 0.2827427089214325 0.090690478682518005
1.3775476872979198e-05 0.28403237462043762 0.090734586119651794
0.00045684503857046366 0.28309914469718933 0.090619541704654694
0.0086818626150488853 0.28266912698745728 0.090326830744743347
0.036354854702949524 0.28203782439231873 0.090140379965305328
0.070342108607292175 0.28545936942100525 0.086993172764778137
0.10584254562854767 0.292642742395401 0.080822259187698364
0.14214268326759338 0.30049851536750793 0.072551153600215912
0.18496958911418915 0.30986621975898743 0.061077065765857697
0.23006851971149445 0.31970164179801941 0.045303802937269211
0.28483295440673828 0.33150061964988708 0.02224479615688324
0.34989175200462341 0.34658539295196533 0.0027226770762354136
0.41494905948638916 0.36358863115310669 6.9584293669322506e-06
0.46779409050941467 0.36728087067604065 0
0.50956118106842041 0.36505451798439026 0
0.55404269695281982 0.36213639378547668 0
0.59648877382278442 0.35951942205429077 0
0.63910984992980957 0.35651063919067383 0
0.67726653814315796 0.35424527525901794 0
0.72077828645706177 0.35463249683380127 0
0.76188868284225464 0.35837644338607788 0
0.80554556846618652 0.36331802606582642 0
0.84655660390853882 0.36823838949203491 0
0.88237470388412476 0.37354734539985657 0
0.9175981879234314 0.37907752394676208 0
0.94889205694198608 0.38456931710243225 0
0.97899442911148071 0.39060351252555847 0
0.9983600378036499 0.39638221263885498 0
0.99999076128005981 0.40252664685249329 0
0.99993294477462769 0.40875691175460815 0
0.99995476007461548 0.41530400514602661 0
0.99995768070220947 0.42193841934204102 0
0 0.31686332821846008 0.093604139983654022
0 0.31896966695785522 0.093850992619991302
0 0.31823235750198364 0.093735866248607635
0.00022847366926725954 0.31729218363761902 0.093440793454647064
0.0062174801714718342 0.31599089503288269 0.09332689642906189
0.037273868918418884 0.31652599573135376 0.091817505657672882
0.082118503749370575 0.32166332006454468 0.086173281073570251
0.1227000430226326 0.32922816276550293 0.078154623508453369
0.16667492687702179 0.33851355314254761 0.06734921783208847
0.2113519161939621 0.34815490245819092 0.052216719835996628
0.26377174258232117 0.35970315337181091 0.029497887939214706
0.32258906960487366 0.37233066558837891 0.0058840778656303883
0.38267448544502258 0.38598811626434326 4.4551681639859453e-05
0.45671144127845764 0.40617144107818604 0
0.51121097803115845 0.41376149654388428 0
0.55676776170730591 0.41194409132003784 0
0.59903484582901001 0.40910786390304565 0
0.64128804206848145 0.40616998076438904 0
0.67896449565887451 0.40397658944129944 0
0.71847778558731079 0.40123656392097473 0
0.75310397148132324 0.39897388219833374 0
0.79290258884429932 0.39994171261787415 0
0.83369868993759155 0.40444737672805786 0
0.87032335996627808 0.40988680720329285 0
0.90673410892486572 0.41576796770095825 0
0.93853282928466797 0.42137444019317627 0
0.96950411796569824 0.42701566219329834 0
0.99424844980239868 0.43263831734657288 0
0.99993842840194702 0.4384387731552124 0
0.999988853931427 0.44421476125717163 0
0.9999929666519165 0.45022919774055481 0
0.99999457597732544 0.45633062720298767 0
0 0.34763562679290771 0.095550999045372009
0 0.35018289089202881 0.095924839377403259
0 0.34918591380119324 0.095735974609851837
0 0.34811285138130188 0.095462329685688019
5.0710259529296309e-05 0.34670451283454895 0.095353774726390839
0.0088990731164813042 0.34539175033569336 0.094506613910198212
0.051216904073953629 0.34856259822845459 0.090681061148643494
0.10036938637495041 0.35608357191085815 0.082972288131713867
0.14823344349861145 0.36539551615715027 0.072193868458271027
0.19375759363174438 0.37457060813903809 0.057751651853322983
0.24613788723945618 0.38614693284034729 0.036070268601179123
0.30287584662437439 0.39845666289329529 0.0095847425982356071
0.35855743288993835 0.41035792231559753 0.00016445969231426716
0.42619431018829346 0.42592102289199829 0
0.49709600210189819 0.44669812917709351 0
0.55665737390518188 0.45579883456230164 0
0.60000032186508179 0.45387932658195496 0
0.64214044809341431 0.45099785923957825 0
0.6790088415145874 0.4482957124710083 0
0.717998206615448 0.44524073600769043 0
0.75160646438598633 0.44193238019943237 0
0.78748279809951782 0.43874675035476685 0
0.82318621873855591 0.43776300549507141 0
0.85798317193984985 0.44072875380516052 0
0.8948211669921875 0.44635903835296631 0
0.92739200592041016 0.45183086395263672 0
0.95943588018417358 0.45781353116035461 0
0.98703426122665405 0.46315714716911316 0
0.99932032823562622 0.468934565782547 0
0.99998146295547485 0.47470173239707947 0
0.99994194507598877 0.47997552156448364 0
0.99994724988937378 0.48578312993049622 0
0 0.38159617781639099 0.097539179027080536
0 0.38378182053565979 0.097569860517978668
0 0.38319882750511169 0.097597368061542511
0 0.38220289349555969 0.097361721098423004
0 0.38059106469154358 0.096936456859111786
0.00037354961386881769 0.37900525331497192 0.096622712910175323
0.012742627412080765 0.37905752658843994 0.095025941729545593
0.064904414117336273 0.38492098450660706 0.088078849017620087
0.12341134250164032 0.39327999949455261 0.077700056135654449
0.1723158210515976 0.40268397331237793 0.064328186213970184
0.22545157372951508 0.41384941339492798 0.044147662818431854
0.2809678316116333 0.42555409669876099 0.015831789001822472
0.33446601033210754 0.43726846575737 0.00079644122160971165
0.39738273620605469 0.45083668828010559 0
0.45934620499610901 0.46500009298324585 0
0.53554528951644897 0.48680144548416138 0
0.59798252582550049 0.50047928094863892 0
0.64252012968063354 0.49941137433052063 0
0.67949134111404419 0.49675983190536499 0
0.71806108951568604 0.49334043264389038 0
0.75130933523178101 0.48969218134880066 0
0.7868037223815918 0.48620793223381042 0
0.82061386108398438 0.48309376835823059 0
0.8509400486946106 0.48088285326957703 0
0.88371497392654419 0.48115479946136475 0
0.91547685861587524 0.4847162663936615 0
0.94803565740585327 0.49046555161476135 0
0.97697067260742188 0.49613893032073975 0
0.99717086553573608 0.50197744369506836 0
0.99999815225601196 0.50745236873626709 0
0.9999963641166687 0.51284658908843994 0
0.99999594688415527 0.51828420162200928 0
0 0.41195666790008545 0.0986761674284935
0 0.41462516784667969 0.098998241126537323
0 0.41397923231124878 0.098642401397228241
0 0.41302710771560669 0.098538078367710114
0 0.41148102283477783 0.097897231578826904
0 0.40965139865875244 0.097763881087303162
0.00053696741815656424 0.40773522853851318 0.097136795520782471
0.026808954775333405 0.41088131070137024 0.092653043568134308
0.094385363161563873 0.41901621222496033 0.082395397126674652
0.15004768967628479 0.42802423238754272 0.069823674857616425
0.20562611520290375 0.43876415491104126 0.050872951745986938
0.26185491681098938 0.45094794034957886 0.023001926019787788
0.31434333324432373 0.46212917566299438 0.0024821956176310778
0.37520727515220642 0.47542110085487366 6.5653521232889034e-06
0.4336513876914978 0.4881344735622406 0
0.50137937068939209 0.50303196907043457 0
0.57549959421157837 0.52523595094680786 0
0.64057803153991699 0.54097872972488403 0
0.67928308248519897 0.53966480493545532 0
