LUTs/Kodak Portra 400 1 -.cube
# Created by: G'MIC (https://gmic.eu)
TITLE "Kodak Portra 400 1 -"
# LUT size
LUT_3D_SIZE 5
# Data domain
# LUT data points
DOMAIN_MIN 0.000000 0.000000 0.000000
DOMAIN_MAX 0.903226 0.903226 0.903226
0.0042011658661067486 0.0041887294501066208 0.0042872130870819092
0.20426878333091736 0.0039825234562158585 0.001065898803062737
0.57023024559020996 0 0
0.83831101655960083 0 0
0.99489647150039673 0.078249022364616394 0
0 0.17163793742656708 0.022856978699564934
0.16328199207782745 0.19817616045475006 0.00084362470079213381
0.56330329179763794 0.24042659997940063 0
0.81912654638290405 0.24699181318283081 0
0.98337537050247192 0.29046732187271118 0
0 0.44374376535415649 0.10892647504806519
0.013046549633145332 0.41974350810050964 0.13728168606758118
0.43956980109214783 0.48666998744010925 0.0018090629018843174
0.75718718767166138 0.51282930374145508 0
0.94621926546096802 0.51092225313186646 0
0 0.63239759206771851 0.25729992985725403
0.026815097779035568 0.61486077308654785 0.27048468589782715
0.34777873754501343 0.61930131912231445 0.26029208302497864
0.64590704441070557 0.66607242822647095 0.17128516733646393
0.89580929279327393 0.69885438680648804 0.00023916536883916706
0.29606965184211731 0.80337250232696533 0.46378603577613831
0.35718190670013428 0.79573774337768555 0.47104912996292114
0.47096565365791321 0.77664560079574585 0.48993581533432007
0.62939262390136719 0.80833232402801514 0.4661981463432312
0.83607620000839233 0.84827744960784912 0.40874063968658447
6.0676196881104261e-05 0.0088217267766594887 0.21760517358779907
0.27022013068199158 0 0.2615206241607666
0.60090929269790649 0 0.25354909896850586
0.8445625901222229 0 0.22562606632709503
0.9935985803604126 0.13206249475479126 0.21326383948326111
0 0.24250814318656921 0.2437463104724884
0.23147717118263245 0.24594609439373016 0.24885696172714233
0.58898013830184937 0.246519535779953 0.23855078220367432
0.82321000099182129 0.25783431529998779 0.21606621146202087
0.9824259877204895 0.30580168962478638 0.19053611159324646
0 0.51533448696136475 0.3073292076587677
0.17590691149234772 0.48493307828903198 0.296822190284729
0.47566875815391541 0.50860023498535156 0.26557278633117676
0.76479846239089966 0.51631754636764526 0.16572582721710205
0.94784760475158691 0.51513528823852539 0.090916968882083893
0.00011978145630564541 0.66115635633468628 0.36033090949058533
0.19378983974456787 0.64495790004730225 0.36673679947853088
0.39067879319190979 0.62624770402908325 0.36719861626625061
0.65507125854492188 0.67275357246398926 0.32260617613792419
0.89651983976364136 0.70154345035552979 0.22828526794910431
0.32140854001045227 0.81359922885894775 0.50353354215621948
0.37907034158706665 0.80605435371398926 0.50919884443283081
0.48684206604957581 0.78388983011245728 0.52360677719116211
0.63351231813430786 0.80861902236938477 0.51105141639709473
0.83690959215164185 0.84975248575210571 0.46817895770072937
0 0.014061932452023029 0.53977334499359131
0.28870224952697754 0 0.57347238063812256
0.6823049783706665 0 0.62769371271133423
0.85323315858840942 0 0.59137237071990967
0.99550849199295044 0.1584676057100296 0.55074536800384521
0 0.25789657235145569 0.51435607671737671
0.25532573461532593 0.26961421966552734 0.55513238906860352
0.65127873420715332 0.29974642395973206 0.61397981643676758
0.82851362228393555 0.30520880222320557 0.58496737480163574
0.97823268175125122 0.35363861918449402 0.54714435338973999
0 0.559051513671875 0.55886512994766235
0.21694983541965485 0.56267040967941284 0.56350511312484741
0.55240750312805176 0.56108999252319336 0.56605768203735352
0.764210045337677 0.55451697111129761 0.54914814233779907
0.93737661838531494 0.55529975891113281 0.53037720918655396
0.29971912503242493 0.72577488422393799 0.58120417594909668
0.40813103318214417 0.71491682529449463 0.58272051811218262
0.50332355499267578 0.67424440383911133 0.55469375848770142
0.67964911460876465 0.69210487604141235 0.54256433248519897
0.89965438842773438 0.70617407560348511 0.49070578813552856
0.41318294405937195 0.84484350681304932 0.61564737558364868
0.42938879132270813 0.83839541673660278 0.60384911298751831
0.52235740423202515 0.81465977430343628 0.6019400954246521
0.64421457052230835 0.80841338634490967 0.60234230756759644
0.84110140800476074 0.85400640964508057 0.58184856176376343
0.13289669156074524 0.098330795764923096 0.73696476221084595
0.36144217848777771 0.094074897468090057 0.75099921226501465
0.66387033462524414 0.11437909305095673 0.78199511766433716
0.88784730434417725 0.22470064461231232 0.80754417181015015
0.99289757013320923 0.29266196489334106 0.7754175066947937
0.12438871711492538 0.29364082217216492 0.72408968210220337
0.34853368997573853 0.30701088905334473 0.73746180534362793
0.63930410146713257 0.35053050518035889 0.76942497491836548
0.86304008960723877 0.41742485761642456 0.79977530241012573
0.97760534286499023 0.42975044250488281 0.77402454614639282
2.6954921850119717e-06 0.49562522768974304 0.66294831037521362
0.24705298244953156 0.50943171977996826 0.6782267689704895
0.55908507108688354 0.5525849461555481 0.72830802202224731
0.8103405237197876 0.61318725347518921 0.77842742204666138
0.95039498805999756 0.60139626264572144 0.77046507596969604
0.23815365135669708 0.73243361711502075 0.72967779636383057
0.35851877927780151 0.73234188556671143 0.7310519814491272
0.54735064506530762 0.73220759630203247 0.73333364725112915
0.73993104696273804 0.73560535907745361 0.73993736505508423
0.9162524938583374 0.72950011491775513 0.72754150629043579
0.41476044058799744 0.9063909649848938 0.76444077491760254
0.47335466742515564 0.90146899223327637 0.76256018877029419
0.59514802694320679 0.8837549090385437 0.75523555278778076
0.68643879890441895 0.83806103467941284 0.72183620929718018
0.85671466588973999 0.86435633897781372 0.71760660409927368
0.42744016647338867 0.27818053960800171 0.89937949180603027
0.51437187194824219 0.28486475348472595 0.90379655361175537
0.68492776155471802 0.31440004706382751 0.91549265384674072
0.87448543310165405 0.39330330491065979 0.93644613027572632
0.99999046325683594 0.45921570062637329 0.94899100065231323
0.41394567489624023 0.39713448286056519 0.89087212085723877
0.50073254108428955 0.40578058362007141 0.8960455060005188
0.66881763935089111 0.43276235461235046 0.90869438648223877
0.85860741138458252 0.49436384439468384 0.93115144968032837
0.99998760223388672 0.54105609655380249 0.94572055339813232
0.33072316646575928 0.55803543329238892 0.8608633279800415
0.41167151927947998 0.55389225482940674 0.86969804763793945
0.61274099349975586 0.57954901456832886 0.88774245977401733
0.82212942838668823 0.63023191690444946 0.91798394918441772
0.99180197715759277 0.66627943515777588 0.94082885980606079
0.15505589544773102 0.69914770126342773 0.83694398403167725
0.26796546578407288 0.69488221406936646 0.83476418256759644
0.45122328400611877 0.6836431622505188 0.83088767528533936
0.73797774314880371 0.72549915313720703 0.88681495189666748
0.96470308303833008 0.7938610315322876 0.93455678224563599
0.32642620801925659 0.89965122938156128 0.89710932970046997
0.39376497268676758 0.89936262369155884 0.89719545841217041
0.53592193126678467 0.89899331331253052 0.89834165573120117
0.71568036079406738 0.89980882406234741 0.90083062648773193
0.91116923093795776 0.9062921404838562 0.90862339735031128
