LUTs/Kodak Kodachrome 25.cube
# Created by: G'MIC (https://gmic.eu)
TITLE "Kodak Kodachrome 25"
# LUT size
LUT_3D_SIZE 5
# Data domain
# LUT data points
DOMAIN_MIN 0.000000 0.000000 0.000000
DOMAIN_MAX 0.903226 0.903226 0.903226
0.0030040426645427942 0.0034349407069385052 0.0028111645951867104
0.093572519719600677 0.0048994650132954121 0.0029458566568791866
0.31883805990219116 0.0013045043451711535 3.4521770430728793e-05
0.90209674835205078 0.00024324806872755289 0
1 0.13556647300720215 0.03578481450676918
0.087757907807826996 0.20227336883544922 0.094503358006477356
0.21493664383888245 0.20733837783336639 0.085031196475028992
0.53119397163391113 0.21436610817909241 0.063889965415000916
0.82123231887817383 0.30501383543014526 0.10096365958452225
0.97758418321609497 0.41974642872810364 0.17259831726551056
0.36677616834640503 0.54984438419342041 0.2612951397895813
0.4446791410446167 0.54980552196502686 0.25418150424957275
0.59141302108764648 0.55326032638549805 0.24140220880508423
0.76069003343582153 0.56641495227813721 0.22982414066791534
0.92513233423233032 0.59481287002563477 0.22894062101840973
0.62373673915863037 0.73869860172271729 0.34929642081260681
0.64569306373596191 0.73893940448760986 0.34762862324714661
0.70657771825790405 0.73970925807952881 0.34223181009292603
0.80285239219665527 0.7436072826385498 0.33415913581848145
0.94347935914993286 0.75297850370407104 0.32327112555503845
0.79921579360961914 0.93331319093704224 0.44865626096725464
0.81187140941619873 0.93338990211486816 0.44703841209411621
0.84728163480758667 0.93395906686782837 0.44357055425643921
0.91055154800415039 0.93395906686782837 0.43751898407936096
0.99805152416229248 0.9361383318901062 0.42853781580924988
0 0.00070934253744781017 0.15315632522106171
0.038991756737232208 0.0019343792228028178 0.16569136083126068
0.25212356448173523 0 0.15903680026531219
0.86335873603820801 0 0.078894302248954773
1 0.11524636298418045 0.19987188279628754
0.053668331354856491 0.18319739401340485 0.20015411078929901
0.17663970589637756 0.18845352530479431 0.20023144781589508
0.49136847257614136 0.1947622150182724 0.19430775940418243
0.79690200090408325 0.28433793783187866 0.2535041868686676
0.9455602765083313 0.407440185546875 0.3591446578502655
0.34925919771194458 0.54595792293548584 0.29094302654266357
0.43038991093635559 0.54587239027023315 0.28688547015190125
0.5808713436126709 0.54923415184020996 0.28414475917816162
0.74823564291000366 0.56238722801208496 0.29798093438148499
0.90339094400405884 0.58980089426040649 0.35017168521881104
0.62251174449920654 0.73947656154632568 0.34950646758079529
0.64515507221221924 0.73949146270751953 0.34796547889709473
0.70659518241882324 0.74018728733062744 0.34234046936035156
0.80427521467208862 0.74396765232086182 0.33416497707366943
0.94678699970245361 0.75324732065200806 0.3232501745223999
0.80120933055877686 0.93546932935714722 0.44962793588638306
0.81352317333221436 0.93558228015899658 0.4479057788848877
0.84927177429199219 0.93559092283248901 0.44458946585655212
0.91248524188995361 0.93569296598434448 0.43811464309692383
0.99858951568603516 0.938090980052948 0.42946812510490417
0 0 0.29339301586151123
0.007580821868032217 0 0.29025250673294067
0.19163298606872559 0 0.27456790208816528
0.83472013473510742 0 0.17017057538032532
1 0.085722394287586212 0.2640899121761322
0.0052505657076835632 0.14231735467910767 0.38508778810501099
0.11056466400623322 0.15157902240753174 0.38134801387786865
0.41753008961677551 0.16096974909305573 0.36462926864624023
0.78477191925048828 0.2412186861038208 0.3818296492099762
0.93418902158737183 0.38728752732276917 0.4646812379360199
0.21407164633274078 0.52774864435195923 0.5526009202003479
0.32646319270133972 0.52661335468292236 0.54977995157241821
0.50410711765289307 0.52931022644042969 0.54669857025146484
0.68705803155899048 0.54415255784988403 0.55160534381866455
0.8565671443939209 0.57536834478378296 0.56910061836242676
0.58492189645767212 0.73275125026702881 0.46322804689407349
0.60639816522598267 0.73272353410720825 0.47080293297767639
0.66436302661895752 0.7327340841293335 0.49170419573783875
0.75518345832824707 0.73473304510116577 0.52855563163757324
0.89060008525848389 0.74209499359130859 0.57505857944488525
0.80149120092391968 0.93855762481689453 0.45097556710243225
0.81428319215774536 0.93855762481689453 0.45010596513748169
0.85016530752182007 0.93855798244476318 0.44621708989143372
0.91416305303573608 0.93859601020812988 0.43983656167984009
0.99916821718215942 0.94067925214767456 0.43000465631484985
0 0 0.37145844101905823
0 0 0.36349648237228394
0.11392015218734741 0 0.35055723786354065
0.75016981363296509 0 0.24102857708930969
1 0.021317441016435623 0.28382354974746704
0 0.074313141405582428 0.44713422656059265
0.032738633453845978 0.082367643713951111 0.44551196694374084
0.33034631609916687 0.1005224883556366 0.43142989277839661
0.81109428405761719 0.14194203913211823 0.40942937135696411
0.94383525848388672 0.34284481406211853 0.5203244686126709
0.031115269288420677 0.50056087970733643 0.66407084465026855
0.21556325256824493 0.49798241257667542 0.65645903348922729
0.45344462990760803 0.50033396482467651 0.64554733037948608
0.6603400707244873 0.51848745346069336 0.64394557476043701
0.83992856740951538 0.55588644742965698 0.65670228004455566
0.481364905834198 0.71516126394271851 0.73936820030212402
0.50942063331604004 0.71514022350311279 0.73929733037948608
0.58258450031280518 0.71567046642303467 0.7381134033203125
0.69260662794113159 0.71902406215667725 0.73881769180297852
0.84896045923233032 0.72829484939575195 0.74054253101348877
0.7505379319190979 0.93407529592514038 0.61789083480834961
0.76213341951370239 0.93370884656906128 0.62416237592697144
0.79434633255004883 0.93268948793411255 0.64251565933227539
0.85245805978775024 0.93137592077255249 0.67221695184707642
0.94363164901733398 0.93196988105773926 0.7125888466835022
0 0 0.44715422391891479
0 0 0.4485340416431427
0.030059069395065308 0 0.41291022300720215
0.56700235605239868 0 0.32287147641181946
1 2.4161215606000042e-07 0.26336833834648132
0 0.012024215422570705 0.49508368968963623
1.0739954632299487e-06 0.01307923998683691 0.49231985211372375
0.20690663158893585 0.0065403883345425129 0.46157494187355042
0.79474806785583496 0.0096276821568608284 0.40350937843322754
0.99184364080429077 0.23297613859176636 0.52196568250656128
0 0.43718990683555603 0.7358475923538208
0.01241312175989151 0.43265849351882935 0.72170472145080566
0.37895750999450684 0.43213599920272827 0.69865924119949341
0.63892960548400879 0.45919939875602722 0.69471204280853271
0.83354818820953369 0.51266235113143921 0.71140182018280029
0.38773670792579651 0.69148588180541992 0.84475082159042358
0.42591011524200439 0.69073665142059326 0.84306639432907104
0.51727032661437988 0.69040155410766602 0.83946132659912109
0.64483904838562012 0.69288212060928345 0.83499735593795776
0.8169901967048645 0.7027440071105957 0.83058774471282959
0.61984145641326904 0.91592919826507568 0.94819611310958862
0.63513869047164917 0.91547232866287231 0.94880282878875732
0.67790460586547852 0.91498613357543945 0.94895589351654053
0.75431406497955322 0.91454416513442993 0.94914251565933228
0.87119084596633911 0.91536551713943481 0.94801628589630127
