LUTs/LateSunset.cube
# Created by: G'MIC (https://gmic.eu)
TITLE "LateSunset"
# LUT size
LUT_3D_SIZE 5
# Data domain
# LUT data points
DOMAIN_MIN 0.000000 0.000000 0.000000
DOMAIN_MAX 0.903226 0.903226 0.903226
0.0036458007525652647 0.0014002196257933974 0.0042597190476953983
0.11607768386602402 0.0019087065011262894 0.050507433712482452
0.22244136035442352 4.6675035264343023e-05 0.14645637571811676
0.3380296528339386 0 0.16441832482814789
0.46725815534591675 0.01817009411752224 0.17969389259815216
0.07125689834356308 0.090411387383937836 0.13792842626571655
0.14616259932518005 0.079886093735694885 0.15235413610935211
0.24889828264713287 0.071999959647655487 0.16508151590824127
0.35615134239196777 0.074128463864326477 0.17435367405414581
0.49539059400558472 0.11194907128810883 0.19064395129680634
0.18798854947090149 0.18687967956066132 0.1839558482170105
0.22733324766159058 0.1866908073425293 0.18712876737117767
0.3099309504032135 0.19159030914306641 0.19366499781608582
0.42322948575019836 0.20791612565517426 0.19887784123420715
0.57939994335174561 0.25146222114562988 0.20187610387802124
0.37412199378013611 0.36125686764717102 0.21461421251296997
0.41408747434616089 0.36795714497566223 0.21287159621715546
0.48621013760566711 0.37686187028884888 0.21229268610477448
0.62277710437774658 0.41194885969161987 0.18662509322166443
0.80693989992141724 0.48413324356079102 0.10974964499473572
0.72626149654388428 0.68766593933105469 0.15247167646884918
0.74165195226669312 0.69089812040328979 0.15717898309230804
0.79271781444549561 0.716968834400177 0.20235626399517059
0.87340462207794189 0.7650529146194458 0.29171234369277954
0.97003507614135742 0.82913899421691895 0.41993588209152222
0.013105355203151703 0.00054720672778785229 0.10817716270685196
0.10595589131116867 0.0042842105031013489 0.14436925947666168
0.21203920245170593 0.00034845987102016807 0.2199067622423172
0.33025625348091125 0 0.2285345047712326
0.4640602171421051 0.026278309524059296 0.24000822007656097
0.055175453424453735 0.087981730699539185 0.20665808022022247
0.12954026460647583 0.080627880990505219 0.21993736922740936
0.23549862205982208 0.071867488324642181 0.23079386353492737
0.34899035096168518 0.074456855654716492 0.23477183282375336
0.49136283993721008 0.10912447422742844 0.24611903727054596
0.18565984070301056 0.19212940335273743 0.23717875778675079
0.21826720237731934 0.18678095936775208 0.23785945773124695
0.30734699964523315 0.19367702305316925 0.23971858620643616
0.42368334531784058 0.2080894261598587 0.24511756002902985
0.5819237232208252 0.24894624948501587 0.24975194036960602
0.37405657768249512 0.3628571629524231 0.25347435474395752
0.40710461139678955 0.36702308058738708 0.25282037258148193
0.48765885829925537 0.37950330972671509 0.2517566978931427
0.63313204050064087 0.42001324892044067 0.22763824462890625
0.80843299627304077 0.48408934473991394 0.16752557456493378
0.71964240074157715 0.68549245595932007 0.19460925459861755
0.74446827173233032 0.69512122869491577 0.21095149219036102
0.79733991622924805 0.7161785364151001 0.24959030747413635
0.87494868040084839 0.7689329981803894 0.33558320999145508
0.96817278861999512 0.83353054523468018 0.45926624536514282
0.052122790366411209 0.003346423152834177 0.21366530656814575
0.088471539318561554 0.01677822507917881 0.25846266746520996
0.21248599886894226 1.929253812704701e-06 0.30286350846290588
0.32483839988708496 0.00099093269091099501 0.30711886286735535
0.46721327304840088 0.040697235614061356 0.31888124346733093
0.047833334654569626 0.083610311150550842 0.29614549875259399
0.12249764800071716 0.079180024564266205 0.30199632048606873
0.23190638422966003 0.07522747665643692 0.30688583850860596
0.34711223840713501 0.078691348433494568 0.31104403734207153
0.49379447102546692 0.11538732796907425 0.31973963975906372
0.1838592141866684 0.1906084269285202 0.31227853894233704
0.21784581243991852 0.1893940269947052 0.30731448531150818
0.30733504891395569 0.19712761044502258 0.31532573699951172
0.42858418822288513 0.21325647830963135 0.32462623715400696
0.58949679136276245 0.25752398371696472 0.32959362864494324
0.38861855864524841 0.36579883098602295 0.32176348567008972
0.41822889447212219 0.37236902117729187 0.32496577501296997
0.49886620044708252 0.38831529021263123 0.32640296220779419
0.63802307844161987 0.42007794976234436 0.29943746328353882
0.82655578851699829 0.49358484148979187 0.25649955868721008
0.73513168096542358 0.69219189882278442 0.30207157135009766
0.74869346618652344 0.69544237852096558 0.30187642574310303
0.79976600408554077 0.72945100069046021 0.34899061918258667
0.8794824481010437 0.77284860610961914 0.4200575053691864
0.96573549509048462 0.84085118770599365 0.54437530040740967
0.0014275024877861142 0.018735077232122421 0.3507077693939209
0.084945887327194214 0.012021459639072418 0.37332946062088013
0.20953664183616638 0.00048603952745907009 0.38263338804244995
0.33025315403938293 0.0018387357704341412 0.38723433017730713
0.47637581825256348 0.052356276661157608 0.39527183771133423
0.07061893492937088 0.080082468688488007 0.38184988498687744
0.13110655546188354 0.077791199088096619 0.38192754983901978
0.23018746078014374 0.078630529344081879 0.38519608974456787
0.35420680046081543 0.086166039109230042 0.38922104239463806
0.50749880075454712 0.12910982966423035 0.39675348997116089
0.19449560344219208 0.19064866006374359 0.38819238543510437
0.23430971801280975 0.19446432590484619 0.38966745138168335
0.3145999014377594 0.1994471549987793 0.3911493718624115
0.44155353307723999 0.21818444132804871 0.3992152214050293
0.60986143350601196 0.2670692503452301 0.4043060839176178
0.40971243381500244 0.37056753039360046 0.39915710687637329
0.44630920886993408 0.37482604384422302 0.39513954520225525
0.52300369739532471 0.39946883916854858 0.3993736207485199
0.66367888450622559 0.43540516495704651 0.37381073832511902
0.84656071662902832 0.5075269341468811 0.35195291042327881
0.75030714273452759 0.70534873008728027 0.40419471263885498
0.76989227533340454 0.71180009841918945 0.41530874371528625
0.81486761569976807 0.73548638820648193 0.44674161076545715
0.88697701692581177 0.79090601205825806 0.53949642181396484
0.97069644927978516 0.85405361652374268 0.64769387245178223
0.041059628129005432 0.0064618401229381561 0.4560997486114502
0.12150988727807999 0.001835914677940309 0.45758315920829773
0.21912200748920441 0.0067997844889760017 0.4639677107334137
0.34183022379875183 0.016136087477207184 0.46632510423660278
0.49372407793998718 0.070155620574951172 0.47441861033439636
0.10424083471298218 0.080664508044719696 0.46171778440475464
0.15388977527618408 0.079515747725963593 0.46136608719825745
0.24913053214550018 0.081365756690502167 0.46480125188827515
0.3717384934425354 0.097966492176055908 0.46949765086174011
0.52770596742630005 0.13849304616451263 0.47746291756629944
0.2255951464176178 0.19645753502845764 0.46920058131217957
0.26070466637611389 0.19898854196071625 0.46813070774078369
0.3438791036605835 0.20948639512062073 0.47357022762298584
0.46749833226203918 0.23367193341255188 0.47918671369552612
0.64415949583053589 0.28630903363227844 0.48126676678657532
0.46178156137466431 0.3858027458190918 0.48699063062667847
0.48904585838317871 0.38966637849807739 0.48439019918441772
0.57457321882247925 0.41109487414360046 0.47082021832466125
0.7065194845199585 0.45319366455078125 0.44261392951011658
0.87869745492935181 0.52658188343048096 0.4402775764465332
0.78331828117370605 0.72457516193389893 0.52011054754257202
0.7964739203453064 0.73158150911331177 0.53053289651870728
0.83401238918304443 0.75965303182601929 0.57546305656433105
0.89465433359146118 0.807850182056427 0.64939033985137939
0.96717655658721924 0.86994892358779907 0.76179885864257812
