LUTs/LateSunset.cube
# Created by: G'MIC (https://gmic.eu)
TITLE "LateSunset"
# LUT size
LUT_3D_SIZE 32
# Data domain
DOMAIN_MIN 0.0 0.0 0.0
DOMAIN_MAX 1.0 1.0 1.0
# LUT data points
0.0036458007525652647 0.0014002196257933974 0.0042597190476953983
0.013412297703325748 0.00080195179907605052 0.0041302717290818691
0.028048187494277954 0.0009316924843005836 0.00618758425116539
0.045165784657001495 0.0010828790254890919 0.007940247654914856
0.063802510499954224 0.0014675677521154284 0.014430057257413864
0.087084375321865082 0.0016938472399488091 0.024006282910704613
0.10727690160274506 0.0017523288261145353 0.034622065722942352
0.11607768386602402 0.0019087065011262894 0.050507433712482452
0.12539179623126984 0.0034323057625442743 0.06812923401594162
0.13882724940776825 0.0071954750455915928 0.085706226527690887
0.15556025505065918 0.009652228094637394 0.10345539450645447
0.1706027090549469 0.010419883765280247 0.12053780257701874
0.18587405979633331 0.008530864492058754 0.13243202865123749
0.20536817610263824 0.0024876287207007408 0.14070811867713928
0.22244136035442352 4.6675035264343023e-05 0.14645637571811676
0.24320234358310699 0 0.15055966377258301
0.25996419787406921 0 0.15255491435527802
0.27546980977058411 0 0.15538331866264343
0.29078912734985352 0 0.15875005722045898
0.30593648552894592 0 0.15983118116855621
0.31983780860900879 0 0.16067269444465637
0.3380296528339386 0 0.16441832482814789
0.35725453495979309 1.257437816093443e-05 0.16768321394920349
0.3753211498260498 8.3125698438379914e-05 0.16974233090877533
0.39424425363540649 0.0018689100397750735 0.17225711047649384
0.41198632121086121 0.0031023211777210236 0.17431084811687469
0.42990195751190186 0.0033149307128041983 0.1756901741027832
0.44693407416343689 0.0063621271401643753 0.17709179222583771
0.46725815534591675 0.01817009411752224 0.17969389259815216
0.49240574240684509 0.035480428487062454 0.18305686116218567
0.5197722315788269 0.052508082240819931 0.18630792200565338
0.54026585817337036 0.06535668671131134 0.18709017336368561
0.0031220593955367804 0.0067946626804769039 0.0053491340950131416
0.011053635738790035 0.0057054203934967518 0.0050231837667524815
0.025788715109229088 0.0059954989701509476 0.0085905576124787331
0.044844873249530792 0.0070747933350503445 0.015111921355128288
0.063217692077159882 0.0075174774974584579 0.023516163229942322
0.084564849734306335 0.0072768735699355602 0.037476710975170135
0.10504265874624252 0.0071792993694543839 0.048771906644105911
0.11715342849493027 0.0075065232813358307 0.061073452234268188
0.12808392941951752 0.0090385172516107559 0.077759280800819397
0.14052104949951172 0.013313704170286655 0.094221986830234528
0.1560666561126709 0.015361225232481956 0.11025319993495941
0.17297764122486115 0.014959275722503662 0.12415825575590134
0.18824563920497894 0.012103538028895855 0.13433843851089478
0.207145094871521 0.0050141601823270321 0.1417648047208786
0.22456945478916168 0.00064561498584225774 0.14789527654647827
0.24200953543186188 4.6227534767240286e-05 0.15225473046302795
0.25860872864723206 0 0.15318337082862854
0.27455127239227295 0 0.15303879976272583
0.28935948014259338 0 0.15634487569332123
0.30612319707870483 0 0.15977256000041962
0.31979671120643616 0 0.160914346575737
0.33685895800590515 6.9717992801088258e-07 0.16446606814861298
0.35633629560470581 0.00017913480405695736 0.16786262392997742
0.37612324953079224 0.0013967150589451194 0.17093023657798767
0.39499664306640625 0.005732252262532711 0.17391021549701691
0.41200321912765503 0.0095603279769420624 0.17598657310009003
0.42990195751190186 0.010171162895858288 0.17668923735618591
0.44693079590797424 0.013678749091923237 0.17732119560241699
0.46673387289047241 0.02579309418797493 0.17973530292510986
0.49115082621574402 0.04186277836561203 0.18310631811618805
0.51932579278945923 0.058772794902324677 0.18683262169361115
0.54304695129394531 0.073831744492053986 0.18893936276435852
0.0030531245283782482 0.018018214032053947 0.014414423145353794
0.011271123774349689 0.016095254570245743 0.013849484734237194
0.026141047477722168 0.016474191099405289 0.018720945343375206
0.046210270375013351 0.018584353849291801 0.027562690898776054
0.064529255032539368 0.019778965041041374 0.037245828658342361
0.083877086639404297 0.018448179587721825 0.052056767046451569
0.10296681523323059 0.016634361818432808 0.06651904433965683
0.11725053191184998 0.016884284093976021 0.077568449079990387
0.13176837563514709 0.017972411587834358 0.091051407158374786
0.1438586413860321 0.021991649642586708 0.10577721148729324
0.15816541016101837 0.023441215977072716 0.11914657056331635
0.17602570354938507 0.020708218216896057 0.13055488467216492
0.19380348920822144 0.016491556540131569 0.13749666512012482
0.21265839040279388 0.0090293372049927711 0.14416520297527313
0.2278946191072464 0.0051165441982448101 0.14976291358470917
0.24372576177120209 0.0038788984529674053 0.15400530397891998
0.25897139310836792 0.0031015102285891771 0.15550652146339417
0.27490049600601196 0.0029449628200381994 0.15407523512840271
0.28947433829307556 0.0020687412470579147 0.15510998666286469
0.30679479241371155 0.0016449782997369766 0.15928563475608826
0.32156336307525635 0.0025943478103727102 0.16237296164035797
0.33798164129257202 0.0032292925752699375 0.16593900322914124
0.35727295279502869 0.0041584023274481297 0.1686912477016449
0.37641173601150513 0.0070806229487061501 0.17207323014736176
0.39563366770744324 0.011428507976233959 0.17554743587970734
0.41264617443084717 0.015380438417196274 0.17770703136920929
0.43042048811912537 0.020228441804647446 0.17839746177196503
0.44740727543830872 0.025861233472824097 0.17818811535835266
0.46846520900726318 0.036027416586875916 0.18087980151176453
0.49233856797218323 0.049965411424636841 0.18505434691905975
0.51998096704483032 0.06645570695400238 0.1886063814163208
0.54474842548370361 0.083126425743103027 0.19174589216709137
0.0038560093380510807 0.03669048473238945 0.03624098002910614
0.0155459800735116 0.033640947192907333 0.034260779619216919
0.032642263919115067 0.033057145774364471 0.039110384881496429
0.052568640559911728 0.033425655215978622 0.050834402441978455
0.0695924311876297 0.034356512129306793 0.060792695730924606
0.084479741752147675 0.033515501767396927 0.071405164897441864
0.10216560214757919 0.032441504299640656 0.083887562155723572
0.11915367096662521 0.030869226902723312 0.094040043652057648
0.13530078530311584 0.030747545883059502 0.10602598637342453
0.14783370494842529 0.031979974359273911 0.11841693520545959
0.16222970187664032 0.031305845826864243 0.12993863224983215
0.18115255236625671 0.026022471487522125 0.13787916302680969
0.19974397122859955 0.021113226190209389 0.14273692667484283
0.22009526193141937 0.014384517446160316 0.14617837965488434
0.23488770425319672 0.011748659424483776 0.15047299861907959
0.24719424545764923 0.012819503434002399 0.1544557511806488
0.26133546233177185 0.012058489955961704 0.15627144277095795
0.27678704261779785 0.01107538677752018 0.1559503972530365
0.29210594296455383 0.0091804750263690948 0.15721394121646881
0.30817914009094238 0.0075980592519044876 0.16188156604766846
0.32366177439689636 0.0088970977813005447 0.16560164093971252
0.341348797082901 0.011683003045618534 0.16860821843147278
0.36092612147331238 0.014024274423718452 0.17065379023551941
0.37993139028549194 0.018347509205341339 0.17273780703544617
0.39941889047622681 0.021801071241497993 0.17598901689052582
0.41650474071502686 0.022731989622116089 0.17820446193218231
0.43433001637458801 0.02874310314655304 0.17873923480510712
0.4506094753742218 0.038737483322620392 0.17831949889659882
0.47125747799873352 0.048350397497415543 0.18192516267299652
0.49591168761253357 0.058794502168893814 0.18818649649620056
0.52355259656906128 0.074164070188999176 0.19217485189437866
0.54740303754806519 0.088644891977310181 0.19359208643436432
0.012256426736712456 0.054219838231801987 0.063211366534233093
0.025788024067878723 0.050968639552593231 0.061393376439809799
0.041872117668390274 0.048226784914731979 0.062707476317882538
0.059279028326272964 0.047932527959346771 0.074197180569171906
0.075090751051902771 0.047932527959346771 0.085274867713451385
0.088225014507770538 0.047913007438182831 0.094090603291988373
0.1043398529291153 0.047106117010116577 0.10305459797382355
0.12226786464452744 0.045348156243562698 0.11175461113452911
0.13998167216777802 0.043315079063177109 0.11989998072385788
0.15257547795772552 0.042410906404256821 0.12931239604949951
0.16762615740299225 0.040490731596946716 0.13786260783672333
0.18751342594623566 0.034634392708539963 0.14372768998146057
0.20488870143890381 0.030864791944622993 0.14768955111503601
0.2245388925075531 0.025613179430365562 0.14969260990619659
0.23985791206359863 0.023506134748458862 0.15149411559104919
0.251260906457901 0.023793181404471397 0.15510426461696625
0.26431146264076233 0.02415439672768116 0.1567964106798172
0.27993649244308472 0.022995281964540482 0.15688629448413849
0.2942967414855957 0.020530987530946732 0.15877209603786469
0.31094396114349365 0.019066521897912025 0.16375972330570221
0.32573410868644714 0.019794035702943802 0.16755637526512146
0.34350568056106567 0.023825271055102348 0.17013086378574371
0.36335316300392151 0.028471494093537331 0.17167733609676361
0.38132336735725403 0.033196069300174713 0.172943115234375
0.40235325694084167 0.037696182727813721 0.17591829597949982
0.41982981562614441 0.037145350128412247 0.17824070155620575
0.43917727470397949 0.040588770061731339 0.18026207387447357
0.45582884550094604 0.051807928830385208 0.18078601360321045
0.47531440854072571 0.062608689069747925 0.18251593410968781
0.49975118041038513 0.070925921201705933 0.18850494921207428
0.52716052532196045 0.083270594477653503 0.193083256483078
0.55044883489608765 0.096038855612277985 0.19375167787075043
0.02656940184533596 0.067468412220478058 0.090761467814445496
0.041577067226171494 0.064646661281585693 0.09251847118139267
0.056223448365926743 0.061879508197307587 0.094178251922130585
0.069174274802207947 0.061497624963521957 0.10130365937948227
0.083227261900901794 0.061496540904045105 0.11022646725177765
0.095385819673538208 0.061448227614164352 0.11717395484447479
0.11086957901716232 0.060423180460929871 0.12461195141077042
0.12772117555141449 0.058423418551683426 0.13099756836891174
0.14463599026203156 0.055671330541372299 0.13635337352752686
0.15881349146366119 0.052684571593999863 0.13929006457328796
0.17499531805515289 0.049843475222587585 0.14450830221176147
0.19501647353172302 0.04565855860710144 0.14908662438392639
0.21123699843883514 0.042915742844343185 0.15244258940219879
0.22611260414123535 0.041679687798023224 0.153750941157341
0.24047955870628357 0.040074989199638367 0.15498873591423035
0.252838134765625 0.038562800735235214 0.1582806259393692
0.26629304885864258 0.038460701704025269 0.16014295816421509
0.28336137533187866 0.037401143461465836 0.16022717952728271
0.29816669225692749 0.036264557391405106 0.16135492920875549
0.31409168243408203 0.033646415919065475 0.16437616944313049
0.32929489016532898 0.035098951309919357 0.16767662763595581
0.34624931216239929 0.040399715304374695 0.17095290124416351
0.36439788341522217 0.045713528990745544 0.17242096364498138
0.38157066702842712 0.049853488802909851 0.17227451503276825
0.40231102705001831 0.054121308028697968 0.17477467656135559
0.42051506042480469 0.055850952863693237 0.17799966037273407
0.44233539700508118 0.058912377804517746 0.18175582587718964
0.46221604943275452 0.067997775971889496 0.18550692498683929
0.48214063048362732 0.077450104057788849 0.18617719411849976
0.50471919775009155 0.08336368203163147 0.18726983666419983
0.53092080354690552 0.094560213387012482 0.19014815986156464
0.55428963899612427 0.10680100321769714 0.19230273365974426
0.044136088341474533 0.080148249864578247 0.11621715873479843
0.057510774582624435 0.077830478549003601 0.11855857074260712
0.072258204221725464 0.075008861720561981 0.12238002568483353
0.083244763314723969 0.074552670121192932 0.12726332247257233
0.095157325267791748 0.07386799156665802 0.1312611848115921
0.10667039453983307 0.073325894773006439 0.13578344881534576
0.12073887139558792 0.072417810559272766 0.14072887599468231
0.1358010470867157 0.070740386843681335 0.14578463137149811
0.15093408524990082 0.068637385964393616 0.14971493184566498
0.1654023677110672 0.065624251961708069 0.15003760159015656
0.18196190893650055 0.062155667692422867 0.15126720070838928
0.20110660791397095 0.059028591960668564 0.15475736558437347
0.21714690327644348 0.058156557381153107 0.15699188411235809
0.23081488907337189 0.058188430964946747 0.15756295621395111
0.24342973530292511 0.05690065398812294 0.15913873910903931
0.25632762908935547 0.054811455309391022 0.16242757439613342
0.26981115341186523 0.053830396384000778 0.16421450674533844
0.28688383102416992 0.053280577063560486 0.16426095366477966
0.30193153023719788 0.053975958377122879 0.16471195220947266
0.31813937425613403 0.051969472318887711 0.16646027565002441
0.33374255895614624 0.052585702389478683 0.16862352192401886
0.35054367780685425 0.057396821677684784 0.17241024971008301
0.36890468001365662 0.062412556260824203 0.1745627373456955
0.38634753227233887 0.06580381840467453 0.1735924631357193
0.40570911765098572 0.068836309015750885 0.17436520755290985
0.42477965354919434 0.071079239249229431 0.17769081890583038
0.44552499055862427 0.076313883066177368 0.18155321478843689
0.46644097566604614 0.085248783230781555 0.18660451471805573
0.4894142746925354 0.094616129994392395 0.19014132022857666
0.51174366474151611 0.10037114471197128 0.18935981392860413
0.53717774152755737 0.10836093127727509 0.18919916450977325
0.5601012110710144 0.11976169049739838 0.192185178399086
0.07125689834356308 0.090411387383937836 0.13792842626571655
0.078585982322692871 0.08883955329656601 0.13756103813648224
0.089898489415645599 0.086371272802352905 0.13943450152873993
0.097358383238315582 0.085612498223781586 0.14228010177612305
0.1073763519525528 0.084624238312244415 0.1442851722240448
0.11961735785007477 0.082122482359409332 0.14520387351512909
0.13313953578472137 0.080629020929336548 0.14838923513889313
0.14616259932518005 0.079886093735694885 0.15235413610935211
0.15994000434875488 0.078775949776172638 0.15528394281864166
0.17341259121894836 0.076943188905715942 0.154830202460289
0.1886419802904129 0.074359714984893799 0.15534153580665588
0.20350393652915955 0.07301456481218338 0.15774534642696381
0.21858929097652435 0.07230694591999054 0.15996094048023224
0.2353234738111496 0.072657175362110138 0.16304904222488403
0.24889828264713287 0.071999959647655487 0.16508151590824127
0.26303678750991821 0.070263989269733429 0.16683493554592133
0.27598422765731812 0.068240739405155182 0.1683037281036377
0.28971102833747864 0.06775878369808197 0.16838067770004272
0.30464115738868713 0.069309979677200317 0.16839331388473511
0.3217984139919281 0.07160428911447525 0.16875159740447998
0.33786651492118835 0.072355248034000397 0.17061945796012878
0.35615134239196777 0.074128463864326477 0.17435367405414581
0.37509697675704956 0.077017821371555328 0.17676419019699097
0.39266124367713928 0.079800285398960114 0.17677865922451019
0.41193753480911255 0.082125723361968994 0.17732666432857513
0.43169546127319336 0.084361247718334198 0.17947892844676971
0.45221155881881714 0.090169616043567657 0.18257959187030792
0.47180667519569397 0.10095604509115219 0.18656496703624725
0.49539059400558472 0.11194907128810883 0.19064395129680634
0.51917362213134766 0.11907322704792023 0.19190920889377594
0.54469805955886841 0.12556736171245575 0.19236285984516144
0.56707388162612915 0.13232123851776123 0.19426047801971436
0.095843493938446045 0.10130752623081207 0.15325412154197693
0.10111717134714127 0.099603906273841858 0.15189750492572784
0.10764111578464508 0.09878983348608017 0.15155854821205139
0.11263060569763184 0.098672598600387573 0.1533283144235611
0.12002146244049072 0.097606539726257324 0.15460291504859924
0.13243599236011505 0.094832867383956909 0.15470246970653534
0.14620804786682129 0.093171633780002594 0.15526561439037323
0.15813469886779785 0.092914588749408722 0.15807831287384033
0.1700260192155838 0.09075184166431427 0.1602458655834198
0.1827891618013382 0.088865965604782104 0.15928779542446136
0.19637578725814819 0.088743291795253754 0.15909621119499207
0.20921158790588379 0.089466027915477753 0.16112302243709564
0.22134342789649963 0.089451543986797333 0.16314265131950378
0.23873065412044525 0.089515708386898041 0.16772280633449554
0.25376713275909424 0.089217722415924072 0.17040352523326874
0.26796036958694458 0.086195267736911774 0.17066396772861481
0.28351560235023499 0.085660211741924286 0.17131295800209045
0.29712402820587158 0.085687696933746338 0.17172189056873322
0.30926331877708435 0.086623147130012512 0.17200155556201935
0.32592672109603882 0.090048559010028839 0.17219412326812744
0.34264260530471802 0.092464223504066467 0.17338216304779053
0.36145427823066711 0.092733748257160187 0.17660970985889435
0.38068455457687378 0.093985199928283691 0.17920823395252228
0.39826175570487976 0.097179509699344635 0.17994828522205353
0.41795659065246582 0.099184207618236542 0.18089823424816132
0.43831261992454529 0.10157782584428787 0.18281303346157074
0.45987164974212646 0.10657703876495361 0.1853787899017334
0.4792998731136322 0.11736062169075012 0.18862257897853851
0.50266909599304199 0.13038448989391327 0.19141441583633423
0.52713006734848022 0.13830859959125519 0.19333000481128693
0.55356186628341675 0.14546924829483032 0.19495978951454163
0.57548654079437256 0.14989237487316132 0.19609980285167694
0.10880399495363235 0.11266600340604782 0.15858517587184906
0.11444739997386932 0.11086132377386093 0.15743404626846313
0.12079475075006485 0.11023557186126709 0.15677480399608612
0.12466562539339066 0.11049181222915649 0.15756344795227051
0.1315782368183136 0.10990756005048752 0.15898656845092773
0.142974853515625 0.10880822688341141 0.16109071671962738
0.15622076392173767 0.10666357725858688 0.16180765628814697
0.16800950467586517 0.10656252503395081 0.16261035203933716
0.17969717085361481 0.10555532574653625 0.16422452032566071
0.1911596804857254 0.10210777819156647 0.16378903388977051
0.2041143923997879 0.10213111340999603 0.16381245851516724
0.21645142138004303 0.10403697937726974 0.16611316800117493
0.22827924787998199 0.10408592224121094 0.16806985437870026
0.24449527263641357 0.10548646003007889 0.17087697982788086
0.25852036476135254 0.10574333369731903 0.17265745997428894
0.27046564221382141 0.10272983461618423 0.17245884239673615
0.28682848811149597 0.10256686806678772 0.17324420809745789
0.30609536170959473 0.10350234806537628 0.17483334243297577
0.31881731748580933 0.10505951195955276 0.17574192583560944
0.33080512285232544 0.10554684698581696 0.17614786326885223
0.34631291031837463 0.10648884624242783 0.17674118280410767
0.36674681305885315 0.10658694803714752 0.17809517681598663
0.38662546873092651 0.10953397303819656 0.18050813674926758
0.40591603517532349 0.11566807329654694 0.1836334764957428
0.42592775821685791 0.11951129138469696 0.18583233654499054
0.44466757774353027 0.12176475673913956 0.18763616681098938
0.46627554297447205 0.12553513050079346 0.18960420787334442
0.48680412769317627 0.13206137716770172 0.19126637279987335
0.51043033599853516 0.14402170479297638 0.19324383139610291
0.53500056266784668 0.15488253533840179 0.19496434926986694
0.56165266036987305 0.16306822001934052 0.19605937600135803
0.5855908989906311 0.16930675506591797 0.19574815034866333
0.12294782698154449 0.12619207799434662 0.16560041904449463
0.12895867228507996 0.12486642599105835 0.16474275290966034
0.13521973788738251 0.12452493607997894 0.16311724483966827
0.13799755275249481 0.124526746571064 0.16297182440757751
0.1443621963262558 0.12464384734630585 0.16384455561637878
0.15575875341892242 0.12466146796941757 0.16665385663509369
0.16721142828464508 0.12451609224081039 0.16854551434516907
0.17812797427177429 0.12439478188753128 0.16866783797740936
0.18980884552001953 0.12215839326381683 0.16870953142642975
0.2004663497209549 0.11884022504091263 0.16874618828296661
0.2127450704574585 0.11727482080459595 0.16973793506622314
0.22530055046081543 0.12001579254865646 0.17189344763755798
0.23725312948226929 0.12079755961894989 0.1729196310043335
0.25309839844703674 0.12197288870811462 0.17426832020282745
0.26609659194946289 0.12234021723270416 0.17556948959827423
0.27723297476768494 0.12071710824966431 0.17567206919193268
0.29147279262542725 0.12052424997091293 0.17620342969894409
0.3123907744884491 0.12128312885761261 0.17792303860187531
0.32935294508934021 0.12390928715467453 0.17924225330352783
0.34028065204620361 0.12363413721323013 0.1799631267786026
0.35226336121559143 0.12319348752498627 0.18057510256767273
0.37302941083908081 0.12379391491413116 0.1811823695898056
0.39491939544677734 0.12673132121562958 0.18259251117706299
0.4153134822845459 0.13453137874603271 0.18672899901866913
0.43673005700111389 0.14070278406143188 0.1907649040222168
0.45503303408622742 0.14354942739009857 0.19288429617881775
0.47640123963356018 0.14768348634243011 0.19456563889980316
0.49769100546836853 0.15238629281520844 0.19517451524734497
0.52076905965805054 0.15963825583457947 0.19478562474250793
0.54491060972213745 0.1710282564163208 0.19586741924285889
0.5729835033416748 0.18118239939212799 0.19782502949237823
0.59821677207946777 0.18858212232589722 0.19718010723590851
0.14060769975185394 0.14085640013217926 0.17243906855583191
0.14581677317619324 0.14070148766040802 0.17359432578086853
0.15078185498714447 0.13984249532222748 0.17223313450813293
0.15229937434196472 0.13981117308139801 0.17157174646854401
0.15870161354541779 0.14055941998958588 0.17238090932369232
0.17238999903202057 0.14111997187137604 0.17262460291385651
0.18379662930965424 0.14035505056381226 0.17363426089286804
0.19124706089496613 0.13975191116333008 0.17469067871570587
0.20119832456111908 0.13892798125743866 0.1753963828086853
0.21024137735366821 0.13565643131732941 0.17542311549186707
0.2214764803647995 0.13449469208717346 0.17611013352870941
0.23403826355934143 0.13734251260757446 0.17888809740543365
0.24625109136104584 0.13904277980327606 0.17963986098766327
0.26310405135154724 0.13821667432785034 0.1775243878364563
0.27640116214752197 0.13733489811420441 0.17816621065139771
0.28616571426391602 0.13651497662067413 0.1797666996717453
0.29924225807189941 0.13588705658912659 0.18032628297805786
0.31784349679946899 0.1364673376083374 0.180668905377388
0.33538907766342163 0.13937188684940338 0.18214783072471619
0.35184749960899353 0.14251983165740967 0.18464089930057526
0.36526978015899658 0.14334043860435486 0.18624307215213776
0.38292288780212402 0.1450992077589035 0.18776741623878479
0.40416637063026428 0.14812500774860382 0.18887904286384583
0.42585018277168274 0.15426552295684814 0.19029942154884338
0.44784551858901978 0.16023220121860504 0.19354771077632904
0.4668317437171936 0.16374127566814423 0.19660718739032745
0.48924541473388672 0.16906465590000153 0.1985711008310318
0.51204401254653931 0.17477878928184509 0.19891564548015594
0.53504365682601929 0.18117146193981171 0.19776587188243866
0.55957210063934326 0.19011405110359192 0.19670549035072327
0.58928006887435913 0.20011286437511444 0.19890464842319489
0.61686426401138306 0.20961837470531464 0.20221580564975739
0.15629501640796661 0.15564341843128204 0.17682111263275146
0.16106119751930237 0.15560142695903778 0.17852291464805603
0.16628806293010712 0.15545426309108734 0.17885211110115051
0.16753049194812775 0.15511719882488251 0.1783221960067749
0.17187179625034332 0.1548820286989212 0.17853221297264099
0.18493866920471191 0.15517838299274445 0.1776261031627655
0.19751566648483276 0.15549191832542419 0.17704306542873383
0.20460435748100281 0.15560343861579895 0.17878139019012451
0.21271727979183197 0.15540289878845215 0.18025602400302887
0.22113503515720367 0.15253058075904846 0.18050877749919891
0.23124606907367706 0.15117266774177551 0.18103009462356567
0.24366214871406555 0.15403306484222412 0.18398937582969666
