LUTs/Polaroid 669 1 --.cube
# Created by: G'MIC (https://gmic.eu)
TITLE "Polaroid 669 1 --"
# LUT size
LUT_3D_SIZE 5
# Data domain
# LUT data points
DOMAIN_MIN 0.000000 0.000000 0.000000
DOMAIN_MAX 0.903226 0.903226 0.903226
0.0036817053332924843 0.013160031288862228 0.010146401822566986
0.13696157932281494 0.042112875729799271 0.020542554557323456
0.38214570283889771 0.033219501376152039 0.034793790429830551
0.6590152382850647 0.0005174317630007863 0.055990707129240036
0.88899821043014526 0.10246974229812622 0.080803558230400085
0 0.1878000944852829 0.028196357190608978
0.14281080663204193 0.1975657045841217 0.014766008593142033
0.43606773018836975 0.21534895896911621 0.04886879026889801
0.69024890661239624 0.2204134613275528 0.067230239510536194
0.90118765830993652 0.26788732409477234 0.090147733688354492
0 0.38577434420585632 0.046695306897163391
0.10722813010215759 0.37626856565475464 0.049082439392805099
0.39243039488792419 0.40015116333961487 2.1029204333444795e-07
0.68081879615783691 0.43668192625045776 0.0065997783094644547
0.91513210535049438 0.50649571418762207 0.12398200482130051
0 0.572254478931427 0.012853516265749931
0.13327448070049286 0.55913227796554565 0.017113812267780304
0.354460209608078 0.55710035562515259 2.818808582105703e-07
0.60158801078796387 0.58940154314041138 0
0.85231548547744751 0.65033882856369019 0
0.21039287745952606 0.82387465238571167 4.1704611248860601e-06
0.28818964958190918 0.8175693154335022 0
0.42856654524803162 0.80144006013870239 0
0.63868242502212524 0.82562536001205444 0
0.85501587390899658 0.85899293422698975 0
0 0.063663937151432037 0.169859379529953
0.13702547550201416 0.084581546485424042 0.1869928389787674
0.40562164783477783 0.098810307681560516 0.20708338916301727
0.66213279962539673 0.035497058182954788 0.20334209501743317
0.88408440351486206 0.10321976989507675 0.21353258192539215
0 0.22567865252494812 0.20268651843070984
0.17194032669067383 0.23097006976604462 0.22130791842937469
0.44737085700035095 0.23656509816646576 0.22781625390052795
0.68852680921554565 0.23252385854721069 0.22236645221710205
0.89744466543197632 0.26500865817070007 0.22484211623668671
0 0.44199186563491821 0.21756097674369812
0.17539507150650024 0.42767658829689026 0.21459358930587769
0.42948311567306519 0.4303053617477417 0.18810656666755676
0.70830082893371582 0.4662787914276123 0.22458164393901825
0.91230118274688721 0.50501745939254761 0.25706091523170471
0 0.61215734481811523 0.18184280395507812
0.17637844383716583 0.59936702251434326 0.17800113558769226
0.37266302108764648 0.57805675268173218 0.15865392982959747
0.61822283267974854 0.60738253593444824 0.089273996651172638
0.86402797698974609 0.66293776035308838 0.11978257447481155
0.1919005811214447 0.83633893728256226 0.13607360422611237
0.27909305691719055 0.83062392473220825 0.12537112832069397
0.42423051595687866 0.81121760606765747 0.084705673158168793
0.63435906171798706 0.82876783609390259 0.0023608396295458078
0.85621070861816406 0.86133909225463867 0
0 0.15952399373054504 0.43320795893669128
0.017057359218597412 0.16560740768909454 0.45541191101074219
0.47802063822746277 0.2024552971124649 0.49470141530036926
0.72920221090316772 0.24578016996383667 0.50727790594100952
0.92039519548416138 0.21742190420627594 0.48153477907180786
0 0.32065999507904053 0.44736704230308533
0.11547744274139404 0.30470335483551025 0.48096665740013123
0.50826168060302734 0.33223259449005127 0.51783478260040283
0.73727834224700928 0.35322088003158569 0.52043968439102173
0.91678953170776367 0.29087573289871216 0.46734794974327087
0 0.51507723331451416 0.48303189873695374
0.18894979357719421 0.52433383464813232 0.49996152520179749
0.51510316133499146 0.52430069446563721 0.52440106868743896
0.72550839185714722 0.49972078204154968 0.4925367534160614
0.90403378009796143 0.49259829521179199 0.46368858218193054
0 0.71095097064971924 0.43355661630630493
0.1993567943572998 0.7077680230140686 0.44323498010635376
0.437936931848526 0.66432994604110718 0.42722463607788086
0.66040712594985962 0.66206163167953491 0.3870069682598114
0.88759046792984009 0.70428919792175293 0.44761177897453308
0.13964812457561493 0.87339580059051514 0.39799997210502625
0.25111287832260132 0.86725729703903198 0.38628321886062622
0.41619384288787842 0.84742498397827148 0.34862491488456726
0.61616748571395874 0.83803480863571167 0.3005715012550354
0.85718119144439697 0.86785989999771118 0.26310688257217407
0 0.29446852207183838 0.72197842597961426
0 0.27474892139434814 0.73777681589126587
0.47770711779594421 0.31425005197525024 0.75990968942642212
0.76770615577697754 0.38881391286849976 0.77615731954574585
0.91676789522171021 0.46944418549537659 0.76439195871353149
0 0.4301753044128418 0.72721767425537109
0.00016529983258806169 0.40363183617591858 0.74121272563934326
0.49413031339645386 0.4203391969203949 0.76356947422027588
0.76759696006774902 0.49597448110580444 0.78219664096832275
0.90804058313369751 0.55424761772155762 0.77279341220855713
0 0.58985501527786255 0.69130957126617432
0.1528656929731369 0.59533447027206421 0.70725572109222412
0.50021517276763916 0.59074002504348755 0.74845826625823975
0.75419670343399048 0.65775316953659058 0.78194308280944824
0.89109456539154053 0.69164884090423584 0.78665345907211304
0.038259286433458328 0.7699054479598999 0.72251176834106445
0.26247835159301758 0.77168804407119751 0.72905755043029785
0.50751793384552002 0.77051645517349243 0.74145686626434326
0.72880345582962036 0.77710491418838501 0.76707553863525391
0.88025450706481934 0.74772000312805176 0.73108857870101929
0.2698676586151123 0.9235108494758606 0.69605821371078491
0.34528073668479919 0.92123693227767944 0.69573342800140381
0.48117932677268982 0.91191560029983521 0.68769192695617676
0.63381016254425049 0.87836050987243652 0.64411020278930664
0.85279983282089233 0.88370776176452637 0.60250324010848999
0 0.48151028156280518 0.92242574691772461
0.0021452405489981174 0.46040159463882446 0.92564129829406738
0.48717251420021057 0.49465903639793396 0.92829543352127075
0.75752276182174683 0.5945889949798584 0.93153828382492065
0.90971660614013672 0.6776464581489563 0.93272274732589722
0.043419055640697479 0.57381135225296021 0.91791409254074097
0.23240241408348083 0.56114614009857178 0.9220355749130249
0.51212203502655029 0.56971371173858643 0.9264865517616272
0.76051050424575806 0.65414524078369141 0.93021118640899658
0.90453052520751953 0.72207659482955933 0.93247228860855103
0.30641418695449829 0.71973896026611328 0.89966332912445068
0.40286460518836975 0.71803551912307739 0.90518653392791748
0.54364436864852905 0.69869261980056763 0.91619497537612915
0.75816631317138672 0.74901258945465088 0.92631423473358154
0.89555573463439941 0.80296957492828369 0.9334331750869751
0.12808091938495636 0.83092409372329712 0.88565027713775635
0.27760931849479675 0.82873630523681641 0.88628041744232178
0.48428794741630554 0.82181531190872192 0.88790696859359741
0.73143070936203003 0.82996505498886108 0.91594010591506958
0.88902604579925537 0.88509941101074219 0.93686258792877197
0.42788892984390259 0.95237773656845093 0.90461051464080811
0.47936341166496277 0.95073878765106201 0.90568888187408447
0.59828764200210571 0.94797152280807495 0.91036134958267212
0.7483973503112793 0.94410914182662964 0.91963982582092285
0.88242506980895996 0.94720393419265747 0.93552714586257935
