LUTs/Polaroid 669 Cold 3.cube
# Created by: G'MIC (https://gmic.eu)
TITLE "Polaroid 669 Cold 3"
# LUT size
LUT_3D_SIZE 5
# Data domain
# LUT data points
DOMAIN_MIN 0.000000 0.000000 0.000000
DOMAIN_MAX 0.903226 0.903226 0.903226
0 0.18825940787792206 0.24026073515415192
0 0.19498103857040405 0.25083848834037781
0.2054765373468399 0.20428965985774994 0.27146092057228088
0.48767721652984619 0.19903171062469482 0.30288770794868469
0.76125538349151611 0.18423008918762207 0.34033524990081787
0 0.23607319593429565 0.27361175417900085
0.0025953697040677071 0.24070626497268677 0.2763308584690094
0.29308223724365234 0.25048977136611938 0.30194449424743652
0.55397003889083862 0.24855139851570129 0.32827854156494141
0.79617905616760254 0.25939902663230896 0.363689124584198
0.0031625514384359121 0.34461084008216858 0.32851764559745789
0.12811796367168427 0.34016060829162598 0.32991978526115417
0.3511962890625 0.35976031422615051 0.33270406723022461
0.6093936562538147 0.38536188006401062 0.36258566379547119
0.83538591861724854 0.45887011289596558 0.42668789625167847
0.18871384859085083 0.5137859582901001 0.37647473812103271
0.24534392356872559 0.50130283832550049 0.37569910287857056
0.38436290621757507 0.51074063777923584 0.37650755047798157
0.59296315908432007 0.56417673826217651 0.37758246064186096
0.79773557186126709 0.64178949594497681 0.42452746629714966
0.28136548399925232 0.81571799516677856 0.45319291949272156
0.32555204629898071 0.80598533153533936 0.44802564382553101
0.42888396978378296 0.7957884669303894 0.44329920411109924
0.59560233354568481 0.83740311861038208 0.45872661471366882
0.76283407211303711 0.88627183437347412 0.48918485641479492
0 0.19669871032238007 0.28817412257194519
0 0.2050589919090271 0.30254548788070679
0.22363480925559998 0.2162708044052124 0.33293333649635315
0.50785428285598755 0.20147387683391571 0.35835841298103333
0.7681959867477417 0.18561387062072754 0.39191797375679016
0 0.2474503219127655 0.33010849356651306
0.0059728384949266911 0.25134927034378052 0.34363290667533875
0.31183141469955444 0.25918179750442505 0.36561402678489685
0.56639558076858521 0.25478202104568481 0.38607236742973328
0.80091029405593872 0.26348003745079041 0.41618746519088745
0.055010374635457993 0.37968963384628296 0.39200448989868164
0.18031252920627594 0.37182778120040894 0.3918420672416687
0.38585144281387329 0.38139587640762329 0.39250311255455017
0.64010536670684814 0.41181200742721558 0.43190208077430725
0.83559167385101318 0.4687379002571106 0.48061910271644592
0.21016585826873779 0.55707567930221558 0.42847374081611633
0.27186399698257446 0.54439288377761841 0.42608988285064697
0.4023410975933075 0.53810399770736694 0.42416509985923767
0.60815846920013428 0.58999556303024292 0.42738592624664307
0.80351030826568604 0.66512346267700195 0.48540967702865601
0.28917744755744934 0.83454012870788574 0.50094717741012573
0.33196088671684265 0.82592642307281494 0.4947199821472168
0.43251481652259827 0.81246250867843628 0.48585349321365356
0.59487998485565186 0.84548979997634888 0.4990743100643158
0.76249426603317261 0.89203000068664551 0.53005093336105347
0 0.21951276063919067 0.41132405400276184
0 0.22345691919326782 0.4323488175868988
0.28775930404663086 0.23813392221927643 0.48417750000953674
0.58293998241424561 0.24895375967025757 0.53583520650863647
0.81780159473419189 0.23522567749023438 0.55967223644256592
0 0.28526106476783752 0.46318936347961426
5.8593966969056055e-05 0.28102540969848633 0.4880368709564209
0.37127196788787842 0.29664215445518494 0.53172594308853149
0.62745624780654907 0.3151283860206604 0.56838440895080566
0.826954185962677 0.29428538680076599 0.56585675477981567
0.0090948585420846939 0.43103122711181641 0.54590535163879395
0.21014072000980377 0.43700295686721802 0.55775302648544312
0.46150475740432739 0.44763675332069397 0.58659279346466064
0.65971344709396362 0.45096182823181152 0.58788961172103882
0.82836639881134033 0.47789368033409119 0.59748131036758423
0.1972888708114624 0.66021502017974854 0.57314926385879517
0.30168947577476501 0.65670853853225708 0.57954037189483643
0.45595934987068176 0.63003939390182495 0.57912158966064453
0.63536202907562256 0.65532612800598145 0.57705676555633545
0.80332958698272705 0.72967493534088135 0.64910811185836792
0.33184114098548889 0.88021558523178101 0.63310521841049194
0.36420676112174988 0.87245559692382812 0.62438660860061646
0.45174029469490051 0.85824906826019287 0.60899269580841064
0.58940619230270386 0.86170387268066406 0.60167998075485229
0.75880169868469238 0.9040868878364563 0.62891983985900879
0 0.26718822121620178 0.65593838691711426
0 0.26019966602325439 0.67685186862945557
0.322774738073349 0.27401581406593323 0.71883797645568848
0.66675674915313721 0.32116907835006714 0.76177853345870972
0.83449006080627441 0.43507173657417297 0.7819792628288269
0 0.34883636236190796 0.69818824529647827
0 0.33373618125915527 0.71074372529983521
0.38923871517181396 0.34594038128852844 0.74369192123413086
0.68896454572677612 0.42276841402053833 0.77989012002944946
0.829243004322052 0.53158336877822876 0.79524785280227661
0 0.49971571564674377 0.70640969276428223
0.17391666769981384 0.50443512201309204 0.71826845407485962
0.45734062790870667 0.51259469985961914 0.75740981101989746
0.68995976448059082 0.61105996370315552 0.7933691143989563
0.80627834796905518 0.69143706560134888 0.81078797578811646
0.24231307208538055 0.73688095808029175 0.76252055168151855
0.33388563990592957 0.73860651254653931 0.7658076286315918
0.50058114528656006 0.75173664093017578 0.77901053428649902
0.67109030485153198 0.78417640924453735 0.80326968431472778
0.79159009456634521 0.78563350439071655 0.79694080352783203
0.42270207405090332 0.93760061264038086 0.78801918029785156
0.44819769263267517 0.93499881029129028 0.78659653663635254
0.51977401971817017 0.9310184121131897 0.78650748729705811
0.6169700026512146 0.91101866960525513 0.77456992864608765
0.75742125511169434 0.9273180365562439 0.77344650030136108
0 0.38018503785133362 0.88831841945648193
0 0.36348769068717957 0.89048194885253906
0.4104275107383728 0.39764305949211121 0.89678686857223511
0.7128835916519165 0.54172587394714355 0.90228128433227539
0.83834868669509888 0.69050776958465576 0.90058189630508423
3.9825565181672573e-05 0.47044891119003296 0.88924133777618408
0.07645861804485321 0.45741206407546997 0.89154547452926636
0.46067517995834351 0.48057812452316284 0.89706873893737793
0.71531683206558228 0.62174195051193237 0.90033161640167236
0.8287084698677063 0.74658495187759399 0.89917027950286865
0.25746068358421326 0.65329670906066895 0.87609559297561646
0.35157573223114014 0.64997482299804688 0.87887179851531982
0.50994610786437988 0.64800161123275757 0.88854473829269409
0.70395690202713013 0.74598866701126099 0.89434778690338135
0.81055039167404175 0.83712995052337646 0.89618504047393799
0.25315162539482117 0.82288539409637451 0.86695235967636108
0.32261011004447937 0.81983965635299683 0.86685210466384888
0.47457411885261536 0.82020992040634155 0.86891144514083862
0.67437744140625 0.85298550128936768 0.88617509603500366
0.80135613679885864 0.92426884174346924 0.89575743675231934
0.52173757553100586 0.96913468837738037 0.88051629066467285
0.54302132129669189 0.96795457601547241 0.8807252049446106
0.60975521802902222 0.96830064058303833 0.8836444616317749
0.70710498094558716 0.97045981884002686 0.88945430517196655
0.81316769123077393 0.97545993328094482 0.8985787034034729
