LUTs/Polaroid 669 1 --.cube
# Created by: G'MIC (https://gmic.eu)
TITLE "Polaroid 669 1 --"
# LUT size
LUT_3D_SIZE 32
# Data domain
DOMAIN_MIN 0.0 0.0 0.0
DOMAIN_MAX 1.0 1.0 1.0
# LUT data points
0.0036817053332924843 0.013160031288862228 0.010146401822566986
0.011763028800487518 0.014920276589691639 0.011163145303726196
0.026189813390374184 0.018390001729130745 0.012934424914419651
0.045241117477416992 0.022726902738213539 0.01438507717102766
0.064817331731319427 0.028346333652734756 0.015735095366835594
0.085975192487239838 0.033922847360372543 0.01723727211356163
0.11083453148603439 0.038863632827997208 0.019302524626255035
0.13696157932281494 0.042112875729799271 0.020542554557323456
0.16739276051521301 0.045090846717357635 0.022256528958678246
0.19881999492645264 0.046776760369539261 0.02399272657930851
0.23420064151287079 0.046948246657848358 0.026041071861982346
0.27187046408653259 0.045754343271255493 0.027951039373874664
0.30662262439727783 0.043118130415678024 0.02981787733733654
0.34594139456748962 0.038915872573852539 0.032386664301156998
0.38214570283889771 0.033219501376152039 0.034793790429830551
0.42172554135322571 0.026248004287481308 0.037528485059738159
0.45987674593925476 0.019362205639481544 0.040411707013845444
0.5000348687171936 0.011325609870254993 0.043460581451654434
0.54121333360671997 0.0052921613678336143 0.046575181186199188
0.58486670255661011 0.0017875100020319223 0.049991533160209656
0.62151777744293213 0.00073711381992325187 0.053113561123609543
0.6590152382850647 0.0005174317630007863 0.055990707129240036
0.69454950094223022 0.0010678309481590986 0.058992605656385422
0.72703373432159424 0.0033315240871161222 0.061487890779972076
0.76212579011917114 0.012464007362723351 0.064723730087280273
0.79422456026077271 0.02957666851580143 0.068235039710998535
0.82739907503128052 0.054017618298530579 0.071853652596473694
0.85830068588256836 0.078027918934822083 0.075897559523582458
0.88899821043014526 0.10246974229812622 0.080803558230400085
0.91860193014144897 0.12628556787967682 0.086745142936706543
0.94775986671447754 0.15057156980037689 0.093060605227947235
0.97498130798339844 0.17501454055309296 0.10148466378450394
0.0024078774731606245 0.028528127819299698 0.012372100725769997
0.011097436770796776 0.030638588592410088 0.012634651735424995
0.025739630684256554 0.034267719835042953 0.013759133405983448
0.043505575507879257 0.039062842726707458 0.015538605861365795
0.063528910279273987 0.044085744768381119 0.017092419788241386
0.085152000188827515 0.048416204750537872 0.018210338428616524
0.11067824810743332 0.05238095298409462 0.019893411546945572
0.13781525194644928 0.055464912205934525 0.021269557997584343
0.16938333213329315 0.058065705001354218 0.023242022842168808
0.20098823308944702 0.059282299131155014 0.024692371487617493
0.23656882345676422 0.059868704527616501 0.026411149650812149
0.27448076009750366 0.058888770639896393 0.028545133769512177
0.30902677774429321 0.056752439588308334 0.030572505667805672
0.34799498319625854 0.053509365767240524 0.033122796565294266
0.38363763689994812 0.049121733754873276 0.035412266850471497
0.42265677452087402 0.043376639485359192 0.038377344608306885
0.46053728461265564 0.037006635218858719 0.04116552323102951
0.50144106149673462 0.030007066205143929 0.044282428920269012
0.54239934682846069 0.022809278219938278 0.047245990484952927
0.58574962615966797 0.01683366484940052 0.050478797405958176
0.62257558107376099 0.013708094134926796 0.05387641116976738
0.65939873456954956 0.013115726411342621 0.056498687714338303
0.69491285085678101 0.016405213624238968 0.059308130294084549
0.72790694236755371 0.02373083122074604 0.062152575701475143
0.76262098550796509 0.036979470402002335 0.065230607986450195
0.79467165470123291 0.05345473438501358 0.068308480083942413
0.82746487855911255 0.073446474969387054 0.072023473680019379
0.85831338167190552 0.093910567462444305 0.076339513063430786
0.88861525058746338 0.11531931906938553 0.081030592322349548
0.91783434152603149 0.13698031008243561 0.086538404226303101
0.94696152210235596 0.1595330536365509 0.093117840588092804
0.97414112091064453 0.18268808722496033 0.10133198648691177
0.0015371211338788271 0.053269661962985992 0.015490866266191006
0.009001951664686203 0.055110156536102295 0.015684351325035095
0.023683566600084305 0.058157656341791153 0.014646013267338276
0.042722661048173904 0.060925424098968506 0.014900547452270985
0.064057737588882446 0.064207136631011963 0.016840234398841858
0.087296977639198303 0.067938424646854401 0.019171103835105896
0.11444687098264694 0.071368984878063202 0.021103262901306152
0.14229194819927216 0.07363293319940567 0.022555219009518623
0.17408037185668945 0.075269706547260284 0.024071399122476578
0.20575331151485443 0.076603308320045471 0.025869786739349365
0.24144420027732849 0.076868712902069092 0.027699751779437065
0.27874988317489624 0.07607472687959671 0.029510390013456345
0.31362873315811157 0.074770301580429077 0.031954970210790634
0.35236409306526184 0.072549708187580109 0.034643411636352539
0.38769447803497314 0.069764420390129089 0.036918755620718002
0.42681077122688293 0.065731152892112732 0.039756432175636292
0.46493786573410034 0.06144825741648674 0.042655281722545624
0.50729060173034668 0.05668848380446434 0.045785814523696899
0.54808503389358521 0.052223775535821915 0.048826225101947784
0.59038311243057251 0.048284247517585754 0.052062802016735077
0.62599968910217285 0.046323999762535095 0.054637297987937927
0.66305243968963623 0.047123119235038757 0.057358454912900925
0.69867974519729614 0.051271926611661911 0.060561921447515488
0.73121631145477295 0.058365821838378906 0.063250631093978882
0.76570004224777222 0.069467298686504364 0.066217087209224701
0.79739570617675781 0.082440800964832306 0.06913217157125473
0.8300359845161438 0.098412670195102692 0.072922050952911377
0.86014443635940552 0.11539752781391144 0.077198490500450134
0.89029467105865479 0.13395662605762482 0.081682853400707245
0.91916841268539429 0.15356387197971344 0.087525002658367157
0.94805431365966797 0.17435741424560547 0.094063378870487213
0.97508633136749268 0.19628503918647766 0.10266366600990295
0.00024427796597592533 0.080127649009227753 0.018484130501747131
0.0038233918603509665 0.081259004771709442 0.018771376460790634
0.016276091337203979 0.083516038954257965 0.017517443746328354
0.037557739764451981 0.086730979382991791 0.015789004042744637
0.064046911895275116 0.088379733264446259 0.015266179107129574
0.089822821319103241 0.090362146496772766 0.017772180959582329
0.11805684119462967 0.093016356229782104 0.021168505772948265
0.14727778732776642 0.095184847712516785 0.023567842319607735
0.17980168759822845 0.096617624163627625 0.025483833625912666
0.21183095872402191 0.097359217703342438 0.02728128619492054
0.24816930294036865 0.097718372941017151 0.029246365651488304
0.28559032082557678 0.097233198583126068 0.031319174915552139
0.32047262787818909 0.096394315361976624 0.033648531883955002
0.35933390259742737 0.095015488564968109 0.036273621022701263
0.39492318034172058 0.09324260801076889 0.038764379918575287
0.43405431509017944 0.090489976108074188 0.041605275124311447
0.4732879102230072 0.087865270674228668 0.044638503342866898
0.51780867576599121 0.085644982755184174 0.047922719269990921
0.5576367974281311 0.083442375063896179 0.050560899078845978
0.5988425612449646 0.081935971975326538 0.05365452915430069
0.63378691673278809 0.08207973837852478 0.056433778256177902
0.66985118389129639 0.083572067320346832 0.0592464879155159
0.70442497730255127 0.08733675628900528 0.062073331326246262
0.73665726184844971 0.093308001756668091 0.064756914973258972
0.77091741561889648 0.10266727954149246 0.067783370614051819
0.80216163396835327 0.11332990974187851 0.070577576756477356
0.83470237255096436 0.12710724771022797 0.074475042521953583
0.86476963758468628 0.14186523854732513 0.078922629356384277
0.89475172758102417 0.15859636664390564 0.084010258316993713
0.9234769344329834 0.17620371282100677 0.089475102722644806
0.95219266414642334 0.19544589519500732 0.09630497545003891
0.97932678461074829 0.21642500162124634 0.1053512766957283
2.1987983700455516e-07 0.10514570027589798 0.020779795944690704
0.00023776941816322505 0.10579618811607361 0.021335233002901077
0.0062737478874623775 0.10746524482965469 0.020950967445969582
0.025846915319561958 0.11035589873790741 0.018857682123780251
0.056088961660861969 0.11365383863449097 0.016015402972698212
0.086812913417816162 0.11445570737123489 0.015249987132847309
0.11822368204593658 0.11555091291666031 0.018159698694944382
0.1492578536272049 0.11771666258573532 0.021659506484866142
0.1840301901102066 0.12032627314329147 0.025592390447854996
0.21805854141712189 0.12172261625528336 0.028914995491504669
0.25475558638572693 0.12236206978559494 0.031296338886022568
0.29199394583702087 0.12190405279397964 0.03331940621137619
0.32680860161781311 0.12148921191692352 0.03577466681599617
0.3654729425907135 0.1206275075674057 0.038279775530099869
0.40048351883888245 0.11933655291795731 0.040776785463094711
0.43958455324172974 0.11772988736629486 0.043667573481798172
0.4810757040977478 0.11667045950889587 0.046870872378349304
0.52480810880661011 0.11603514105081558 0.049861542880535126
0.56298565864562988 0.11534462869167328 0.052471961826086044
0.60342663526535034 0.11513296514749527 0.055401455610990524
0.63706439733505249 0.11553521454334259 0.057880863547325134
0.67244911193847656 0.11752708256244659 0.060715515166521072
0.70693778991699219 0.12123936414718628 0.063339963555335999
0.73893344402313232 0.12655402719974518 0.065966859459877014
0.77245569229125977 0.13424687087535858 0.068695820868015289
0.80355674028396606 0.14337828755378723 0.071710214018821716
0.83541309833526611 0.15483342111110687 0.075483210384845734
0.86515545845031738 0.16754317283630371 0.079623468220233917
0.8944275975227356 0.18201901018619537 0.084422335028648376
0.92257839441299438 0.19734479486942291 0.090064749121665955
0.95124471187591553 0.21463850140571594 0.096762776374816895
0.97828799486160278 0.23405015468597412 0.10586313903331757
0 0.13362020254135132 0.023346034809947014
1.3546368791139685e-06 0.13381524384021759 0.023917248472571373
0.00079759629443287849 0.13348624110221863 0.024025298655033112
0.013556540943682194 0.13563238084316254 0.022166401147842407
0.044940445572137833 0.13871492445468903 0.019391583278775215
0.081530272960662842 0.14160969853401184 0.016484159976243973
0.11789680272340775 0.14210231602191925 0.014959752559661865
0.15074647963047028 0.14225313067436218 0.017292119562625885
0.18624617159366608 0.14372158050537109 0.021835681051015854
0.22132065892219543 0.14571546018123627 0.026734838262200356
0.2601851224899292 0.14790573716163635 0.031629763543605804
0.29923796653747559 0.14870522916316986 0.035334832966327667
0.33436709642410278 0.14877432584762573 0.03804846853017807
0.3728160560131073 0.14800825715065002 0.040740054100751877
0.4088500440120697 0.14749769866466522 0.043284840881824493
0.45129609107971191 0.14761003851890564 0.04642915353178978
0.49350917339324951 0.14779916405677795 0.049526695162057877
0.53547525405883789 0.14771606028079987 0.052427828311920166
0.57246220111846924 0.14746266603469849 0.054873812943696976
0.61133790016174316 0.14809927344322205 0.057444099336862564
0.64452570676803589 0.1490895003080368 0.059932414442300797
0.67926746606826782 0.15101855993270874 0.062677301466464996
0.71293127536773682 0.15449041128158569 0.065263561904430389
0.7444615364074707 0.15956753492355347 0.067762449383735657
0.77747237682342529 0.16647136211395264 0.070534393191337585
0.80825322866439819 0.17490459978580475 0.073640167713165283
0.83938765525817871 0.1849062591791153 0.077312037348747253
0.86847299337387085 0.19628998637199402 0.081229127943515778
0.89787107706069946 0.20918920636177063 0.086396686732769012
0.925609290599823 0.22326263785362244 0.092048868536949158
0.95391237735748291 0.23929664492607117 0.099053740501403809
0.98071449995040894 0.25730493664741516 0.10854341089725494
0 0.16176967322826385 0.025656657293438911
0 0.1619432121515274 0.026272138580679893
3.5952411963080522e-06 0.16075484454631805 0.026958921924233437
0.0040696100331842899 0.16152413189411163 0.02592133916914463
0.03029949963092804 0.16410738229751587 0.023118630051612854
0.070395074784755707 0.16720391809940338 0.019831666722893715
0.11203322559595108 0.17040710151195526 0.015843888744711876
0.1483093649148941 0.17004713416099548 0.013508381322026253
0.18553425371646881 0.16954103112220764 0.015354996547102928
0.22128520905971527 0.17116512358188629 0.020381541922688484
0.26172530651092529 0.17383153736591339 0.026855779811739922
0.30390021204948425 0.17705404758453369 0.033983577042818069
0.34219267964363098 0.17935387790203094 0.039769977331161499
0.38387235999107361 0.1804119199514389 0.043884787708520889
0.42360702157020569 0.18159212172031403 0.046805616468191147
0.46645814180374146 0.18227189779281616 0.050024136900901794
0.50668364763259888 0.18236583471298218 0.052474357187747955
0.54690587520599365 0.18247868120670319 0.055171772837638855
0.58251297473907471 0.18282473087310791 0.057685494422912598
0.61961323022842407 0.18348777294158936 0.059849824756383896
0.65166366100311279 0.18454867601394653 0.062266681343317032
0.68543112277984619 0.18635158240795135 0.06484609842300415
0.71870064735412598 0.1898774653673172 0.06726565957069397
0.74989807605743408 0.19441890716552734 0.069433286786079407
0.78227931261062622 0.200914666056633 0.072265379130840302
0.81207150220870972 0.20825722813606262 0.075425080955028534
0.84285050630569458 0.21715766191482544 0.079062171280384064
0.8714677095413208 0.22750657796859741 0.083272732794284821
0.90041542053222656 0.23935386538505554 0.088445179164409637
0.92812007665634155 0.25200891494750977 0.094278328120708466
0.95603811740875244 0.26646250486373901 0.10150741040706635
0.98298758268356323 0.28387647867202759 0.11148793250322342
0 0.1878000944852829 0.028196357190608978
0 0.18814624845981598 0.028967643156647682
0 0.18651491403579712 0.029703836888074875
0.00068931869463995099 0.18603755533695221 0.029632650315761566
0.01642814464867115 0.18797512352466583 0.027184076607227325
0.057973049581050873 0.19094663858413696 0.023755587637424469
0.1023753434419632 0.19433985650539398 0.019462719559669495
0.14281080663204193 0.1975657045841217 0.014766008593142033
0.18284516036510468 0.19687804579734802 0.01132010854780674
0.21934314072132111 0.19627575576305389 0.012746339663863182
0.26047194004058838 0.19837437570095062 0.018681952729821205
0.30376091599464417 0.20191000401973724 0.026062712073326111
0.34598216414451599 0.20643790066242218 0.033948313444852829
0.39422827959060669 0.21204276382923126 0.042847834527492523
0.43606773018836975 0.21534895896911621 0.04886879026889801
0.47830376029014587 0.21644103527069092 0.052884139120578766
0.5171160101890564 0.21657386422157288 0.055451508611440659
0.55582636594772339 0.21668913960456848 0.058140631765127182
0.58995652198791504 0.21681742370128632 0.060163907706737518
0.62593907117843628 0.21755611896514893 0.06233489140868187
0.65704786777496338 0.21860188245773315 0.064426600933074951
0.69024890661239624 0.2204134613275528 0.067230239510536194
0.72292345762252808 0.22348426282405853 0.069308899343013763
0.75360792875289917 0.22770823538303375 0.071346461772918701
0.78540903329849243 0.23345500230789185 0.074289791285991669
0.81469583511352539 0.24005430936813354 0.077214650809764862
0.8450857400894165 0.24834629893302917 0.081083953380584717
0.8728601336479187 0.25740796327590942 0.085150681436061859
0.90118765830993652 0.26788732409477234 0.090147733688354492
0.92822229862213135 0.2791215181350708 0.095992431044578552
0.95564097166061401 0.29179298877716064 0.10314378887414932
0.98188161849975586 0.3074134886264801 0.11262669414281845
0 0.21809442341327667 0.031285490840673447
0 0.21895124018192291 0.032110240310430527
0 0.21697017550468445 0.032719548791646957
6.9633183557016309e-06 0.21528066694736481 0.033403974026441574
0.006235211156308651 0.21560467779636383 0.03218996524810791
0.045875068753957748 0.21802380681037903 0.028434300795197487
0.093537934124469757 0.22111538052558899 0.023979282006621361
0.1349116712808609 0.22440749406814575 0.01887565478682518
0.17894543707370758 0.22791798412799835 0.01257250364869833
0.21841540932655334 0.22810427844524384 0.0083876950666308403
0.2605089545249939 0.22746084630489349 0.0088242348283529282
0.30524778366088867 0.23089323937892914 0.015213431790471077
0.3474852442741394 0.23507486283779144 0.022864334285259247
0.3952769935131073 0.2406514585018158 0.032555308192968369
0.43990242481231689 0.2465645968914032 0.042436353862285614
0.48786187171936035 0.25246444344520569 0.052906375378370285
0.52964043617248535 0.25511926412582397 0.058802846819162369
0.56793153285980225 0.2556590735912323 0.061613366007804871
0.60097891092300415 0.25573530793190002 0.063392169773578644
0.63612926006317139 0.25632277131080627 0.06564253568649292
0.66671103239059448 0.25751587748527527 0.067849546670913696
0.69902688264846802 0.25894325971603394 0.070011317729949951
0.73099809885025024 0.26171821355819702 0.072015486657619476
0.76057606935501099 0.26530095934867859 0.073990412056446075
0.7918822169303894 0.2707953155040741 0.076961115002632141
0.82061600685119629 0.27680510282516479 0.079857990145683289
0.85012149810791016 0.28426080942153931 0.083613649010658264
0.87746310234069824 0.29240545630455017 0.088063783943653107
0.90553271770477295 0.30203363299369812 0.09366144984960556
0.93264639377593994 0.31256479024887085 0.099985435605049133
0.95972508192062378 0.32433947920799255 0.10755236446857452
0.98567384481430054 0.33978912234306335 0.11840670555830002
0 0.24342934787273407 0.033897172659635544
0 0.244670569896698 0.034799765795469284
0 0.24333852529525757 0.035460468381643295
0 0.24125334620475769 0.036393288522958755
0.0016912823775783181 0.24017485976219177 0.036253694444894791
0.033791325986385345 0.24239465594291687 0.033091139048337936
0.085906833410263062 0.24606958031654358 0.028606364503502846
0.12914179265499115 0.25035056471824646 0.023364514112472534
0.17480318248271942 0.25553047657012939 0.016539739444851875
0.21833832561969757 0.25980433821678162 0.009431508369743824
0.26203104853630066 0.26039332151412964 0.0047687157057225704
0.3045915961265564 0.25913935899734497 0.0050207334570586681
0.34594941139221191 0.26151317358016968 0.009809114970266819
0.39242833852767944 0.26671710610389709 0.018782341852784157
0.43566948175430298 0.27170813083648682 0.028574531897902489
0.48342376947402954 0.27795526385307312 0.040593266487121582
0.52915167808532715 0.28432273864746094 0.052084159106016159
0.57334613800048828 0.28974217176437378 0.061301063746213913
0.60824257135391235 0.29168933629989624 0.065984390676021576
0.64236348867416382 0.29238280653953552 0.068460047245025635
0.67196041345596313 0.29283493757247925 0.070241495966911316
0.70384669303894043 0.29418057203292847 0.072428084909915924
0.73575794696807861 0.29672005772590637 0.074448846280574799
0.76472926139831543 0.30004248023033142 0.076191239058971405
0.79518020153045654 0.30479580163955688 0.079259879887104034
0.82318663597106934 0.31005525588989258 0.082096084952354431
0.85217726230621338 0.31690013408660889 0.086199738085269928
0.87923604249954224 0.32427707314491272 0.090504936873912811
0.90651649236679077 0.33275920152664185 0.095991350710391998
0.93285501003265381 0.34221521019935608 0.10230099409818649
0.9596259593963623 0.35261586308479309 0.11000576615333557
0.98550856113433838 0.36706522107124329 0.12116498500108719
0 0.27483630180358887 0.037318084388971329
0 0.27635282278060913 0.038099505007266998
0 0.27502292394638062 0.038549736142158508
0 0.27358135581016541 0.039827916771173477
0.00047656387323513627 0.27184826135635376 0.040781248360872269
0.025855191051959991 0.27287814021110535 0.03884589672088623
0.081198409199714661 0.27667027711868286 0.034309335052967072
0.12585435807704926 0.28021347522735596 0.028766825795173645
0.17040108144283295 0.28452366590499878 0.022098170593380928
0.21273702383041382 0.28831508755683899 0.014153303578495979
0.25913473963737488 0.29259756207466125 0.0059142946265637875
0.30244302749633789 0.29242148995399475 0.0015651558060199022
0.3399718701839447 0.28977301716804504 0.0010103170061483979
0.38474240899085999 0.29213088750839233 0.0042868847958743572
0.42677852511405945 0.29652893543243408 0.010859297588467598
0.47351771593093872 0.30241146683692932 0.021448565647006035
0.51930242776870728 0.30896717309951782 0.033951073884963989
0.56613385677337646 0.31683638691902161 0.047759145498275757
0.60723233222961426 0.32451456785202026 0.059712108224630356
0.64789199829101562 0.33076733350753784 0.069536387920379639
0.67858022451400757 0.33246541023254395 0.073531612753868103
0.71019387245178223 0.33349788188934326 0.075381219387054443
0.74100452661514282 0.33563670516014099 0.077345691621303558
0.76945704221725464 0.33855211734771729 0.079320646822452545
0.79882019758224487 0.34241122007369995 0.082021676003932953
0.82637691497802734 0.34717240929603577 0.085100635886192322
0.85474729537963867 0.35328596830368042 0.089238651096820831
0.88120907545089722 0.35955667495727539 0.093758806586265564
0.90781432390213013 0.36694157123565674 0.099176764488220215
0.9335750937461853 0.37507742643356323 0.10548322647809982
0.95971071720123291 0.38405844569206238 0.11339401453733444
0.98436945676803589 0.39660832285881042 0.12423588335514069
0 0.30675303936004639 0.040595762431621552
0 0.30975815653800964 0.04173525795340538
0 0.30843117833137512 0.042349565774202347
0 0.30632072687149048 0.043009433895349503
4.1547533328412101e-05 0.30381518602371216 0.04410533607006073
0.019524980336427689 0.30219393968582153 0.044160906225442886
0.074824757874011993 0.30379536747932434 0.039868351072072983
0.12035477161407471 0.30692362785339355 0.0343032106757164
0.1644747406244278 0.31064850091934204 0.027407286688685417
0.2052154541015625 0.31414800882339478 0.019638510420918465
0.24978289008140564 0.31815385818481445 0.010020304471254349
0.29604935646057129 0.32221943140029907 0.0026146089658141136
0.3354952335357666 0.3227197527885437 0.00024765208945609629
0.37518784403800964 0.31888884305953979 0.0001445308153051883
0.41544428467750549 0.32022404670715332 0.0010052683064714074
0.46211382746696472 0.32616707682609558 0.0044728121720254421
0.50724363327026367 0.3325992226600647 0.012285458855330944
0.55400699377059937 0.34034746885299683 0.024511540308594704
0.59596836566925049 0.34840890765190125 0.038513746112585068
0.6405603289604187 0.35825303196907043 0.054514322429895401
0.67865502834320068 0.36687210202217102 0.067509576678276062
0.71649879217147827 0.37373119592666626 0.077154077589511871
0.7479514479637146 0.376789391040802 0.080970622599124908
0.77579087018966675 0.37931773066520691 0.083374001085758209
0.80483144521713257 0.38281694054603577 0.086344696581363678
0.83140313625335693 0.38675397634506226 0.089533098042011261
0.859089195728302 0.39176759123802185 0.093596711754798889
0.8847651481628418 0.39728391170501709 0.098495781421661377
0.91110014915466309 0.40395990014076233 0.10463203489780426
0.93656963109970093 0.41136568784713745 0.111517533659935
0.96262228488922119 0.41978153586387634 0.12018046528100967
0.98691844940185547 0.43218114972114563 0.132311150431633
0 0.33364370465278625 0.042877204716205597
0 0.33700832724571228 0.0442347452044487
0 0.33566194772720337 0.04470275342464447
0 0.33348241448402405 0.045472148805856705
5.1256290589662967e-07 0.33092424273490906 0.046540264040231705
0.015365912578999996 0.32774084806442261 0.047383863478899002
0.069526880979537964 0.3279038667678833 0.044936612248420715
0.11631274968385696 0.3306940495967865 0.039421424269676208
0.16038639843463898 0.33416318893432617 0.032513163983821869
0.20010875165462494 0.33731392025947571 0.024519646540284157
0.24371345341205597 0.34167143702507019 0.014907222241163254
0.28821104764938354 0.3456718921661377 0.0052030882798135281
