LUTs/Polaroid 690 5 ++.cube
# Created by: G'MIC (https://gmic.eu)
TITLE "Polaroid 690 5 ++"
# LUT size
LUT_3D_SIZE 32
# Data domain
DOMAIN_MIN 0.0 0.0 0.0
DOMAIN_MAX 1.0 1.0 1.0
# LUT data points
0.32334145903587341 0.26947808265686035 0.22767774760723114
0.32508879899978638 0.26949766278266907 0.22778305411338806
0.32789766788482666 0.26951378583908081 0.22793206572532654
0.33111244440078735 0.26898521184921265 0.22798097133636475
0.33577165007591248 0.26896560192108154 0.22805978357791901
0.34116047620773315 0.2689422070980072 0.22830428183078766
0.34860873222351074 0.26890057325363159 0.228456050157547
0.35706239938735962 0.26821026206016541 0.22847086191177368
0.36774724721908569 0.26760634779930115 0.22832663357257843
0.38042071461677551 0.26690328121185303 0.22856265306472778
0.39656344056129456 0.26587370038032532 0.22871814668178558
0.41537755727767944 0.26453450322151184 0.22846786677837372
0.4347439706325531 0.26290956139564514 0.22828510403633118
0.45903801918029785 0.2607942521572113 0.2283836156129837
0.48273754119873047 0.25804772973060608 0.2280258983373642
0.51017451286315918 0.25513488054275513 0.22786800563335419
0.53828710317611694 0.251700758934021 0.22741538286209106
0.56884169578552246 0.24752911925315857 0.22697360813617706
0.59976017475128174 0.24286633729934692 0.22663825750350952
0.63399988412857056 0.23704801499843597 0.22582226991653442
0.66429191827774048 0.23152846097946167 0.22534485161304474
0.69722509384155273 0.2249799519777298 0.22461433708667755
0.72994023561477661 0.21843674778938293 0.22389425337314606
0.76084917783737183 0.21117489039897919 0.22272214293479919
0.79485440254211426 0.20305687189102173 0.22163639962673187
0.82747381925582886 0.19485944509506226 0.22050060331821442
0.86172008514404297 0.18563045561313629 0.2190450131893158
0.89381420612335205 0.17670571804046631 0.21756932139396667
0.92615967988967896 0.16764658689498901 0.21557228267192841
0.95756286382675171 0.15949280560016632 0.21396529674530029
0.98833203315734863 0.15147730708122253 0.21200080215930939
0.99972432851791382 0.14551554620265961 0.21011902391910553
0.324045330286026 0.27122312784194946 0.22800673544406891
0.32557260990142822 0.27132445573806763 0.22803550958633423
0.32834342122077942 0.27133014798164368 0.22810208797454834
0.33165919780731201 0.27117651700973511 0.2282772958278656
0.33638030290603638 0.27137041091918945 0.22834719717502594
0.34177723526954651 0.27096948027610779 0.22832591831684113
0.34928339719772339 0.2708638608455658 0.22846408188343048
0.35813727974891663 0.27021241188049316 0.22863005101680756
0.36953604221343994 0.26981079578399658 0.22856332361698151
0.38244029879570007 0.26912924647331238 0.22863456606864929
0.39880293607711792 0.26787164807319641 0.22855301201343536
0.41814428567886353 0.26687872409820557 0.22852009534835815
0.43835687637329102 0.26513984799385071 0.22834224998950958
0.46244710683822632 0.26321226358413696 0.22789287567138672
0.48601546883583069 0.26081767678260803 0.22775520384311676
0.51388227939605713 0.25785171985626221 0.22767442464828491
0.54203057289123535 0.25452274084091187 0.2271636426448822
0.57306158542633057 0.2502606213092804 0.22669178247451782
0.60444122552871704 0.24574092030525208 0.22603818774223328
0.63853055238723755 0.24012988805770874 0.22544184327125549
0.66914373636245728 0.23487991094589233 0.22536115348339081
0.70217907428741455 0.22856752574443817 0.22428227961063385
0.73476475477218628 0.22195151448249817 0.22326970100402832
0.76597094535827637 0.21525116264820099 0.22238458693027496
0.80013728141784668 0.20754148066043854 0.22157132625579834
0.83230698108673096 0.19931639730930328 0.22000585496425629
0.86638212203979492 0.19091838598251343 0.2184736579656601
0.89828044176101685 0.18287071585655212 0.21736195683479309
0.93020153045654297 0.1745116263628006 0.21531696617603302
0.96120798587799072 0.16668421030044556 0.21353253722190857
0.99097216129302979 0.15964823961257935 0.21147102117538452
0.99994784593582153 0.15467348694801331 0.20950399339199066
0.32436522841453552 0.27398645877838135 0.22850148379802704
0.32608652114868164 0.27412253618240356 0.22824679315090179
0.32878223061561584 0.27419811487197876 0.22828902304172516
0.3325340747833252 0.27424103021621704 0.22824245691299438
0.33714139461517334 0.27413490414619446 0.22817224264144897
0.34320381283760071 0.2742113471031189 0.22859747707843781
0.35134822130203247 0.27419775724411011 0.22881188988685608
0.36038273572921753 0.27365756034851074 0.22859083116054535
0.37212806940078735 0.27322399616241455 0.22846314311027527
0.38561588525772095 0.27291044592857361 0.228525310754776
0.40264073014259338 0.27182835340499878 0.22857008874416351
0.4221947193145752 0.27045395970344543 0.22813831269741058
0.44275867938995361 0.26915547251701355 0.22802037000656128
0.46747037768363953 0.26734259724617004 0.22814261913299561
0.49162536859512329 0.26510509848594666 0.22774912416934967
0.51937055587768555 0.26243889331817627 0.22754037380218506
0.54806673526763916 0.25918662548065186 0.22707550227642059
0.5800665020942688 0.25488436222076416 0.22631631791591644
0.61126059293746948 0.2506563663482666 0.22602120041847229
0.64513075351715088 0.24562825262546539 0.22541910409927368
0.67522799968719482 0.24025583267211914 0.22458367049694061
0.70809012651443481 0.2343088835477829 0.22364798188209534
0.74099564552307129 0.22806400060653687 0.22286592423915863
0.77212804555892944 0.22154498100280762 0.22198277711868286
0.80598920583724976 0.21425077319145203 0.22061832249164581
0.83849382400512695 0.20681574940681458 0.21924124658107758
0.87220877408981323 0.19900527596473694 0.21768993139266968
0.90365517139434814 0.19163356721401215 0.21609519422054291
0.93555033206939697 0.1841602623462677 0.21419557929039001
0.96647632122039795 0.17757239937782288 0.21261696517467499
0.99383419752120972 0.17154078185558319 0.21058537065982819
0.99998980760574341 0.16811332106590271 0.20862440764904022
0.32528230547904968 0.27753517031669617 0.2287432998418808
0.32710984349250793 0.27779832482337952 0.22860483825206757
0.3295910656452179 0.27809399366378784 0.22851644456386566
0.33342203497886658 0.27826368808746338 0.2283354252576828
0.33864405751228333 0.27848228812217712 0.22814129292964935
0.34517627954483032 0.27873489260673523 0.22838951647281647
0.35364422202110291 0.27899441123008728 0.22878490388393402
0.3634752631187439 0.2787228524684906 0.22867332398891449
0.37581494450569153 0.27838492393493652 0.22851729393005371
0.39011085033416748 0.27804756164550781 0.22850412130355835
0.40786048769950867 0.27741825580596924 0.22841459512710571
0.42844969034194946 0.2761395275592804 0.22801998257637024
0.44935563206672668 0.27523627877235413 0.22792670130729675
0.47434589266777039 0.27338448166847229 0.22765642404556274
0.49881637096405029 0.27117961645126343 0.22733418643474579
0.52726054191589355 0.26860031485557556 0.2268495112657547
0.55655145645141602 0.26545411348342896 0.22657644748687744
0.58976203203201294 0.26166492700576782 0.22604548931121826
0.62044394016265869 0.25752192735671997 0.22514685988426208
0.65382868051528931 0.25279930233955383 0.22452254593372345
0.68394666910171509 0.24815426766872406 0.22396852076053619
0.71593630313873291 0.24243895709514618 0.2229371964931488
0.74802565574645996 0.23646301031112671 0.2221066802740097
0.77863591909408569 0.23079906404018402 0.22098343074321747
0.81226694583892822 0.22412414848804474 0.21992580592632294
0.84375298023223877 0.21764285862445831 0.21839740872383118
0.87684899568557739 0.21091718971729279 0.21681547164916992
0.90751224756240845 0.20440661907196045 0.21531111001968384
0.93855518102645874 0.19799187779426575 0.21349957585334778
0.96823000907897949 0.19236074388027191 0.21148832142353058
0.99483764171600342 0.18785279989242554 0.20944739878177643
1 0.1847584992647171 0.2074892669916153
0.32641488313674927 0.28223782777786255 0.2289627343416214
0.32790553569793701 0.28264963626861572 0.2287973165512085
0.33066970109939575 0.28294894099235535 0.22891589999198914
0.33453106880187988 0.28344130516052246 0.2288871556520462
0.33966374397277832 0.28390634059906006 0.22833353281021118
0.34641581773757935 0.28447294235229492 0.22822320461273193
0.35583207011222839 0.28501304984092712 0.22844266891479492
0.3663623034954071 0.28526788949966431 0.22832211852073669
0.38002634048461914 0.28569886088371277 0.22828282415866852
0.39581730961799622 0.28584060072898865 0.22846758365631104
0.41487303376197815 0.28557300567626953 0.2282889187335968
0.43619838356971741 0.28436145186424255 0.22768093645572662
0.45772412419319153 0.28360199928283691 0.22753340005874634
0.4836292564868927 0.28204476833343506 0.22728484869003296
0.50843507051467896 0.28013652563095093 0.22708621621131897
0.53750801086425781 0.2775711715221405 0.22656206786632538
0.56833994388580322 0.27454575896263123 0.22587786614894867
0.60176742076873779 0.27110439538955688 0.22511389851570129
0.63195347785949707 0.26725292205810547 0.22434051334857941
0.66534543037414551 0.2631719708442688 0.22362244129180908
0.694691002368927 0.25866445899009705 0.22288514673709869
0.72669202089309692 0.25380352139472961 0.22223705053329468
0.75865042209625244 0.24816201627254486 0.22101813554763794
0.78922510147094727 0.24301090836524963 0.21991094946861267
0.82232654094696045 0.23728032410144806 0.21864590048789978
0.85361635684967041 0.23144093155860901 0.21713458001613617
0.88568967580795288 0.22552596032619476 0.21543744206428528
0.91590768098831177 0.22048591077327728 0.21414273977279663
0.94586026668548584 0.21513590216636658 0.21197120845317841
0.97481060028076172 0.21080194413661957 0.21009331941604614
0.99746763706207275 0.20754548907279968 0.20806306600570679
1 0.20574232935905457 0.2061251699924469
0.32761949300765991 0.2895374596118927 0.22942641377449036
0.32941746711730957 0.28956496715545654 0.22924813628196716
0.33213052153587341 0.28963008522987366 0.22909876704216003
0.33593228459358215 0.29006871581077576 0.22885696589946747
0.34118080139160156 0.29068681597709656 0.22845828533172607
0.34828850626945496 0.29167315363883972 0.2281867116689682
0.35737195611000061 0.29235553741455078 0.22812056541442871
0.36906066536903381 0.29330682754516602 0.22778035700321198
0.38388404250144958 0.29427352547645569 0.22777383029460907
0.40043509006500244 0.294962078332901 0.22786223888397217
0.42127233743667603 0.29552105069160461 0.22774775326251984
0.44428551197052002 0.29533904790878296 0.2273574024438858
0.46685579419136047 0.29484257102012634 0.22718851268291473
0.4931199848651886 0.29332369565963745 0.2265889048576355
0.51898676156997681 0.2918667197227478 0.22621773183345795
0.5499764084815979 0.28944253921508789 0.22543993592262268
0.58160668611526489 0.28698787093162537 0.22491110861301422
0.61423510313034058 0.28374335169792175 0.22426638007164001
0.64430344104766846 0.28049084544181824 0.22337587177753448
0.67664098739624023 0.27638214826583862 0.22260028123855591
0.70577770471572876 0.27251312136650085 0.22168745100498199
0.73714673519134521 0.26808533072471619 0.22086960077285767
0.76871484518051147 0.26306581497192383 0.21970681846141815
0.79876577854156494 0.25862219929695129 0.21861052513122559
0.83124649524688721 0.25341030955314636 0.21720622479915619
0.86183303594589233 0.24876460433006287 0.21557158231735229
0.89319634437561035 0.24370904266834259 0.21391406655311584
0.92258226871490479 0.23955263197422028 0.21221111714839935
0.95216727256774902 0.23540236055850983 0.21040378510951996
0.98050606250762939 0.23181553184986115 0.20834697782993317
0.99866354465484619 0.2295021265745163 0.2063709944486618
0.99997460842132568 0.22883246839046478 0.2043347954750061
0.32873284816741943 0.29809892177581787 0.22915469110012054
0.33060279488563538 0.29839089512825012 0.22911092638969421
0.33374413847923279 0.29847514629364014 0.22924147546291351
0.3377508819103241 0.29887750744819641 0.22899208962917328
0.34307160973548889 0.29949039220809937 0.22860199213027954
0.3502693772315979 0.30087393522262573 0.22813814878463745
0.35982844233512878 0.30206072330474854 0.22777712345123291
0.37120366096496582 0.30315014719963074 0.22750546038150787
0.38655379414558411 0.30481153726577759 0.2270418256521225
0.4044806957244873 0.30634382367134094 0.22696232795715332
0.42678731679916382 0.30791676044464111 0.22662128508090973
0.45266669988632202 0.30940145254135132 0.22651992738246918
0.47805905342102051 0.31012755632400513 0.22637616097927094
0.50689101219177246 0.30950188636779785 0.22579464316368103
0.53545284271240234 0.30861473083496094 0.22525766491889954
0.56740188598632812 0.30671039223670959 0.2245381623506546
0.59832531213760376 0.30424919724464417 0.22359798848628998
0.63045334815979004 0.3015633225440979 0.22266513109207153
0.65971493721008301 0.29834026098251343 0.22193896770477295
0.69132715463638306 0.29437097907066345 0.22096934914588928
0.71978700160980225 0.29114255309104919 0.22007066011428833
0.7504734992980957 0.28665980696678162 0.21899285912513733
0.78145068883895874 0.28238794207572937 0.21761238574981689
0.81098723411560059 0.27850615978240967 0.21658861637115479
0.84250295162200928 0.27414360642433167 0.21503457427024841
0.87182700634002686 0.2704252302646637 0.21347755193710327
0.90187501907348633 0.26641857624053955 0.21175897121429443
0.93002641201019287 0.26318290829658508 0.20991487801074982
0.95855921506881714 0.260102778673172 0.20826804637908936
0.98532611131668091 0.25732505321502686 0.20603391528129578
0.9992973804473877 0.25570651888847351 0.20389933884143829
0.99999904632568359 0.2559722363948822 0.20215693116188049
0.3303171694278717 0.30908483266830444 0.22955276072025299
0.33238983154296875 0.30937027931213379 0.2293943464756012
0.33526095747947693 0.30920583009719849 0.22924010455608368
0.33961009979248047 0.30945953726768494 0.22909384965896606
0.34532082080841064 0.31029167771339417 0.22873584926128387
0.35248512029647827 0.31154125928878784 0.22812873125076294
0.36234906315803528 0.31331530213356018 0.22766363620758057
0.37427219748497009 0.31508809328079224 0.22696584463119507
0.38917544484138489 0.31678491830825806 0.22627100348472595
0.40739202499389648 0.31898653507232666 0.22553472220897675
0.43117600679397583 0.32193377614021301 0.2252097874879837
0.4583975076675415 0.32420843839645386 0.22465534508228302
0.48654821515083313 0.32676336169242859 0.22446838021278381
0.52083492279052734 0.32905182242393494 0.22418650984764099
0.55224066972732544 0.32955434918403625 0.2236572802066803
0.58490735292434692 0.32847648859024048 0.22291125357151031
0.61561954021453857 0.32603555917739868 0.22190099954605103
0.64766037464141846 0.32348188757896423 0.22094638645648956
0.67623156309127808 0.32045185565948486 0.22010974586009979
0.70756673812866211 0.31695890426635742 0.21907755732536316
0.73532724380493164 0.31356841325759888 0.21804311871528625
0.76573657989501953 0.30937874317169189 0.21711578965187073
0.79643535614013672 0.30575191974639893 0.21561934053897858
0.82538795471191406 0.30235683917999268 0.21419253945350647
0.85582655668258667 0.29868113994598389 0.21274305880069733
0.88411915302276611 0.29544812440872192 0.21119415760040283
0.91353154182434082 0.29238477349281311 0.20949853956699371
0.94050419330596924 0.28980031609535217 0.20782916247844696
0.96793925762176514 0.2873784601688385 0.20557862520217896
0.99206340312957764 0.28570863604545593 0.2037922739982605
0.99988961219787598 0.28489837050437927 0.20148926973342896
0.99997496604919434 0.28542032837867737 0.19937807321548462
0.33182138204574585 0.3235853910446167 0.22903336584568024
0.33438566327095032 0.32411536574363708 0.22888308763504028
0.33757781982421875 0.32357615232467651 0.2289888858795166
0.34219488501548767 0.32335186004638672 0.22880531847476959
0.3480609655380249 0.32397815585136414 0.22857256233692169
0.35543128848075867 0.32555094361305237 0.22792381048202515
0.36527842283248901 0.32743051648139954 0.22724607586860657
0.37745329737663269 0.32963895797729492 0.22663155198097229
0.39286142587661743 0.33211979269981384 0.22555401921272278
0.41036662459373474 0.33444884419441223 0.22471193969249725
0.43428495526313782 0.33826246857643127 0.22370052337646484
0.46342819929122925 0.3424256443977356 0.22274816036224365
0.49227616190910339 0.34557881951332092 0.22216722369194031
0.52687805891036987 0.34901008009910583 0.22149252891540527
0.56066024303436279 0.35180753469467163 0.22124163806438446
0.5986560583114624 0.35419356822967529 0.22072470188140869
0.63245368003845215 0.35366275906562805 0.21999497711658478
0.66408449411392212 0.35125905275344849 0.21910551190376282
0.69227427244186401 0.34822842478752136 0.21779689192771912
0.72298097610473633 0.34465020895004272 0.2167125940322876
0.75034648180007935 0.34192073345184326 0.21566964685916901
0.78013759851455688 0.33775156736373901 0.21453830599784851
0.80959033966064453 0.33408874273300171 0.21311481297016144
0.83735948801040649 0.33099111914634705 0.21149836480617523
0.86654317378997803 0.3278825581073761 0.21016687154769897
0.89367038011550903 0.32502436637878418 0.20839940011501312
0.92140078544616699 0.32235375046730042 0.20637552440166473
0.9473767876625061 0.31989109516143799 0.20489765703678131
0.97356384992599487 0.31808805465698242 0.20265361666679382
0.99522608518600464 0.31676492094993591 0.2009376734495163
0.99999076128005981 0.31594261527061462 0.19873450696468353
0.99999874830245972 0.31740346550941467 0.19663101434707642
0.33367007970809937 0.33987823128700256 0.22856561839580536
0.33625450730323792 0.34059906005859375 0.22852841019630432
0.33999150991439819 0.34040194749832153 0.22848404943943024
0.34465685486793518 0.3399251401424408 0.22823148965835571
0.35071578621864319 0.33996152877807617 0.22781802713871002
0.35848590731620789 0.34154379367828369 0.227235347032547
0.36905631422996521 0.34399664402008057 0.2264457494020462
0.38167372345924377 0.34694758057594299 0.22560045123100281
0.39818593859672546 0.35068154335021973 0.22452820837497711
0.41676419973373413 0.35399690270423889 0.22303201258182526
0.43973258137702942 0.3578278124332428 0.22202104330062866
0.46804308891296387 0.36220085620880127 0.22036026418209076
0.49752071499824524 0.36634126305580139 0.21922323107719421
0.53309363126754761 0.3707369863986969 0.21828019618988037
0.56673389673233032 0.37413597106933594 0.21740402281284332
0.60505217313766479 0.37761363387107849 0.2172279953956604
0.64317220449447632 0.38049173355102539 0.21659864485263824
0.68096005916595459 0.38219565153121948 0.21609081327915192
0.71123987436294556 0.38082167506217957 0.21484760940074921
0.74165582656860352 0.37744960188865662 0.21361599862575531
0.76813793182373047 0.37394505739212036 0.21265874803066254
0.79729008674621582 0.37020373344421387 0.21122248470783234
0.82644551992416382 0.36667510867118835 0.20981138944625854
0.85302245616912842 0.36342203617095947 0.2083255797624588
0.88103240728378296 0.36058774590492249 0.20675686001777649
0.90670454502105713 0.35786393284797668 0.20511384308338165
0.93353676795959473 0.35553446412086487 0.20328547060489655
0.95803391933441162 0.35330739617347717 0.20135866105556488
0.9829336404800415 0.35146784782409668 0.19965958595275879
0.99870461225509644 0.35027673840522766 0.19766120612621307
0.99999773502349854 0.3499540388584137 0.195508673787117
1 0.35152140259742737 0.19382065534591675
0.33569419384002686 0.36094886064529419 0.22737948596477509
0.33851224184036255 0.36172935366630554 0.22745150327682495
0.34213349223136902 0.36124813556671143 0.22705802321434021
0.34758320450782776 0.3612615168094635 0.22710461914539337
0.35441288352012634 0.36094796657562256 0.22680850327014923
0.36249098181724548 0.36219722032546997 0.2261931300163269
0.37350806593894958 0.36514973640441895 0.22526669502258301
0.38637492060661316 0.3681027889251709 0.22430156171321869
0.40291252732276917 0.37189015746116638 0.22324088215827942
0.42161771655082703 0.37574803829193115 0.22158081829547882
0.44501635432243347 0.38029196858406067 0.21969473361968994
0.47127363085746765 0.38431158661842346 0.21819740533828735
0.4993172287940979 0.38865628838539124 0.21653148531913757
0.53475868701934814 0.39384430646896362 0.2147020548582077
0.5690910816192627 0.3985494077205658 0.21322362124919891
0.60744810104370117 0.40285775065422058 0.21225425601005554
0.64540368318557739 0.40677410364151001 0.21177491545677185
0.68560647964477539 0.41098552942276001 0.21138399839401245
0.72211760282516479 0.41440212726593018 0.21071746945381165
0.75881832838058472 0.41624128818511963 0.2100507915019989
0.78671115636825562 0.41367045044898987 0.20894664525985718
0.81494820117950439 0.40942901372909546 0.20726379752159119
0.84274446964263916 0.40580692887306213 0.20590880513191223
0.8685147762298584 0.40259194374084473 0.20451156795024872
0.8951263427734375 0.39934217929840088 0.20278090238571167
0.91990798711776733 0.39654853940010071 0.2012660950422287
0.9456789493560791 0.39436390995979309 0.19955301284790039
0.96893024444580078 0.39227533340454102 0.19779554009437561
0.99127376079559326 0.39058145880699158 0.19617322087287903
0.9998326301574707 0.38953983783721924 0.19417530298233032
0.99995476007461548 0.38891562819480896 0.1917540580034256
0.99995768070220947 0.39040458202362061 0.19016513228416443
0.3376394510269165 0.38593316078186035 0.22574183344841003
0.34079638123512268 0.38737580180168152 0.22588887810707092
0.34501084685325623 0.38674095273017883 0.22572214901447296
0.35067093372344971 0.38615289330482483 0.22532492876052856
0.35776302218437195 0.38514286279678345 0.22508218884468079
0.36609527468681335 0.38514795899391174 0.2247818261384964
0.37662768363952637 0.3870282769203186 0.22384566068649292
0.38979107141494751 0.38991075754165649 0.22284489870071411
0.40601053833961487 0.39365357160568237 0.22158239781856537
0.42421033978462219 0.39739862084388733 0.22000358998775482
0.44717049598693848 0.40208709239959717 0.21769338846206665
0.47379347681999207 0.40731000900268555 0.21570630371570587
0.50007146596908569 0.41143956780433655 0.21401439607143402
0.53259432315826416 0.41664889454841614 0.21175947785377502
0.56632393598556519 0.42224237322807312 0.2093932181596756
0.60562527179718018 0.4283081591129303 0.20756576955318451
0.64397388696670532 0.43327409029006958 0.20564748346805573
0.68358135223388672 0.43827122449874878 0.20488780736923218
0.72016531229019165 0.44257259368896484 0.2045014351606369
0.76017451286315918 0.44747251272201538 0.20408426225185394
0.7950097918510437 0.45091524720191956 0.20379158854484558
0.82887834310531616 0.45221978425979614 0.20342540740966797
0.8568580150604248 0.44889506697654724 0.20233641564846039
0.881103515625 0.44523316621780396 0.2008887380361557
0.9067496657371521 0.44165366888046265 0.19944141805171967
0.93008679151535034 0.43833991885185242 0.19763711094856262
0.95397138595581055 0.43546229600906372 0.19598677754402161
0.97614562511444092 0.43274542689323425 0.19428709149360657
0.99520605802536011 0.43067574501037598 0.19252340495586395
0.99998718500137329 0.42892593145370483 0.19083453714847565
0.9999929666519165 0.42831209301948547 0.18892031908035278
0.99999457597732544 0.42931023240089417 0.18724840879440308
0.33945074677467346 0.41033980250358582 0.22406092286109924
0.34289243817329407 0.41175919771194458 0.22393500804901123
0.34736800193786621 0.41095322370529175 0.22378323972225189
0.35312467813491821 0.40999135375022888 0.22345158457756042
0.36085855960845947 0.4092089831829071 0.22324299812316895
0.3693166971206665 0.40813574194908142 0.22286547720432281
0.38035199046134949 0.4092542827129364 0.22229219973087311
0.39347532391548157 0.41211232542991638 0.2211524099111557
0.40969040989875793 0.4160083532333374 0.21953283250331879
0.42791756987571716 0.41993725299835205 0.21793076395988464
0.45081278681755066 0.42521056532859802 0.21575495600700378
0.47714957594871521 0.43076741695404053 0.21313634514808655
0.50386989116668701 0.43599766492843628 0.21076834201812744
0.53478223085403442 0.44077056646347046 0.2083546370267868
0.56633168458938599 0.44597914814949036 0.20586691796779633
0.60427844524383545 0.45231759548187256 0.20297664403915405
