LUTs/Polaroid 690 5 ++.cube
# Created by: G'MIC (https://gmic.eu)
TITLE "Polaroid 690 5 ++"
# LUT size
LUT_3D_SIZE 5
# Data domain
# LUT data points
DOMAIN_MIN 0.000000 0.000000 0.000000
DOMAIN_MAX 0.903226 0.903226 0.903226
0.32334145903587341 0.26947808265686035 0.22767774760723114
0.35706239938735962 0.26821026206016541 0.22847086191177368
0.48273754119873047 0.25804772973060608 0.2280258983373642
0.69722509384155273 0.2249799519777298 0.22461433708667755
0.92615967988967896 0.16764658689498901 0.21557228267192841
0.3303171694278717 0.30908483266830444 0.22955276072025299
0.37427219748497009 0.31508809328079224 0.22696584463119507
0.55224066972732544 0.32955434918403625 0.2236572802066803
0.76573657989501953 0.30937874317169189 0.21711578965187073
0.96793925762176514 0.2873784601688385 0.20557862520217896
0.34299802780151367 0.4611382782459259 0.21958270668983459
0.39829111099243164 0.45759561657905579 0.21676698327064514
0.56376451253890991 0.49423876404762268 0.19819824397563934
0.82409244775772095 0.54088574647903442 0.17938114702701569
0.99996656179428101 0.55364710092544556 0.19264529645442963
0.36799588799476624 0.66124337911605835 0.18787452578544617
0.42544984817504883 0.65318924188613892 0.18379853665828705
0.57033568620681763 0.66702544689178467 0.16683368384838104
0.79479146003723145 0.70607888698577881 0.13136596977710724
0.99622863531112671 0.73218691349029541 0.1566215306520462
0.51924318075180054 0.84356224536895752 0.21009171009063721
0.56000471115112305 0.83842551708221436 0.19723129272460938
0.66903293132781982 0.83306008577346802 0.17381484806537628
0.83379459381103516 0.84815102815628052 0.18054020404815674
0.9840775728225708 0.86815786361694336 0.19865459203720093
0.3262384831905365 0.27079728245735168 0.26838213205337524
0.3662111759185791 0.26922395825386047 0.27869802713394165
0.48669397830963135 0.25851917266845703 0.28002503514289856
0.67835336923599243 0.20853109657764435 0.27869552373886108
0.90820509195327759 0.043265592306852341 0.25393059849739075
0.33226075768470764 0.31514480710029602 0.28400102257728577
0.38207390904426575 0.320513516664505 0.29191160202026367
0.54380649328231812 0.30474761128425598 0.28606167435646057
0.74640178680419922 0.26940196752548218 0.27346092462539673
0.95512735843658447 0.22302746772766113 0.25783979892730713
0.33171528577804565 0.4893227219581604 0.29752275347709656
0.39915642142295837 0.48284536600112915 0.2906365692615509
0.57700663805007935 0.50617086887359619 0.2803846001625061
0.83594262599945068 0.54175537824630737 0.29356354475021362
0.9996064305305481 0.52990317344665527 0.28668248653411865
0.35682356357574463 0.68189549446105957 0.27655765414237976
0.42152208089828491 0.67391681671142578 0.26891171932220459
0.57134723663330078 0.67542433738708496 0.25524863600730896
0.80206531286239624 0.71173775196075439 0.24961629509925842
0.99760806560516357 0.7339293360710144 0.29113003611564636
0.50742089748382568 0.84934478998184204 0.30529859662055969
0.55034929513931274 0.84450870752334595 0.29242298007011414
0.66220444440841675 0.83764302730560303 0.26794499158859253
0.82986187934875488 0.84951156377792358 0.27777233719825745
0.981944739818573 0.8699985146522522 0.30576243996620178
0.32293909788131714 0.27046006917953491 0.45568141341209412
0.38365572690963745 0.26661139726638794 0.4827592670917511
0.57312387228012085 0.24682034552097321 0.52934890985488892
0.72031307220458984 0.23432417213916779 0.45898523926734924
0.91232705116271973 0.11478033661842346 0.44683924317359924
0.31769648194313049 0.32249864935874939 0.47173094749450684
0.3866707980632782 0.32667297124862671 0.50094562768936157
0.59251928329467773 0.32894551753997803 0.54803800582885742
0.7426641583442688 0.30030494928359985 0.47347190976142883
0.92726635932922363 0.18581399321556091 0.44186913967132568
0.33526265621185303 0.50205528736114502 0.51362967491149902
0.4113425612449646 0.50955259799957275 0.5231749415397644
0.59859532117843628 0.53286242485046387 0.5515177845954895
0.80168348550796509 0.47663247585296631 0.49897649884223938
0.98221069574356079 0.41247346997261047 0.43556785583496094
0.35828065872192383 0.7193647027015686 0.53090077638626099
0.42475825548171997 0.71771854162216187 0.52289652824401855
0.58045631647109985 0.70484346151351929 0.4981437623500824
0.8108818531036377 0.72356051206588745 0.5058937668800354
0.99490654468536377 0.73916423320770264 0.56674224138259888
0.48462706804275513 0.86229360103607178 0.52994191646575928
0.52627140283584595 0.85769623517990112 0.51444965600967407
0.64201557636260986 0.85040247440338135 0.48471114039421082
0.81185531616210938 0.8507542610168457 0.47123733162879944
0.9714893102645874 0.87242251634597778 0.51805692911148071
0.31010615825653076 0.26774057745933533 0.7525097131729126
0.3980557918548584 0.26206701993942261 0.76774382591247559
0.60804510116577148 0.24338290095329285 0.80728757381439209
0.85093975067138672 0.22734592854976654 0.82766836881637573
0.96998780965805054 0.21965505182743073 0.7455030083656311
0.29824176430702209 0.33088690042495728 0.75833225250244141
0.39249107241630554 0.33070683479309082 0.76974028348922729
0.60868018865585327 0.33573010563850403 0.80743318796157837
0.85361534357070923 0.35238093137741089 0.83128339052200317
0.97101497650146484 0.31962764263153076 0.74728685617446899
0.2833576500415802 0.47597679495811462 0.71571242809295654
0.36661389470100403 0.48169699311256409 0.73020690679550171
0.58713406324386597 0.52136862277984619 0.78264904022216797
0.83747780323028564 0.57721918821334839 0.82349419593811035
0.95731437206268311 0.49709886312484741 0.73523420095443726
0.39099529385566711 0.71983605623245239 0.76708108186721802
0.46217191219329834 0.72079896926879883 0.7699887752532959
0.63051825761795044 0.72874897718429565 0.78506356477737427
0.8300929069519043 0.74904400110244751 0.81510823965072632
0.96524393558502197 0.68512237071990967 0.74713486433029175
0.59148156642913818 0.87298935651779175 0.80285519361495972
0.61752510070800781 0.87091153860092163 0.79884260892868042
0.69431263208389282 0.8685297966003418 0.79086858034133911
0.80232399702072144 0.85885941982269287 0.7576102614402771
0.94871491193771362 0.87746125459671021 0.77750194072723389
0.43876343965530396 0.29078513383865356 0.9402652382850647
0.50724732875823975 0.28777316212654114 0.94062072038650513
0.66828471422195435 0.28933796286582947 0.94462507963180542
0.86841297149658203 0.33353227376937866 0.94963347911834717
0.99999046325683594 0.40884333848953247 0.94631880521774292
0.43352562189102173 0.36375764012336731 0.93771833181381226
0.50417309999465942 0.36411517858505249 0.93827205896377563
0.66769444942474365 0.37704825401306152 0.94179892539978027
0.86561542749404907 0.43748277425765991 0.94615715742111206
0.99981653690338135 0.50759041309356689 0.94247704744338989
0.37286356091499329 0.50816649198532104 0.92368608713150024
0.45726025104522705 0.51255214214324951 0.92515820264816284
0.64599001407623291 0.54323011636734009 0.9297446608543396
0.85253816843032837 0.61321097612380981 0.93455392122268677
0.98872381448745728 0.65901166200637817 0.93366134166717529
0.33842107653617859 0.69517886638641357 0.90407776832580566
0.3985162079334259 0.69005513191223145 0.90346091985702515
0.55612683296203613 0.68348121643066406 0.90482616424560547
0.8301084041595459 0.7373921275138855 0.91939008235931396
0.97048652172088623 0.78936910629272461 0.92495197057723999
0.64273285865783691 0.86990576982498169 0.90895569324493408
0.6706886887550354 0.86862391233444214 0.90853297710418701
0.75247383117675781 0.86974680423736572 0.90938347578048706
0.86060208082199097 0.87675386667251587 0.91145807504653931
0.94710707664489746 0.90122973918914795 0.91568088531494141
