LUTs/Polaroid 669 Cold 3.cube
# Created by: G'MIC (https://gmic.eu)
TITLE "Polaroid 669 Cold 3"
# LUT size
LUT_3D_SIZE 32
# Data domain
DOMAIN_MIN 0.0 0.0 0.0
DOMAIN_MAX 1.0 1.0 1.0
# LUT data points
0 0.18825940787792206 0.24026073515415192
0 0.18874779343605042 0.24104180932044983
0 0.18978394567966461 0.24265031516551971
0 0.1904526948928833 0.24376729130744934
0 0.19165472686290741 0.24530385434627533
0 0.19286604225635529 0.24702998995780945
0 0.19417257606983185 0.24902911484241486
0 0.19498103857040405 0.25083848834037781
0 0.19655264914035797 0.25286880135536194
0.0037198727950453758 0.19819498062133789 0.25549760460853577
0.042838972061872482 0.19933649897575378 0.25826379656791687
0.093778066337108612 0.2008737176656723 0.26138383150100708
0.13181149959564209 0.20221148431301117 0.26436695456504822
0.17091880738735199 0.20353204011917114 0.26790618896484375
0.2054765373468399 0.20428965985774994 0.27146092057228088
0.24312177300453186 0.20512197911739349 0.27544060349464417
0.27962517738342285 0.20542778074741364 0.27952101826667786
0.31904247403144836 0.20552003383636475 0.28369837999343872
0.360494464635849 0.20482358336448669 0.28826138377189636
0.40613687038421631 0.20333519577980042 0.29326444864273071
0.44577983021736145 0.20148035883903503 0.29801815748214722
0.48767721652984619 0.19903171062469482 0.30288770794868469
0.52860218286514282 0.19654090702533722 0.30797559022903442
0.56646287441253662 0.19348117709159851 0.31219148635864258
0.60775721073150635 0.19025030732154846 0.31743216514587402
0.64643847942352295 0.18756496906280518 0.32287350296974182
0.68702155351638794 0.18507590889930725 0.32841944694519043
0.72440654039382935 0.18389716744422913 0.33415696024894714
0.76125538349151611 0.18423008918762207 0.34033524990081787
0.79645454883575439 0.18661937117576599 0.34762638807296753
0.8310893177986145 0.19192399084568024 0.35517159104347229
0.86215555667877197 0.20016604661941528 0.36347389221191406
0 0.19145208597183228 0.24267111718654633
0 0.19203236699104309 0.24329575896263123
0 0.1928752064704895 0.24445459246635437
0 0.1936231404542923 0.24583043158054352
0 0.19469460844993591 0.24728542566299438
0 0.19550256431102753 0.24862562119960785
0 0.19666294753551483 0.25064894556999207
0 0.19770792126655579 0.25260990858078003
0 0.1991199404001236 0.25485426187515259
0.0057832705788314342 0.20021028816699982 0.25726422667503357
0.049402371048927307 0.20154045522212982 0.25991591811180115
0.099214136600494385 0.20317712426185608 0.26290145516395569
0.13690164685249329 0.20438741147518158 0.26594981551170349
0.17543721199035645 0.20547404885292053 0.26928719878196716
0.20932060480117798 0.20635199546813965 0.27289694547653198
0.24655435979366302 0.20733794569969177 0.27669179439544678
0.28302353620529175 0.20756034553050995 0.28076949715614319
0.32328066229820251 0.20743477344512939 0.28511646389961243
0.36508327722549438 0.20667646825313568 0.28959503769874573
0.41048187017440796 0.20542255043983459 0.29475224018096924
0.45047482848167419 0.20383672416210175 0.2997778058052063
0.49237546324729919 0.20144686102867126 0.30439549684524536
0.53289735317230225 0.1985098123550415 0.30909872055053711
0.57127916812896729 0.19598338007926941 0.31368309259414673
0.61243909597396851 0.19312852621078491 0.3189813494682312
0.65065908432006836 0.1905188262462616 0.32406505942344666
0.69093400239944458 0.18843753635883331 0.32991772890090942
0.72803550958633423 0.18774111568927765 0.3358369767665863
0.76426225900650024 0.18845304846763611 0.34213614463806152
0.79923021793365479 0.19113990664482117 0.3489917516708374
0.83387863636016846 0.19716651737689972 0.35694044828414917
0.86447763442993164 0.20526185631752014 0.36506059765815735
0 0.19682283699512482 0.24646365642547607
0 0.19747164845466614 0.2468169629573822
0 0.19841516017913818 0.24733738601207733
0 0.19859963655471802 0.24826562404632568
0 0.19886575639247894 0.24958735704421997
0 0.19983097910881042 0.25165322422981262
0 0.20080521702766418 0.25371658802032471
0 0.20170202851295471 0.25526690483093262
2.7903956834052224e-06 0.20267784595489502 0.2573237419128418
0.010923516936600208 0.20392811298370361 0.25979459285736084
0.059753790497779846 0.20499908924102783 0.26249107718467712
0.10699311643838882 0.20629030466079712 0.26540344953536987
0.14403823018074036 0.20765648782253265 0.26844975352287292
0.18188658356666565 0.2089221179485321 0.27187171578407288
0.21580098569393158 0.20995046198368073 0.2753807008266449
0.25299078226089478 0.21052110195159912 0.27928462624549866
0.28969717025756836 0.21104700863361359 0.28305184841156006
0.33162310719490051 0.21086785197257996 0.28750571608543396
0.37334129214286804 0.21040855348110199 0.29233738780021667
0.41780349612236023 0.2090909481048584 0.29726418852806091
0.45673736929893494 0.20732641220092773 0.30166539549827576
0.49853828549385071 0.20476718246936798 0.30650916695594788
0.53974521160125732 0.20250222086906433 0.31129878759384155
0.57770401239395142 0.2000608891248703 0.31582483649253845
0.6184961199760437 0.19719903171062469 0.32121157646179199
0.65691041946411133 0.19526208937168121 0.32634586095809937
0.69679915904998779 0.19361625611782074 0.33204776048660278
0.73350471258163452 0.19331134855747223 0.33799007534980774
0.76960515975952148 0.19465519487857819 0.34420555830001831
0.80452448129653931 0.19810019433498383 0.35130372643470764
0.8387836217880249 0.20446117222309113 0.35959336161613464
0.86936008930206299 0.2136160135269165 0.36818069219589233
0 0.20327463746070862 0.25041678547859192
0 0.20379108190536499 0.25125870108604431
0 0.20445035398006439 0.25152724981307983
0 0.20520640909671783 0.25215330719947815
0 0.20540153980255127 0.25281849503517151
0 0.20577821135520935 0.25476318597793579
0 0.20630136132240295 0.25707560777664185
0 0.20710286498069763 0.25900143384933472
0.00024106330238282681 0.20769581198692322 0.2611013650894165
0.020342551171779633 0.20893259346485138 0.26337188482284546
0.073671072721481323 0.21004223823547363 0.26613819599151611
0.11819310486316681 0.21113739907741547 0.2687591016292572
0.15394434332847595 0.21246761083602905 0.27191346883773804
0.19139648973941803 0.21355830132961273 0.27520009875297546
0.22527594864368439 0.21435180306434631 0.27846050262451172
0.26243382692337036 0.21494241058826447 0.28228640556335449
0.30026954412460327 0.21538229286670685 0.28635844588279724
0.34461015462875366 0.21532376110553741 0.29121661186218262
0.38526216149330139 0.21466508507728577 0.29552382230758667
0.42900362610816956 0.21341174840927124 0.30035683512687683
0.46706247329711914 0.21222861111164093 0.30482739210128784
0.50755590200424194 0.21016903221607208 0.30939093232154846
0.54726648330688477 0.20748662948608398 0.31389638781547546
0.58464062213897705 0.20552468299865723 0.31863564252853394
0.62499880790710449 0.20330628752708435 0.3237280547618866
0.66250127553939819 0.20141030848026276 0.3287501335144043
0.70155918598175049 0.20067389309406281 0.33447712659835815
0.73746418952941895 0.20087066292762756 0.3404814600944519
0.77293586730957031 0.20267145335674286 0.34665757417678833
0.80606979131698608 0.20633144676685333 0.35333800315856934
0.83929497003555298 0.21277280151844025 0.36119604110717773
0.86942499876022339 0.22201605141162872 0.36975491046905518
0 0.20978783071041107 0.25527292490005493
0 0.21005715429782867 0.25590997934341431
0 0.21057112514972687 0.25636190176010132
0 0.21163296699523926 0.25699412822723389
0 0.21259501576423645 0.25709390640258789
0 0.2128000408411026 0.25791344046592712
0 0.21277314424514771 0.25974249839782715
0 0.21325677633285522 0.2622407078742981
0.0018858478870242834 0.21436719596385956 0.26509726047515869
0.03637254610657692 0.21536241471767426 0.26778218150138855
0.08913305401802063 0.21675047278404236 0.27076572179794312
0.13105107843875885 0.21752072870731354 0.27328470349311829
0.16596981883049011 0.21845339238643646 0.27638518810272217
0.20287425816059113 0.21974392235279083 0.2796119749546051
0.23639802634716034 0.22028937935829163 0.28270310163497925
0.27345976233482361 0.22098806500434875 0.28645163774490356
0.3142889142036438 0.22151955962181091 0.29079338908195496
0.35820916295051575 0.22145991027355194 0.29520648717880249
0.39757093787193298 0.22096750140190125 0.29963406920433044
0.44034823775291443 0.21997381746768951 0.30441701412200928
0.47722539305686951 0.2185528576374054 0.3083498477935791
0.51747596263885498 0.21671845018863678 0.31303307414054871
0.55660051107406616 0.21467597782611847 0.31758859753608704
0.59399557113647461 0.21308650076389313 0.32243099808692932
0.63362419605255127 0.21132127940654755 0.3270990252494812
0.67049324512481689 0.21019168198108673 0.33216473460197449
0.7091134786605835 0.20990662276744843 0.33799111843109131
0.74437469244003296 0.2110595703125 0.34378960728645325
0.77855640649795532 0.21337211132049561 0.35001978278160095
0.81094664335250854 0.21768319606781006 0.3567337691783905
0.84402424097061157 0.2248682826757431 0.36490833759307861
0.87380468845367432 0.23492991924285889 0.37365645170211792
0 0.21787384152412415 0.2611272931098938
0 0.2180517166852951 0.26162880659103394
0 0.21828927099704742 0.262137770652771
0 0.21890392899513245 0.26232495903968811
0 0.21983884274959564 0.2625444233417511
0 0.22096186876296997 0.26304474472999573
0 0.22108536958694458 0.26374319195747375
1.8496588381822221e-05 0.22100576758384705 0.26565489172935486
0.0082363300025463104 0.22151409089565277 0.26839679479598999
0.054067820310592651 0.22263583540916443 0.27164223790168762
0.10345034301280975 0.22386243939399719 0.27504777908325195
0.14406830072402954 0.2250654399394989 0.27818948030471802
0.17812098562717438 0.22615340352058411 0.28112760186195374
0.21465021371841431 0.22689121961593628 0.28435146808624268
0.24870561063289642 0.22778883576393127 0.28755366802215576
0.28949344158172607 0.22837963700294495 0.29145020246505737
0.33094549179077148 0.22929888963699341 0.29596415162086487
0.37307173013687134 0.22914877533912659 0.30035832524299622
0.41095113754272461 0.22870641946792603 0.30441251397132874
0.45232993364334106 0.22787168622016907 0.30876824259757996
0.48872080445289612 0.22670313715934753 0.31279107928276062
0.52767264842987061 0.22514241933822632 0.31716093420982361
0.56611281633377075 0.22335122525691986 0.3214937150478363
0.60241603851318359 0.22213844954967499 0.32611322402954102
0.64147984981536865 0.22102975845336914 0.33101284503936768
0.67816692590713501 0.22071251273155212 0.33602017164230347
0.71564018726348877 0.22101311385631561 0.34164300560951233
0.7501298189163208 0.22275109589099884 0.34752228856086731
0.78386157751083374 0.22598952054977417 0.35366633534431458
0.81601893901824951 0.23103739321231842 0.36057046055793762
0.84802806377410889 0.23880492150783539 0.36879900097846985
0.8773568868637085 0.24935029447078705 0.37768003344535828
0 0.22676719725131989 0.26709127426147461
0 0.22689080238342285 0.26754301786422729
0 0.22706118226051331 0.26807981729507446
0 0.22730597853660583 0.26867827773094177
0 0.22792130708694458 0.26859024167060852
0 0.2290252298116684 0.26889041066169739
0 0.23056580126285553 0.269523024559021
0.000597647565882653 0.23072648048400879 0.27046114206314087
0.021669726818799973 0.23063793778419495 0.27207642793655396
0.072552323341369629 0.2313905656337738 0.2751515805721283
0.11802849918603897 0.23271907866001129 0.27903971076011658
0.15899886190891266 0.23420187830924988 0.28338611125946045
0.19418385624885559 0.2356337308883667 0.28711700439453125
0.2328965961933136 0.23691457509994507 0.2908363938331604
0.27060520648956299 0.23831595480442047 0.29450997710227966
0.31220236420631409 0.23915292322635651 0.29889518022537231
0.35128992795944214 0.23954793810844421 0.30255874991416931
0.39144665002822876 0.23943887650966644 0.30657431483268738
0.42806443572044373 0.23901937901973724 0.31039664149284363
0.46758446097373962 0.23820973932743073 0.31440851092338562
0.50252920389175415 0.23714137077331543 0.31819763779640198
0.54023444652557373 0.23567970097064972 0.3222009539604187
0.57778620719909668 0.2344973087310791 0.32644787430763245
0.61327433586120605 0.23387959599494934 0.33077096939086914
0.65113550424575806 0.23351885378360748 0.33576902747154236
0.6864326000213623 0.23362763226032257 0.3406827449798584
0.72275590896606445 0.23491698503494263 0.34597370028495789
0.75611573457717896 0.2375885546207428 0.35170826315879822
0.7887035608291626 0.2414240837097168 0.3581775426864624
0.81967145204544067 0.24669431149959564 0.3647792637348175
0.85046398639678955 0.25470700860023499 0.37261363863945007
0.87934798002243042 0.26600170135498047 0.38178163766860962
0 0.23607319593429565 0.27361175417900085
0 0.23648662865161896 0.27395325899124146
0 0.23600070178508759 0.27423381805419922
0 0.2361263781785965 0.27473098039627075
0 0.23675130307674408 0.27499637007713318
0 0.2377920001745224 0.2751915454864502
0 0.23945902287960052 0.27582773566246033
0.0025953697040677071 0.24070626497268677 0.2763308584690094
0.038850940763950348 0.2409902811050415 0.27710714936256409
0.088577955961227417 0.24107934534549713 0.27899450063705444
0.13175100088119507 0.24235360324382782 0.28268325328826904
0.17275741696357727 0.24398818612098694 0.286857008934021
0.21091152727603912 0.24602566659450531 0.29183754324913025
0.25457823276519775 0.24869619309902191 0.297435462474823
0.29308223724365234 0.25048977136611938 0.30194449424743652
0.33326068520545959 0.2513543963432312 0.30609628558158875
0.37113431096076965 0.25155967473983765 0.30966314673423767
0.40995177626609802 0.25153720378875732 0.31336656212806702
0.44513213634490967 0.2510719895362854 0.31696712970733643
0.48342132568359375 0.25050398707389832 0.32061433792114258
0.51731991767883301 0.24955694377422333 0.32403457164764404
0.55397003889083862 0.24855139851570129 0.32827854156494141
0.59082686901092529 0.24800221621990204 0.33241328597068787
0.62539738416671753 0.24784304201602936 0.33644270896911621
0.66268318891525269 0.24823546409606934 0.34134078025817871
0.69702625274658203 0.24941478669643402 0.34629228711128235
0.73238641023635864 0.25167027115821838 0.35183465480804443
0.76451998949050903 0.25471055507659912 0.35738405585289001
0.79617905616760254 0.25939902663230896 0.363689124584198
0.82649123668670654 0.26575276255607605 0.37050288915634155
0.85664874315261841 0.27444362640380859 0.37879759073257446
0.88425791263580322 0.28610062599182129 0.38789349794387817
0 0.24753880500793457 0.28053396940231323
0 0.24785962700843811 0.28123396635055542
0 0.24728010594844818 0.28149431943893433
0 0.24718250334262848 0.28190487623214722
0 0.24747656285762787 0.28222998976707458
0 0.24854303896427155 0.28227582573890686
0 0.24970966577529907 0.28248435258865356
0.0049671763554215431 0.25107786059379578 0.28320592641830444
0.052398618310689926 0.25298008322715759 0.28380125761032104
0.1037219911813736 0.25372996926307678 0.28476622700691223
0.14696253836154938 0.25429514050483704 0.28701025247573853
0.18813548982143402 0.25620388984680176 0.29106378555297852
0.22554686665534973 0.25827491283416748 0.29603952169418335
0.26766017079353333 0.26061552762985229 0.30146452784538269
0.30745148658752441 0.2632574737071991 0.30692014098167419
0.35095521807670593 0.2654283344745636 0.31303474307060242
0.39033082127571106 0.26642933487892151 0.31730210781097412
0.42822286486625671 0.26650860905647278 0.32100966572761536
0.46212831139564514 0.26610913872718811 0.32418632507324219
0.49908843636512756 0.26563817262649536 0.32782620191574097
0.53200024366378784 0.26509693264961243 0.3311631977558136
0.56715363264083862 0.26444908976554871 0.3347286581993103
0.6024707555770874 0.26426401734352112 0.33873751759529114
0.6358528733253479 0.26460006833076477 0.34271171689033508
0.67183929681777954 0.26586684584617615 0.34740501642227173
0.70492863655090332 0.26744905114173889 0.35199946165084839
0.73889356851577759 0.27017360925674438 0.35767915844917297
0.76973879337310791 0.27397751808166504 0.36284458637237549
0.80049312114715576 0.27924418449401855 0.36920040845870972
0.82971149682998657 0.28597897291183472 0.37611731886863708
0.85864174365997314 0.29473781585693359 0.3838401734828949
0.88639754056930542 0.30749616026878357 0.39351600408554077
0 0.25886085629463196 0.28766089677810669
0 0.25966447591781616 0.28836971521377563
0 0.25942105054855347 0.28875738382339478
0 0.25889816880226135 0.28890413045883179
0 0.25854706764221191 0.28929227590560913
0 0.2596156895160675 0.28954023122787476
0.00012820117990486324 0.26146700978279114 0.29005452990531921
0.016027037054300308 0.26346325874328613 0.29092204570770264
0.073377169668674469 0.26621735095977783 0.29192173480987549
0.1235136091709137 0.2685718834400177 0.29285663366317749
0.16678577661514282 0.26985490322113037 0.29404303431510925
0.20527319610118866 0.2703341543674469 0.29603186249732971
0.24099646508693695 0.27175271511077881 0.29993265867233276
0.28189700841903687 0.27400645613670349 0.30542644858360291
0.32009688019752502 0.27627456188201904 0.31055238842964172
0.36264348030090332 0.27872300148010254 0.31684786081314087
0.40449625253677368 0.28102770447731018 0.32253006100654602
0.44662028551101685 0.28292298316955566 0.32835352420806885
0.48134937882423401 0.28332915902137756 0.33221334218978882
0.51731473207473755 0.28307488560676575 0.33557605743408203
0.54878467321395874 0.28277641534805298 0.33870583772659302
0.58299762010574341 0.28251805901527405 0.34228840470314026
0.61777180433273315 0.28313067555427551 0.34619548916816711
0.65025758743286133 0.28389179706573486 0.34989184141159058
0.68495911359786987 0.28584966063499451 0.35459491610527039
0.71626549959182739 0.28824195265769958 0.35912239551544189
0.74872481822967529 0.29180124402046204 0.36464196443557739
0.77841329574584961 0.29631930589675903 0.37009960412979126
0.80794829130172729 0.30209729075431824 0.37626373767852783
0.83605062961578369 0.30916735529899597 0.38323473930358887
0.86405611038208008 0.31886842846870422 0.39145272970199585
0.89046043157577515 0.33204948902130127 0.40139606595039368
0 0.27389377355575562 0.29604774713516235
0 0.27485901117324829 0.2967592179775238
0 0.27453956007957458 0.2969219982624054
0 0.27436959743499756 0.29754382371902466
0 0.27416399121284485 0.29818418622016907
5.6631524785188958e-06 0.27470695972442627 0.29847058653831482
0.0027761843521147966 0.27674329280853271 0.29899886250495911
0.040295436978340149 0.27868330478668213 0.29976651072502136
0.095225818455219269 0.28121921420097351 0.30060157179832458
0.1376781165599823 0.28333622217178345 0.30125942826271057
0.1809798926115036 0.28607073426246643 0.30232232809066772
0.21979515254497528 0.28726339340209961 0.30320727825164795
0.25254523754119873 0.28707662224769592 0.30433520674705505
0.2912105917930603 0.28852230310440063 0.30836805701255798
0.3276066780090332 0.29035982489585876 0.31333944201469421
0.36889919638633728 0.2929072380065918 0.31907138228416443
0.41026189923286438 0.29578077793121338 0.325166255235672
0.45377200841903687 0.29897558689117432 0.33178046345710754
0.4935707151889801 0.30175736546516418 0.33803963661193848
0.53422296047210693 0.3040672242641449 0.34401845932006836
0.566059410572052 0.3046780526638031 0.34774810075759888
0.59942072629928589 0.30494678020477295 0.35097473859786987
0.63286739587783813 0.3058336079120636 0.35471025109291077
0.66436892747879028 0.30764797329902649 0.35841882228851318
0.69755274057388306 0.31013011932373047 0.36285650730133057
0.72788411378860474 0.31333243846893311 0.36758795380592346
0.75912529230117798 0.31780070066452026 0.37307372689247131
0.78749030828475952 0.32296127080917358 0.37859845161437988
0.81574761867523193 0.32951962947845459 0.38491296768188477
0.84313523769378662 0.33774828910827637 0.39245328307151794
0.87017619609832764 0.34810808300971985 0.40078064799308777
0.89484608173370361 0.36169761419296265 0.41057458519935608
0 0.29187071323394775 0.30532658100128174
0 0.29374676942825317 0.30633580684661865
0 0.29313212633132935 0.30660787224769592
0 0.29245951771736145 0.30668202042579651
0 0.2914929986000061 0.30693036317825317
0.0010510127758607268 0.29111531376838684 0.30727800726890564
0.019994664937257767 0.29205870628356934 0.30739650130271912
0.066408470273017883 0.2936413586139679 0.30780652165412903
0.11112784594297409 0.29578381776809692 0.30849790573120117
0.14846980571746826 0.29802480340003967 0.30893787741661072
0.1877402663230896 0.30057594180107117 0.30958685278892517
0.22816631197929382 0.30338862538337708 0.31029126048088074
0.26232561469078064 0.30473986268043518 0.31130668520927429
0.29664251208305359 0.30414152145385742 0.31221097707748413
0.33151838183403015 0.30499565601348877 0.31520164012908936
0.37204986810684204 0.30783736705780029 0.32074925303459167
0.41202667355537415 0.31064119935035706 0.3264617919921875
0.45460629463195801 0.31407645344734192 0.33287864923477173
0.49407219886779785 0.31773027777671814 0.33941775560379028
0.53710150718688965 0.3219468891620636 0.34683412313461304
0.57488387823104858 0.32604354619979858 0.35334086418151855
0.61311614513397217 0.32990849018096924 0.35955578088760376
0.64657586812973022 0.33209085464477539 0.36385446786880493
0.67678993940353394 0.33428525924682617 0.36744889616966248
0.70842278003692627 0.33754578232765198 0.37198156118392944
0.73715442419052124 0.34098508954048157 0.37654069066047668
0.76631218194961548 0.34570270776748657 0.38193154335021973
0.79323118925094604 0.35106548666954041 0.38703620433807373
0.82030123472213745 0.35804685950279236 0.3934648334980011
0.84627765417098999 0.3664969801902771 0.40086719393730164
0.87233251333236694 0.37745600938796997 0.40945890545845032
0.89593011140823364 0.39141792058944702 0.41970208287239075
0 0.30902558565139771 0.31342682242393494
0 0.3112865686416626 0.31459060311317444
0 0.31029954552650452 0.31484362483024597
3.9472266507800668e-05 0.30925339460372925 0.31465810537338257
0.0012784169521182775 0.30823788046836853 0.31481084227561951
0.014127377420663834 0.30704808235168457 0.3149314820766449
0.051919255405664444 0.30737578868865967 0.31546503305435181
0.092068038880825043 0.30905130505561829 0.31558007001876831
0.12969732284545898 0.31131592392921448 0.31625950336456299
0.1633012592792511 0.31363752484321594 0.31662118434906006
0.19967186450958252 0.31648540496826172 0.31727859377861023
0.23749683797359467 0.31914830207824707 0.31780534982681274
0.27280771732330322 0.32189768552780151 0.3184826672077179
0.30924025177955627 0.32314786314964294 0.31907904148101807
0.33961576223373413 0.32191479206085205 0.31962749361991882
0.37659794092178345 0.32273697853088379 0.32250502705574036
0.41595211625099182 0.32594287395477295 0.32810905575752258
0.45746880769729614 0.32944706082344055 0.33455678820610046
0.49562233686447144 0.33327701687812805 0.34046372771263123
0.53777575492858887 0.33841019868850708 0.34794861078262329
0.57582801580429077 0.34332171082496643 0.35484710335731506
0.61831420660018921 0.35021355748176575 0.3631974458694458
0.65824061632156372 0.35742852091789246 0.37156778573989868
0.69027251005172729 0.36254054307937622 0.37721043825149536
0.72014343738555908 0.36612275242805481 0.38165003061294556
0.74723529815673828 0.37000322341918945 0.38611459732055664
0.77525186538696289 0.37550532817840576 0.3914426863193512
0.80088573694229126 0.38115647435188293 0.39683833718299866
0.82674598693847656 0.38866379857063293 0.40329951047897339
0.85187768936157227 0.39783793687820435 0.41115874052047729
0.87665528059005737 0.4091203510761261 0.41986772418022156
0.89893162250518799 0.42321977019309998 0.43035921454429626
0 0.3265327513217926 0.32116663455963135
5.4528798500541598e-05 0.32874271273612976 0.32243651151657104
0.00079665007069706917 0.32798844575881958 0.3223775327205658
0.0062374374829232693 0.32699227333068848 0.32257029414176941
0.022984284907579422 0.325521320104599 0.32249408960342407
0.050041742622852325 0.32442614436149597 0.32269692420959473
0.080393373966217041 0.32369875907897949 0.32300987839698792
0.11115378886461258 0.32479614019393921 0.32300183176994324
0.14330506324768066 0.32659003138542175 0.32336840033531189
